;FLAVOR:Marlin
;TIME:1391
;Filament used: 0.564637m
;Layer height: 0.13125
;MINX:49.215
;MINY:51
;MINZ:0.263
;MAXX:70.767
;MAXY:70.714
;MAXZ:20.044
;TARGET_MACHINE.NAME:Monoprice Select Mini V2
;Generated with Cura_SteamEngine 5.7.2
M140 S65
M105
M190 S65
M104 S205
M105
M109 S205
M82 ;absolute extrusion mode
G21;(metric values)
G90;(absolute positioning)
M82;(set extruder to absolute mode)
M107;(start with the fan off)
G28;(Home the printer)
G92 E0;(Reset the extruder to 0)
G0 Z5 E5 F500;(Move up and prime the nozzle)
G0 X-1 Z0;(Move outside the printable area)
G1 Y60 E8 F500;(Draw a priming/wiping line to the rear)
G1 X-1;(Move a little closer to the print area)
G1 Y10 E16 F500;(draw more priming/wiping)
G1 E15 F250;(Small retract)
G92 E0;(Zero the extruder)
G92 E0
G92 E0
G1 F2400 E-2.5
;LAYER_COUNT:152
;LAYER:0
M107
G0 F4320 X51.683 Y52.953 Z0.263
;TYPE:SKIRT
G1 F2400 E0
G1 F1800 X52.646 Y52.362 E0.04324
G1 X54.128 Y51.852 E0.10322
G1 X57.557 Y51.852 E0.23445
G1 X58.093 Y51.611 E0.25694
G1 X60.309 Y51.403 E0.34212
G1 X61.946 Y51.766 E0.40629
G1 X62.185 Y51.852 E0.41601
G1 X65.534 Y51.851 E0.54417
G1 X66.606 Y52.087 E0.58618
G1 X67.822 Y52.655 E0.63755
G1 X68.435 Y53.205 E0.66906
G1 X69.257 Y53.78 E0.70745
G1 X70.069 Y55.025 E0.76434
G1 X70.541 Y56.025 E0.80666
G1 X70.732 Y57.102 E0.84852
G1 X70.767 Y66.112 E1.19333
G1 X70.53 Y67.186 E1.23542
G1 X69.974 Y68.386 E1.28604
G1 X68.952 Y69.603 E1.34686
G1 X68.841 Y69.691 E1.35228
G1 X67.251 Y70.488 E1.42034
G1 X66.004 Y70.689 E1.46868
G1 X53.819 Y70.714 E1.935
G1 X52.738 Y70.475 E1.97737
G1 X51.546 Y69.923 E2.02764
G1 X50.326 Y68.899 E2.0886
G1 X50.238 Y68.788 E2.09402
G1 X49.441 Y67.198 E2.16208
G1 X49.24 Y65.951 E2.21042
G1 X49.215 Y56.803 E2.56052
G1 X49.877 Y54.941 E2.63615
G1 X50.831 Y53.797 E2.69315
G1 X51.173 Y53.488 E2.71079
G1 X51.205 Y53.455 E2.71255
G0 F1620 X51.683 Y52.953
G0 F4320 X51.906 Y53.226
G1 F1800 X52.795 Y52.681 E2.75246
G1 X54.187 Y52.202 E2.80879
G1 X57.632 Y52.202 E2.94063
G1 X58.185 Y51.953 E2.96384
G1 X60.284 Y51.756 E3.04453
G1 X61.87 Y52.108 E3.1067
G1 X62.122 Y52.202 E3.11699
G1 X65.495 Y52.201 E3.24608
G1 X66.494 Y52.421 E3.28522
G1 X67.627 Y52.95 E3.33308
G1 X68.217 Y53.48 E3.36343
G1 X69 Y54.027 E3.39998
G1 X69.752 Y55.174 E3.45247
G1 X70.204 Y56.132 E3.49301
G1 X70.387 Y57.163 E3.53308
G1 X70.417 Y66.073 E3.87407
G1 X70.196 Y67.073 E3.91326
G1 X69.675 Y68.198 E3.96071
G1 X68.684 Y69.378 E4.01968
G1 X67.141 Y70.152 E4.08574
G1 X66.003 Y70.339 E4.12988
G1 X53.857 Y70.364 E4.59471
G1 X52.852 Y70.142 E4.6341
G1 X51.734 Y69.624 E4.68125
G1 X50.551 Y68.631 E4.74036
G1 X49.777 Y67.088 E4.80642
G1 X49.59 Y65.95 E4.85056
G1 X49.565 Y56.863 E5.19832
G1 X50.186 Y55.117 E5.26924
G1 X51.066 Y54.057 E5.32196
G1 X51.415 Y53.742 E5.33995
G1 X51.428 Y53.728 E5.34068
G0 F1620 X51.906 Y53.226
G0 F4320 X52.127 Y53.501
G1 F1800 X52.944 Y53 E5.37736
G1 X54.246 Y52.552 E5.43006
G1 X57.707 Y52.552 E5.56251
G1 X58.277 Y52.295 E5.58644
G1 X60.259 Y52.109 E5.66262
G1 X61.794 Y52.45 E5.7228
G1 X62.057 Y52.552 E5.73359
G1 X65.456 Y52.551 E5.86367
G1 X66.382 Y52.755 E5.89996
G1 X67.432 Y53.245 E5.9443
G1 X67.999 Y53.755 E5.97349
G1 X68.744 Y54.275 E6.00826
G1 X69.435 Y55.323 E6.0563
G1 X69.867 Y56.239 E6.09506
G1 X70.042 Y57.224 E6.13334
G1 X70.067 Y66.035 E6.47054
G1 X69.863 Y66.959 E6.50675
G1 X69.376 Y68.01 E6.55108
G1 X68.463 Y69.097 E6.60541
G1 X67.031 Y69.816 E6.66673
G1 X66.002 Y69.989 E6.70667
G1 X53.895 Y70.014 E7.17
G1 X52.966 Y69.809 E7.20641
G1 X51.922 Y69.325 E7.25045
G1 X50.832 Y68.41 E7.30491
G1 X50.113 Y66.978 E7.36623
G1 X49.94 Y65.949 E7.40617
G1 X49.915 Y56.923 E7.75159
G1 X50.495 Y55.293 E7.8178
G1 X51.301 Y54.317 E7.86625
G1 X51.649 Y54.003 E7.88418
G0 F1620 X51.65 Y54.002
G0 X52.127 Y53.501
G0 F4320 X52.348 Y53.776
G1 F1800 X53.093 Y53.319 E7.91763
G1 X54.305 Y52.902 E7.96668
G1 X57.782 Y52.902 E8.09975
G1 X58.369 Y52.637 E8.12439
G1 X60.234 Y52.462 E8.19608
G1 X61.718 Y52.792 E8.25426
G1 X61.99 Y52.902 E8.26549
G1 X65.417 Y52.901 E8.39664
G1 X66.27 Y53.089 E8.43007
G1 X67.237 Y53.54 E8.4709
G1 X67.781 Y54.03 E8.49892
G1 X68.487 Y54.522 E8.53185
G1 X69.118 Y55.472 E8.5755
G1 X69.53 Y56.346 E8.61248
G1 X69.697 Y57.285 E8.64898
G1 X69.717 Y65.997 E8.98239
G1 X69.529 Y66.849 E9.01578
G1 X69.079 Y67.819 E9.0567
G1 X68.242 Y68.816 E9.10652
G1 X66.921 Y69.479 E9.16308
G1 X66.001 Y69.639 E9.19882
G1 X53.934 Y69.664 E9.66062
G1 X53.079 Y69.475 E9.69413
G1 X52.11 Y69.026 E9.735
G1 X51.113 Y68.189 E9.78482
G1 X50.45 Y66.868 E9.84139
G1 X50.29 Y65.948 E9.87712
G1 X50.265 Y56.983 E10.22022
G1 X50.805 Y55.467 E10.2818
G1 X51.536 Y54.577 E10.32588
G1 X51.868 Y54.277 E10.343
G0 F1620 X51.885 Y54.262
G0 X52.348 Y53.776
G0 F4320 X52.571 Y54.049
G1 F1800 X53.242 Y53.638 E10.37312
G1 X54.364 Y53.252 E10.41853
G1 X57.857 Y53.252 E10.5522
G1 X58.461 Y52.979 E10.57757
G1 X60.209 Y52.815 E10.64476
G1 X61.642 Y53.134 E10.70094
G1 X61.918 Y53.252 E10.71243
G1 X65.378 Y53.251 E10.84484
G1 X66.158 Y53.423 E10.87541
G1 X67.042 Y53.835 E10.91274
G1 X67.563 Y54.305 E10.93959
G1 X68.231 Y54.77 E10.97074
G1 X68.826 Y55.666 E11.0119
G1 X69.193 Y56.451 E11.04506
G1 X69.352 Y57.346 E11.07985
G1 X69.367 Y65.958 E11.40943
G1 X69.195 Y66.736 E11.43992
G1 X68.78 Y67.631 E11.47768
G1 X68.021 Y68.535 E11.52285
G1 X66.808 Y69.144 E11.5748
G1 X66 Y69.289 E11.60621
G1 X53.972 Y69.314 E12.06652
G1 X53.193 Y69.142 E12.09705
G1 X52.298 Y68.727 E12.13481
G1 X51.394 Y67.968 E12.17998
G1 X50.785 Y66.755 E12.23192
G1 X50.64 Y65.947 E12.26334
G1 X50.615 Y57.044 E12.60406
G1 X51.115 Y55.642 E12.66102
G1 X51.807 Y54.799 E12.70276
G1 X52.09 Y54.548 E12.71724
G0 F1620 X52.13 Y54.513
G0 X52.571 Y54.049
G0 F4320 X52.793 Y54.323
G1 F1800 X53.392 Y53.957 E12.7441
G1 X54.423 Y53.602 E12.78583
G1 X57.933 Y53.602 E12.92016
G1 X58.553 Y53.321 E12.94621
G1 X60.185 Y53.168 E13.00894
G1 X61.504 Y53.456 E13.06061
G1 X61.845 Y53.602 E13.07481
G1 X65.339 Y53.601 E13.20852
G1 X66.046 Y53.757 E13.23623
G1 X66.845 Y54.129 E13.26996
G1 X67.341 Y54.577 E13.29554
G1 X67.975 Y55.018 E13.32509
G1 X68.534 Y55.86 E13.36377
G1 X68.856 Y56.558 E13.39319
G1 X69.007 Y57.407 E13.42619
G1 X69.017 Y65.918 E13.7519
G1 X68.861 Y66.623 E13.77954
G1 X68.481 Y67.443 E13.81412
G1 X67.8 Y68.254 E13.85465
G1 X66.697 Y68.808 E13.90189
G1 X65.938 Y68.944 E13.9314
G1 X54.011 Y68.964 E14.38785
G1 X53.306 Y68.808 E14.41548
G1 X52.486 Y68.428 E14.45007
G1 X51.675 Y67.747 E14.49059
G1 X51.121 Y66.644 E14.53783
G1 X50.985 Y65.885 E14.56734
G1 X50.965 Y57.105 E14.90335
G1 X51.425 Y55.815 E14.95576
G1 X52.039 Y55.061 E14.99298
G1 X52.311 Y54.821 E15.00686
G0 F1620 X52.375 Y54.764
G0 X52.793 Y54.323
G0 F4320 X53.014 Y54.599
G1 F1800 X53.544 Y54.275 E15.03063
G1 X54.482 Y53.952 E15.0686
G1 X58.01 Y53.952 E15.20361
G1 X58.647 Y53.663 E15.23038
G1 X60.163 Y53.521 E15.28865
G1 X61.366 Y53.778 E15.33573
G1 X61.772 Y53.952 E15.35264
G1 X65.3 Y53.951 E15.48765
G1 X65.934 Y54.091 E15.5125
G1 X66.648 Y54.423 E15.54263
G1 X67.119 Y54.849 E15.56694
G1 X67.719 Y55.266 E15.5949
G1 X68.216 Y56.007 E15.62905
G1 X68.519 Y56.664 E15.65674
G1 X68.662 Y57.468 E15.68799
G1 X68.667 Y65.879 E16.00988
G1 X68.527 Y66.513 E16.03472
G1 X68.184 Y67.252 E16.0659
G1 X67.579 Y67.973 E16.10192
G1 X66.586 Y68.472 E16.14445
G1 X65.876 Y68.599 E16.17206
G1 X54.05 Y68.614 E16.62464
G1 X53.416 Y68.474 E16.64949
G1 X52.677 Y68.131 E16.68066
G1 X51.956 Y67.526 E16.71668
G1 X51.457 Y66.533 E16.75921
G1 X51.33 Y65.823 E16.78682
G1 X51.315 Y57.167 E17.11808
G1 X51.736 Y55.987 E17.16603
G1 X52.31 Y55.282 E17.20082
G1 X52.529 Y55.093 E17.21189
G0 F1620 X52.621 Y55.014
G0 X53.014 Y54.599
G0 F4320 X53.235 Y54.875
G1 F1800 X53.696 Y54.593 E17.23257
G1 X54.541 Y54.302 E17.26678
G1 X58.087 Y54.302 E17.40248
G1 X58.741 Y54.005 E17.42997
G1 X60.142 Y53.874 E17.48382
G1 X61.293 Y54.12 E17.52886
G1 X61.698 Y54.302 E17.54586
G1 X65.26 Y54.301 E17.68217
G1 X65.825 Y54.426 E17.70432
G1 X66.452 Y54.717 E17.73077
G1 X66.906 Y55.128 E17.75421
G1 X67.465 Y55.516 E17.78025
G1 X67.898 Y56.154 E17.80976
G1 X68.182 Y56.77 E17.83572
G1 X68.317 Y57.529 E17.86522
G1 X68.317 Y65.839 E18.18324
G1 X68.193 Y66.4 E18.20523
G1 X67.885 Y67.064 E18.23324
G1 X67.358 Y67.692 E18.26462
G1 X66.475 Y68.136 E18.30244
G1 X65.814 Y68.254 E18.32814
G1 X54.09 Y68.264 E18.77681
G1 X53.529 Y68.14 E18.7988
G1 X52.865 Y67.832 E18.82681
G1 X52.237 Y67.305 E18.85819
G1 X51.793 Y66.422 E18.89601
G1 X51.675 Y65.761 E18.92171
G1 X51.665 Y57.229 E19.24823
G1 X52.046 Y56.16 E19.29166
G1 X52.539 Y55.547 E19.32176
G1 X52.748 Y55.367 E19.33232
G0 F1620 X52.862 Y55.268
G0 X53.235 Y54.875
G0 F4320 X53.417 Y55.174
G1 F1800 X53.846 Y54.912 E19.35156
G1 X54.6 Y54.652 E19.38208
G1 X58.164 Y54.652 E19.51848
G1 X58.835 Y54.347 E19.54668
G1 X60.121 Y54.227 E19.59611
G1 X61.22 Y54.462 E19.63912
G1 X61.619 Y54.652 E19.65603
G1 X65.22 Y54.651 E19.79384
G1 X65.712 Y54.76 E19.81313
G1 X66.305 Y55.035 E19.83814
G1 X66.686 Y55.401 E19.85836
G1 X67.213 Y55.767 E19.88292
G1 X67.58 Y56.3 E19.90768
G1 X67.845 Y56.876 E19.93195
G1 X67.967 Y57.529 E19.95737
G1 X67.967 Y65.799 E20.27386
G1 X67.858 Y66.291 E20.29315
G1 X67.588 Y66.873 E20.3177
G1 X67.137 Y67.411 E20.34457
G1 X66.364 Y67.8 E20.37769
G1 X65.753 Y67.909 E20.40144
G1 X54.13 Y67.914 E20.84625
G1 X53.638 Y67.805 E20.86554
G1 X53.056 Y67.535 E20.89009
G1 X52.518 Y67.084 E20.91696
G1 X52.129 Y66.311 E20.95007
G1 X52.02 Y65.7 E20.97382
G1 X52.015 Y57.29 E21.29567
G1 X52.356 Y56.333 E21.33455
G1 X52.812 Y55.766 E21.3624
G1 X52.931 Y55.666 E21.36835
G0 F1620 X53.104 Y55.522
G0 X53.417 Y55.174
G0 F4320 X53.605 Y55.469
G1 F1800 X53.96 Y55.243 E21.38445
G1 X54.659 Y55.002 E21.41275
G1 X58.241 Y55.002 E21.54983
G1 X58.929 Y54.689 E21.57876
G1 X60.099 Y54.58 E21.62373
G1 X61.147 Y54.804 E21.66474
G1 X61.535 Y55.002 E21.68141
G1 X65.18 Y55.001 E21.82091
G1 X65.603 Y55.095 E21.83749
G1 X66.103 Y55.327 E21.85858
G1 X66.466 Y55.675 E21.87783
G1 X66.963 Y56.02 E21.90098
G1 X67.262 Y56.446 E21.9209
G1 X67.509 Y56.984 E21.94356
G1 X67.617 Y57.529 E21.96482
G1 X67.617 Y65.759 E22.27978
G1 X67.523 Y66.182 E22.29636
G1 X67.291 Y66.682 E22.31746
G1 X66.916 Y67.13 E22.33982
G1 X66.253 Y67.464 E22.36823
G1 X65.692 Y67.564 E22.39003
G1 X54.17 Y67.564 E22.83098
G1 X53.747 Y67.47 E22.84756
G1 X53.247 Y67.238 E22.86866
G1 X52.799 Y66.863 E22.89102
G1 X52.465 Y66.2 E22.91943
G1 X52.365 Y65.639 E22.94124
G1 X52.365 Y57.352 E23.25838
G1 X52.667 Y56.505 E23.29279
G1 X53.085 Y55.985 E23.31833
G1 X53.119 Y55.958 E23.31999
G0 F1620 X53.35 Y55.774
G0 X53.605 Y55.469
G0 F4320 X53.801 Y55.759
G1 F1800 X54.074 Y55.574 E23.33261
G1 X54.718 Y55.352 E23.35868
G1 X58.346 Y55.352 E23.49752
G1 X58.44 Y55.291 E23.50181
G1 X59.02 Y55.032 E23.52612
G1 X60.081 Y54.934 E23.56689
G1 X61.027 Y55.136 E23.60391
G1 X61.451 Y55.352 E23.62212
G1 X65.14 Y55.351 E23.7633
G1 X65.527 Y55.437 E23.77847
G1 X65.95 Y55.642 E23.79646
G1 X66.236 Y55.941 E23.8123
G1 X66.713 Y56.273 E23.83454
G1 X66.944 Y56.592 E23.84961
G1 X67.174 Y57.093 E23.87071
G1 X67.267 Y57.529 E23.88777
G1 X67.267 Y65.719 E24.2012
G1 X67.181 Y66.106 E24.21637
G1 X66.976 Y66.529 E24.23436
G1 X66.694 Y66.85 E24.25071
G1 X66.143 Y67.128 E24.27433
G1 X65.692 Y67.214 E24.2919
G1 X54.21 Y67.214 E24.73132
G1 X53.823 Y67.128 E24.74649
G1 X53.4 Y66.923 E24.76448
G1 X53.079 Y66.641 E24.78083
G1 X52.801 Y66.09 E24.80445
G1 X52.715 Y65.639 E24.82202
G1 X52.715 Y57.414 E25.13679
G1 X52.978 Y56.677 E25.16674
G1 X53.321 Y56.25 E25.1877
G0 F1620 X53.358 Y56.204
G0 X53.599 Y56.024
G0 X53.801 Y55.759
G0 F4320 X54.013 Y56.038
G1 F1800 X54.188 Y55.905 E25.19611
G1 X54.777 Y55.702 E25.21995
G1 X58.465 Y55.702 E25.36109
G1 X58.583 Y55.611 E25.36679
G1 X59.11 Y55.376 E25.38888
G1 X60.063 Y55.288 E25.4255
G1 X60.907 Y55.468 E25.45853
G1 X61.367 Y55.702 E25.47828
G1 X65.1 Y55.701 E25.62114
G1 X65.451 Y55.779 E25.6349
G1 X65.79 Y55.953 E25.64949
G1 X66.025 Y56.234 E25.6635
G1 X66.167 Y56.289 E25.66933
G1 X66.433 Y56.482 E25.68191
G1 X66.628 Y56.743 E25.69438
G1 X66.833 Y57.173 E25.71261
G1 X66.917 Y57.529 E25.72661
G1 X66.917 Y65.679 E26.03851
G1 X66.839 Y66.03 E26.05227
G1 X66.665 Y66.369 E26.06685
G1 X66.477 Y66.567 E26.0773
G1 X65.985 Y66.815 E26.09838
G1 X65.692 Y66.864 E26.10975
G1 X54.25 Y66.864 E26.54764
G1 X53.899 Y66.786 E26.5614
G1 X53.56 Y66.612 E26.57598
G1 X53.362 Y66.424 E26.58643
G1 X53.114 Y65.932 E26.60752
G1 X53.065 Y65.639 E26.61888
G1 X53.065 Y57.476 E26.93128
G1 X53.289 Y56.849 E26.95676
G1 X53.543 Y56.533 E26.97228
G0 F1620 X53.631 Y56.423
G0 X53.85 Y56.277
G0 X54.013 Y56.038
G0 F4320 X54.302 Y56.236
G1 F1800 X54.836 Y56.052 E26.99389
G1 X58.6 Y56.052 E27.13794
G1 X58.739 Y55.925 E27.14515
G1 X59.142 Y55.725 E27.16236
G1 X60.045 Y55.642 E27.19707
G1 X60.834 Y55.81 E27.22794
G1 X61.068 Y55.913 E27.23772
G1 X61.248 Y56.052 E27.24643
G1 X65.06 Y56.051 E27.39231
G1 X65.375 Y56.121 E27.40466
G1 X65.618 Y56.258 E27.41534
G1 X65.81 Y56.54 E27.42839
G1 X65.979 Y56.584 E27.43508
G1 X66.157 Y56.697 E27.44315
G1 X66.314 Y56.898 E27.45291
G1 X66.495 Y57.265 E27.46857
G1 X66.567 Y57.529 E27.47904
G1 X66.567 Y65.639 E27.78941
G1 X66.497 Y65.954 E27.80176
G1 X66.36 Y66.197 E27.81243
G1 X66.238 Y66.311 E27.81882
G1 X65.92 Y66.471 E27.83245
G1 X65.692 Y66.514 E27.84133
G1 X54.29 Y66.514 E28.27768
G1 X53.975 Y66.444 E28.29003
G1 X53.732 Y66.307 E28.3007
G1 X53.618 Y66.185 E28.30709
G1 X53.458 Y65.867 E28.32072
G1 X53.415 Y65.639 E28.3296
G1 X53.415 Y57.538 E28.63962
G1 X53.619 Y56.967 E28.66283
G1 X53.831 Y56.726 E28.67511
G0 F1620 X53.894 Y56.654
G0 X54.094 Y56.54
G0 X54.302 Y56.236
G0 F4320 X54.732 Y56.786
G1 F1800 X54.836 Y56.752 E28.6793
G1 X58.565 Y56.749 E28.82201
G1 X58.837 Y56.815 E28.83272
G1 X59.17 Y56.469 E28.8511
G1 X59.28 Y56.416 E28.85577
G1 X60.009 Y56.35 E28.88378
G1 X60.688 Y56.494 E28.91035
G1 X61.041 Y56.793 E28.92805
G1 X61.294 Y56.749 E28.93788
G1 X65.06 Y56.751 E29.082
G1 X65.17 Y56.79 E29.08647
G1 X65.298 Y57.114 E29.0998
G1 X65.414 Y57.169 E29.10471
G1 X65.686 Y57.208 E29.11523
G1 X65.867 Y57.575 E29.13089
G1 X65.867 Y65.639 E29.4395
G1 X65.828 Y65.749 E29.44396
G1 X65.692 Y65.814 E29.44973
G1 X54.29 Y65.814 E29.88609
G1 X54.18 Y65.775 E29.89055
G1 X54.115 Y65.639 E29.89632
G1 X54.115 Y57.538 E30.20635
G1 X54.256 Y57.255 E30.21845
G1 X54.285 Y57.232 E30.21986
G0 F1620 X54.356 Y57.177
G0 X54.611 Y57.1
G0 X54.732 Y56.786
G0 F4320 X54.5 Y56.524
G1 F1800 X54.836 Y56.402 E30.23354
G1 X58.565 Y56.399 E30.37625
G1 X58.724 Y56.427 E30.38243
G1 X58.918 Y56.226 E30.39312
G1 X59.174 Y56.074 E30.40452
G1 X60.027 Y55.996 E30.4373
G1 X60.761 Y56.152 E30.46601
G1 X60.914 Y56.227 E30.47253
G1 X61.142 Y56.42 E30.48397
G1 X61.294 Y56.399 E30.48984
G1 X65.06 Y56.401 E30.63396
G1 X65.287 Y56.46 E30.64294
G1 X65.426 Y56.551 E30.6493
G1 X65.566 Y56.838 E30.66152
G1 X65.89 Y56.923 E30.67434
G1 X66 Y57.053 E30.68085
G1 X66.181 Y57.42 E30.69651
G1 X66.217 Y57.575 E30.7026
G1 X66.217 Y65.639 E31.01121
G1 X66.158 Y65.866 E31.02019
G1 X66.067 Y66.005 E31.02655
G1 X65.843 Y66.13 E31.03636
G1 X65.692 Y66.164 E31.04229
G1 X54.29 Y66.164 E31.47864
G1 X54.063 Y66.105 E31.48762
G1 X53.924 Y66.014 E31.49398
G1 X53.799 Y65.79 E31.50379
G1 X53.765 Y65.639 E31.50972
G1 X53.765 Y57.538 E31.81974
G1 X53.943 Y57.099 E31.83787
G1 X54.04 Y57.002 E31.84312
G0 F1620 X54.141 Y56.901
G0 X54.345 Y56.815
G0 X54.5 Y56.524
G1 F2400 E29.34312
;MESH:13-breast.stl
G0 F4320 X55.138 Y57.317
G0 X55.495 Y57.956
;TYPE:WALL-INNER
G1 F2400 E31.84312
G1 F948.8 X57.869 Y57.956 E32.01548
G0 F4320 X59.725 Y57.485
G1 F1384.6 X60.204 Y57.513 E32.03935
G0 F4320 X62.077 Y57.956
