;FLAVOR:Marlin
;TIME:2294
;Filament used: 0.917526m
;Layer height: 0.13125
;MINX:37.012
;MINY:56.326
;MINZ:0.263
;MAXX:66.398
;MAXY:94.736
;MAXZ:20.437
;TARGET_MACHINE.NAME:Monoprice Select Mini V2
;Generated with Cura_SteamEngine 5.7.2
M140 S65
M105
M190 S65
M104 S205
M105
M109 S205
M82 ;absolute extrusion mode
G21;(metric values)
G90;(absolute positioning)
M82;(set extruder to absolute mode)
M107;(start with the fan off)
G28;(Home the printer)
G92 E0;(Reset the extruder to 0)
G0 Z5 E5 F500;(Move up and prime the nozzle)
G0 X-1 Z0;(Move outside the printable area)
G1 Y60 E8 F500;(Draw a priming/wiping line to the rear)
G1 X-1;(Move a little closer to the print area)
G1 Y10 E16 F500;(draw more priming/wiping)
G1 E15 F250;(Small retract)
G92 E0;(Zero the extruder)
G92 E0
G92 E0
G1 F2400 E-2.5
;LAYER_COUNT:155
;LAYER:0
M107
G0 F4320 X46.233 Y57.069 Z0.263
;TYPE:SKIRT
G1 F2400 E0
G1 F1800 X47.945 Y56.382 E0.0706
G1 X49.722 Y56.332 E0.13863
G1 X51.661 Y56.695 E0.21412
G1 X52.382 Y56.598 E0.24196
G1 X54.039 Y56.326 E0.30623
G1 X55.425 Y56.518 E0.35978
G1 X56.558 Y56.915 E0.40572
G1 X57.976 Y57.943 E0.47275
G1 X58.835 Y59.314 E0.53466
G1 X59.159 Y60.445 E0.57969
G1 X59.269 Y61.265 E0.61135
G1 X59.265 Y61.412 E0.61698
G1 X60.439 Y62.057 E0.66824
G1 X61.563 Y63.092 E0.72672
G1 X62.343 Y64.456 E0.78685
G1 X62.652 Y65.801 E0.83966
G1 X63.187 Y65.964 E0.86107
G1 X63.94 Y66.328 E0.89307
G1 X64.738 Y66.879 E0.93019
G1 X65.657 Y68.019 E0.98622
G1 X66.22 Y69.359 E1.04185
G1 X66.398 Y70.751 E1.09555
G1 X66.238 Y73.279 E1.19249
G1 X65.489 Y75.216 E1.27197
G1 X64.733 Y76.61 E1.33266
G1 X63.651 Y77.817 E1.39469
G1 X61.981 Y78.978 E1.47253
G1 X60.89 Y79.394 E1.51722
G1 X60.635 Y79.591 E1.52955
G1 X60.466 Y79.909 E1.54333
G1 X60.173 Y80.644 E1.57361
G1 X59.369 Y81.774 E1.62669
G1 X59.048 Y82.044 E1.64274
G1 X59.123 Y82.252 E1.6512
G1 X59.357 Y83.693 E1.70707
G1 X59.747 Y84.782 E1.75134
G1 X59.971 Y86.627 E1.82246
G1 X59.705 Y88.503 E1.89498
G1 X58.826 Y90.321 E1.97226
G1 X58.101 Y91.427 E2.02287
G1 X57.08 Y92.414 E2.07721
G1 X56.218 Y92.878 E2.11468
G1 X55.786 Y93.369 E2.13971
G1 X54.708 Y93.962 E2.18679
G1 X54.361 Y94.096 E2.20103
G1 X53.773 Y94.391 E2.2262
G1 X52.509 Y94.736 E2.27634
G1 X50.671 Y94.703 E2.3467
G1 X48.879 Y94.215 E2.41777
G1 X47.359 Y93.046 E2.49116
G1 X46.897 Y92.632 E2.5149
G1 X46.064 Y92.097 E2.55279
G1 X44.996 Y91.048 E2.61008
G1 X44.494 Y90.076 E2.65194
G1 X44.325 Y89.612 E2.67084
G1 X43.796 Y88.444 E2.71991
G1 X43.427 Y86.685 E2.78869
G1 X43.495 Y84.971 E2.85434
G1 X43.951 Y83.546 E2.9116
G1 X44.067 Y82.308 E2.95918
G1 X44.322 Y81.777 E2.98173
G1 X43.103 Y80.737 E3.04305
G1 X42.289 Y79.834 E3.08958
G1 X41.444 Y78.68 E3.14431
G1 X39.793 Y77.734 E3.21713
G1 X38.402 Y76.319 E3.29307
G1 X37.492 Y74.49 E3.37125
G1 X37.185 Y72.903 E3.43311
G1 X37.012 Y70.99 E3.50662
G1 X37.062 Y69.943 E3.54673
G1 X37.501 Y68.51 E3.60409
G1 X38.381 Y67.247 E3.663
G1 X39.448 Y66.363 E3.71603
G1 X40.656 Y65.886 E3.76573
G1 X40.668 Y65.604 E3.77653
G1 X40.99 Y64.407 E3.82397
G1 X41.476 Y63.465 E3.86454
G1 X42.327 Y62.474 E3.91453
G1 X43.564 Y61.628 E3.97188
G1 X43.954 Y61.488 E3.98774
G1 X43.951 Y60.746 E4.01613
G1 X44.297 Y59.452 E4.06739
G1 X44.987 Y58.241 E4.12073
G1 X45.728 Y57.544 E4.15967
G0 F1620 X46.233 Y57.069
G0 F4320 X46.425 Y57.369
G1 F1800 X48.017 Y56.73 E4.22532
G1 X49.695 Y56.683 E4.28956
G1 X51.652 Y57.05 E4.36576
G1 X52.429 Y56.945 E4.39576
G1 X54.041 Y56.68 E4.45828
G1 X55.345 Y56.861 E4.50867
G1 X56.395 Y57.229 E4.55125
G1 X57.714 Y58.185 E4.61359
G1 X58.513 Y59.46 E4.67117
G1 X58.812 Y60.492 E4.71229
G1 X58.922 Y61.312 E4.74395
G1 X58.894 Y61.662 E4.75739
G1 X59.103 Y61.722 E4.76571
G1 X60.236 Y62.345 E4.81519
G1 X61.285 Y63.311 E4.86977
G1 X62.014 Y64.586 E4.92598
G1 X62.319 Y65.916 E4.9782
G1 X62.326 Y66.069 E4.98406
G1 X63.036 Y66.28 E5.0124
G1 X63.741 Y66.616 E5.04229
G1 X64.498 Y67.139 E5.0775
G1 X65.352 Y68.198 E5.12957
G1 X65.879 Y69.453 E5.18166
G1 X66.047 Y70.763 E5.2322
G1 X65.893 Y73.201 E5.32569
G1 X65.181 Y75.049 E5.40148
G1 X64.445 Y76.406 E5.46056
G1 X63.415 Y77.555 E5.51961
G1 X61.817 Y78.666 E5.5941
G1 X60.717 Y79.085 E5.63914
G1 X60.361 Y79.36 E5.65636
G1 X60.15 Y79.756 E5.67353
G1 X59.864 Y80.475 E5.70315
G1 X59.111 Y81.533 E5.75284
G1 X58.628 Y81.94 E5.77701
G1 X58.778 Y82.308 E5.79222
G1 X59.018 Y83.786 E5.84953
G1 X59.405 Y84.867 E5.89347
G1 X59.618 Y86.62 E5.96105
G1 X59.365 Y88.402 E6.02993
G1 X58.533 Y90.129 E6.10329
G1 X57.829 Y91.203 E6.15244
G1 X56.871 Y92.129 E6.20343
G1 X55.996 Y92.6 E6.24146
G1 X55.564 Y93.091 E6.26648
G1 X54.539 Y93.655 E6.31126
G1 X54.216 Y93.777 E6.32447
G1 X53.648 Y94.062 E6.34879
G1 X52.464 Y94.385 E6.39576
G1 X50.722 Y94.354 E6.46244
G1 X49.036 Y93.895 E6.52931
G1 X47.593 Y92.785 E6.59898
G1 X47.111 Y92.353 E6.62375
G1 X46.282 Y91.821 E6.66145
G1 X45.281 Y90.837 E6.71516
G1 X44.823 Y89.957 E6.75313
G1 X44.649 Y89.478 E6.77263
G1 X44.132 Y88.337 E6.82057
G1 X43.779 Y86.655 E6.88634
G1 X43.843 Y85.031 E6.94854
G1 X44.295 Y83.617 E7.00535
G1 X44.409 Y82.405 E7.05194
G1 X44.77 Y81.652 E7.0839
G1 X44.404 Y81.386 E7.10122
G1 X43.363 Y80.502 E7.15348
G1 X42.572 Y79.627 E7.19862
G1 X41.756 Y78.511 E7.25153
G1 X41.595 Y78.363 E7.2599
G1 X40.008 Y77.454 E7.32989
G1 X38.69 Y76.113 E7.40185
G1 X37.828 Y74.379 E7.47596
G1 X37.534 Y72.871 E7.53475
G1 X37.362 Y71.007 E7.60639
G1 X37.41 Y70.003 E7.64486
G1 X37.82 Y68.664 E7.69845
G1 X38.642 Y67.485 E7.75345
G1 X39.625 Y66.67 E7.80232
G1 X41.007 Y66.124 E7.85919
G1 X41.006 Y65.695 E7.87561
G1 X41.318 Y64.535 E7.92158
G1 X41.768 Y63.663 E7.95913
G1 X42.563 Y62.737 E8.00584
G1 X43.762 Y61.917 E8.06143
G1 X44.305 Y61.743 E8.08325
G1 X44.301 Y60.79 E8.11972
G1 X44.623 Y59.586 E8.16742
G1 X45.264 Y58.461 E8.21697
G1 X45.92 Y57.844 E8.25143
G0 F1620 X46.425 Y57.369
G0 F4320 X46.617 Y57.669
G1 F1800 X48.089 Y57.078 E8.31214
G1 X49.668 Y57.034 E8.37259
G1 X51.643 Y57.405 E8.44949
G1 X52.476 Y57.292 E8.48167
G1 X54.043 Y57.034 E8.54244
G1 X55.265 Y57.204 E8.58966
G1 X56.232 Y57.543 E8.62887
G1 X57.452 Y58.427 E8.68653
G1 X58.19 Y59.605 E8.73973
G1 X58.465 Y60.539 E8.77699
G1 X58.575 Y61.359 E8.80865
G1 X58.512 Y61.934 E8.83079
G1 X58.934 Y62.029 E8.84734
G1 X60.033 Y62.633 E8.89534
G1 X61.007 Y63.53 E8.94601
G1 X61.685 Y64.716 E8.99829
G1 X61.978 Y65.994 E9.04847
G1 X61.965 Y66.328 E9.06126
G1 X62.887 Y66.597 E9.09802
G1 X63.542 Y66.904 E9.1257
G1 X64.258 Y67.398 E9.15899
G1 X65.047 Y68.378 E9.20714
G1 X65.538 Y69.547 E9.25566
G1 X65.696 Y70.775 E9.30305
G1 X65.547 Y73.124 E9.39312
G1 X64.873 Y74.882 E9.46518
G1 X64.157 Y76.202 E9.52265
G1 X63.179 Y77.293 E9.57872
G1 X61.653 Y78.354 E9.64985
G1 X60.556 Y78.772 E9.69477
G1 X60.284 Y78.95 E9.70721
G1 X60.079 Y79.145 E9.71804
G1 X59.833 Y79.607 E9.73807
G1 X59.555 Y80.306 E9.76686
G1 X58.853 Y81.292 E9.81318
G1 X58.202 Y81.841 E9.84577
G1 X58.433 Y82.364 E9.86765
G1 X58.679 Y83.879 E9.92639
G1 X59.063 Y84.952 E9.97001
G1 X59.265 Y86.613 E10.03404
G1 X59.026 Y88.3 E10.09925
G1 X58.24 Y89.937 E10.16874
G1 X57.557 Y90.979 E10.21642
G1 X56.662 Y91.844 E10.26406
G1 X55.775 Y92.322 E10.30262
G1 X55.342 Y92.813 E10.32767
G1 X54.37 Y93.348 E10.37013
G1 X54.077 Y93.455 E10.38207
G1 X53.523 Y93.733 E10.40579
G1 X52.419 Y94.034 E10.44958
G1 X50.773 Y94.005 E10.51258
G1 X49.193 Y93.575 E10.57525
G1 X47.827 Y92.524 E10.64121
G1 X47.325 Y92.074 E10.66701
G1 X46.5 Y91.545 E10.70452
G1 X45.566 Y90.627 E10.75463
G1 X45.134 Y89.796 E10.79048
G1 X44.971 Y89.341 E10.80897
G1 X44.468 Y88.23 E10.85565
G1 X44.131 Y86.625 E10.91841
G1 X44.191 Y85.09 E10.9772
G1 X44.639 Y83.688 E11.03353
G1 X44.751 Y82.502 E11.07912
G1 X45.212 Y81.54 E11.11994
G1 X44.61 Y81.103 E11.14841
G1 X43.623 Y80.267 E11.19791
G1 X42.832 Y79.392 E11.24305
G1 X42.02 Y78.279 E11.29578
G1 X41.801 Y78.077 E11.30718
G1 X40.223 Y77.174 E11.37676
G1 X38.978 Y75.907 E11.44474
G1 X38.163 Y74.268 E11.51479
G1 X37.878 Y72.804 E11.57187
G1 X37.712 Y71.024 E11.64028
G1 X37.758 Y70.064 E11.67706
G1 X38.14 Y68.817 E11.72698
G1 X38.903 Y67.723 E11.77802
G1 X39.805 Y66.975 E11.82286
G1 X40.999 Y66.503 E11.872
G1 X41.369 Y66.426 E11.88646
G1 X41.344 Y65.786 E11.91097
G1 X41.647 Y64.661 E11.95556
G1 X42.059 Y63.862 E11.98997
G1 X42.799 Y63 E12.03344
G1 X43.919 Y62.234 E12.08537
G1 X44.656 Y61.998 E12.11499
G1 X44.651 Y60.834 E12.15953
G1 X44.949 Y59.72 E12.20366
G1 X45.541 Y58.681 E12.24943
G1 X46.112 Y58.144 E12.27943
G0 F1620 X46.617 Y57.669
G0 F4320 X46.809 Y57.969
G1 F1800 X48.161 Y57.426 E12.33518
G1 X49.64 Y57.385 E12.39181
G1 X51.511 Y57.737 E12.46467
G1 X51.84 Y57.732 E12.47726
G1 X52.523 Y57.639 E12.50364
G1 X54.045 Y57.388 E12.56267
G1 X55.185 Y57.546 E12.60672
G1 X56.069 Y57.857 E12.64258
G1 X57.19 Y58.669 E12.69555
G1 X57.869 Y59.753 E12.7445
G1 X58.118 Y60.586 E12.77778
G1 X58.228 Y61.406 E12.80944
G1 X58.122 Y62.219 E12.84082
G1 X58.765 Y62.336 E12.86583
G1 X59.83 Y62.921 E12.91233
G1 X60.729 Y63.749 E12.9591
G1 X61.356 Y64.846 E13.00746
G1 X61.637 Y66.072 E13.05559
G1 X61.59 Y66.584 E13.07527
G1 X62.738 Y66.914 E13.12098
G1 X63.393 Y67.221 E13.14867
G1 X64.017 Y67.657 E13.1778
G1 X64.742 Y68.558 E13.22206
G1 X65.197 Y69.641 E13.26701
G1 X65.345 Y70.787 E13.31123
G1 X65.201 Y73.047 E13.3979
G1 X64.565 Y74.715 E13.46622
G1 X63.869 Y75.998 E13.52208
G1 X62.943 Y77.031 E13.57517
G1 X61.489 Y78.042 E13.64294
G1 X60.398 Y78.458 E13.68763
G1 X60.064 Y78.676 E13.70289
G1 X59.797 Y78.93 E13.71699
G1 X59.516 Y79.459 E13.73992
G1 X59.246 Y80.137 E13.76785
G1 X58.595 Y81.051 E13.81079
G1 X57.775 Y81.742 E13.85183
G1 X58.096 Y82.467 E13.88217
G1 X58.339 Y83.967 E13.94033
G1 X58.721 Y85.033 E13.98366
G1 X58.912 Y86.606 E14.0443
G1 X58.687 Y88.198 E14.10583
G1 X57.947 Y89.745 E14.17146
G1 X57.285 Y90.755 E14.21768
G1 X56.453 Y91.559 E14.26196
G1 X55.554 Y92.044 E14.30105
G1 X55.12 Y92.536 E14.32615
G1 X54.25 Y93.019 E14.36424
G1 X53.938 Y93.133 E14.37695
G1 X53.398 Y93.404 E14.40007
G1 X52.374 Y93.683 E14.44069
G1 X50.824 Y93.656 E14.50002
G1 X49.35 Y93.255 E14.55848
G1 X48.061 Y92.263 E14.62072
G1 X47.539 Y91.795 E14.64755
G1 X46.718 Y91.269 E14.68487
G1 X45.851 Y90.417 E14.73139
G1 X45.445 Y89.635 E14.76511
G1 X45.295 Y89.208 E14.78243
G1 X44.804 Y88.123 E14.828
G1 X44.483 Y86.595 E14.88776
G1 X44.539 Y85.148 E14.94318
G1 X44.983 Y83.758 E14.99902
G1 X45.093 Y82.599 E15.04357
G1 X45.654 Y81.428 E15.09326
G1 X44.816 Y80.82 E15.13289
G1 X43.883 Y80.032 E15.17962
G1 X43.092 Y79.157 E15.22476
G1 X42.282 Y78.044 E15.27744
G1 X42.009 Y77.793 E15.29164
G1 X40.438 Y76.894 E15.36091
G1 X39.266 Y75.701 E15.42491
G1 X38.498 Y74.157 E15.4909
G1 X38.222 Y72.737 E15.54626
G1 X38.062 Y71.041 E15.61146
G1 X38.106 Y70.124 E15.64659
G1 X38.459 Y68.971 E15.69274
G1 X39.164 Y67.961 E15.73988
G1 X39.984 Y67.281 E15.78064
G1 X41.07 Y66.846 E15.82542
G1 X41.73 Y66.709 E15.85121
G1 X41.696 Y65.825 E15.88507
G1 X41.976 Y64.787 E15.92621
G1 X42.35 Y64.061 E15.95747
G1 X43.035 Y63.263 E15.99771
G1 X44.076 Y62.551 E16.04598
G1 X45.068 Y62.233 E16.08585
G1 X45.003 Y61.976 E16.09599
G1 X45.001 Y60.878 E16.13801
G1 X45.275 Y59.854 E16.17858
G1 X45.818 Y58.901 E16.22055
G1 X46.304 Y58.444 E16.24609
G0 F1620 X46.809 Y57.969
G0 F4320 X47.001 Y58.269
G1 F1800 X48.233 Y57.774 E16.2969
G1 X49.612 Y57.736 E16.34969
G1 X51.481 Y58.088 E16.42248
G1 X51.868 Y58.082 E16.43729
G1 X52.57 Y57.986 E16.4644
G1 X54.047 Y57.742 E16.52169
G1 X55.104 Y57.888 E16.56253
G1 X55.903 Y58.17 E16.59496
G1 X56.929 Y58.912 E16.64341
G1 X57.547 Y59.9 E16.68801
G1 X57.771 Y60.633 E16.71734
G1 X57.875 Y61.408 E16.74727
G1 X57.758 Y62.303 E16.78181
G1 X57.693 Y62.496 E16.78961
G1 X58.646 Y62.67 E16.82668
G1 X59.626 Y63.208 E16.86946
G1 X60.451 Y63.968 E16.91239
G1 X61.027 Y64.976 E16.95682
G1 X61.296 Y66.15 E17.00291
G1 X61.185 Y66.982 E17.03504
G1 X61.618 Y66.956 E17.05164
G1 X62.589 Y67.231 E17.09026
G1 X63.244 Y67.538 E17.11794
G1 X63.775 Y67.915 E17.14287
G1 X64.437 Y68.738 E17.18329
G1 X64.856 Y69.735 E17.22467
G1 X64.994 Y70.8 E17.26577
G1 X64.855 Y72.972 E17.34906
G1 X64.257 Y74.548 E17.41357
G1 X63.581 Y75.794 E17.46782
G1 X62.707 Y76.769 E17.51793
G1 X61.325 Y77.73 E17.58235
G1 X60.24 Y78.144 E17.6268
G1 X59.844 Y78.402 E17.64488
G1 X59.515 Y78.715 E17.66226
G1 X59.197 Y79.314 E17.68822
G1 X58.936 Y79.969 E17.7152
G1 X58.337 Y80.81 E17.75471
G1 X57.528 Y81.492 E17.79521
G1 X57.331 Y81.603 E17.80386
G1 X57.757 Y82.566 E17.84416
G1 X57.997 Y84.05 E17.90169
G1 X58.379 Y85.114 E17.94496
G1 X58.559 Y86.599 E18.0022
G1 X58.347 Y88.096 E18.06006
G1 X57.631 Y89.594 E18.1236
G1 X57.014 Y90.53 E18.16651
G1 X56.244 Y91.274 E18.20748
G1 X55.333 Y91.766 E18.24711
G1 X54.897 Y92.26 E18.27232
G1 X54.129 Y92.69 E18.30601
G1 X53.802 Y92.81 E18.31934
G1 X53.273 Y93.075 E18.34198
G1 X52.329 Y93.332 E18.37942
G1 X50.875 Y93.307 E18.43507
G1 X49.509 Y92.935 E18.48926
G1 X48.295 Y92.002 E18.54785
G1 X47.753 Y91.516 E18.57571
G1 X46.936 Y90.993 E18.61283
G1 X46.136 Y90.207 E18.65576
G1 X45.756 Y89.474 E18.68735
G1 X45.62 Y89.077 E18.70341
G1 X45.14 Y88.016 E18.74798
G1 X44.835 Y86.564 E18.80476
G1 X44.887 Y85.207 E18.85673
G1 X45.209 Y84.201 E18.89715
G1 X45.341 Y83.686 E18.9175
G1 X45.435 Y82.696 E18.95556
G1 X46.096 Y81.316 E19.01412
G1 X45.041 Y80.552 E19.06397
G1 X44.143 Y79.797 E19.10886
G1 X43.352 Y78.922 E19.154
G1 X42.546 Y77.811 E19.20653
G1 X42.214 Y77.507 E19.22376
G1 X40.653 Y76.614 E19.29258
G1 X39.554 Y75.495 E19.35261
G1 X38.832 Y74.043 E19.41467
G1 X38.57 Y72.704 E19.46688
G1 X38.412 Y71.058 E19.53016
G1 X38.454 Y70.185 E19.56361
G1 X38.779 Y69.124 E19.60608
G1 X39.425 Y68.199 E19.64926
G1 X40.165 Y67.585 E19.68606
G1 X41.142 Y67.189 E19.7264
G1 X41.797 Y67.052 E19.75201
G1 X42.123 Y67.064 E19.76449
G1 X42.088 Y66.909 E19.77057
G1 X42.048 Y65.864 E19.8106
G1 X42.305 Y64.913 E19.8483
G1 X42.641 Y64.26 E19.8764
G1 X43.271 Y63.526 E19.91342
G1 X44.233 Y62.868 E19.95802
G1 X45.508 Y62.46 E20.00925
G1 X45.353 Y61.975 E20.02874
G1 X45.351 Y60.923 E20.069
G1 X45.601 Y59.988 E20.10604
G1 X46.095 Y59.121 E20.14423
G1 X46.496 Y58.744 E20.16529
G0 F1620 X47.001 Y58.269
G0 F4320 X47.192 Y58.57
G1 F1800 X48.306 Y58.122 E20.21124
G1 X49.584 Y58.087 E20.26017
G1 X51.451 Y58.439 E20.33288
G1 X51.897 Y58.432 E20.34995
G1 X52.618 Y58.332 E20.37781
G1 X54.05 Y58.096 E20.43335
G1 X55.022 Y58.23 E20.4709
G1 X55.738 Y58.483 E20.49996
G1 X56.669 Y59.156 E20.54392
G1 X57.225 Y60.046 E20.58408
G1 X57.424 Y60.68 E20.60951
G1 X57.522 Y61.41 E20.6377
G1 X57.411 Y62.258 E20.67043
G1 X57.191 Y62.808 E20.6931
G1 X57.393 Y62.797 E20.70084
G1 X58.527 Y63.004 E20.74496
G1 X59.422 Y63.495 E20.78403
G1 X60.173 Y64.187 E20.82311
G1 X60.698 Y65.106 E20.86361
G1 X60.941 Y66.166 E20.90523
G1 X60.811 Y67.14 E20.94284
G1 X60.729 Y67.391 E20.95294
G1 X61.524 Y67.293 E20.9836
G1 X62.44 Y67.548 E21.01998
G1 X63.095 Y67.855 E21.04767
G1 X63.531 Y68.171 E21.06827
G1 X64.132 Y68.918 E21.10497
G1 X64.515 Y69.829 E21.14279
G1 X64.643 Y70.813 E21.18076
G1 X64.509 Y72.897 E21.26068
G1 X63.949 Y74.381 E21.32138
G1 X63.293 Y75.59 E21.37402
G1 X62.471 Y76.507 E21.42115
G1 X61.161 Y77.418 E21.48222
G1 X60.082 Y77.83 E21.52642
G1 X59.628 Y78.125 E21.54714
G1 X59.33 Y78.409 E21.56289
G1 X59.139 Y78.677 E21.57549
G1 X58.878 Y79.169 E21.5968
G1 X58.626 Y79.801 E21.62284
G1 X58.079 Y80.569 E21.65892
G1 X57.302 Y81.224 E21.69781
G1 X56.878 Y81.444 E21.71609
G1 X57.42 Y82.669 E21.76736
G1 X57.608 Y83.83 E21.81237
G1 X57.722 Y84.319 E21.83159
G1 X58.037 Y85.199 E21.86736
G1 X58.206 Y86.592 E21.92106
G1 X58.007 Y87.996 E21.97532
G1 X57.339 Y89.401 E22.03486
G1 X56.743 Y90.305 E22.0763
G1 X56.035 Y90.989 E22.11397
