;FLAVOR:Marlin
;TIME:1542
;Filament used: 0.759086m
;Layer height: 0.13125
;MINX:43.513
;MINY:44.186
;MINZ:0.263
;MAXX:76.337
;MAXY:74.941
;MAXZ:15.983
;TARGET_MACHINE.NAME:Monoprice Select Mini V2
;Generated with Cura_SteamEngine 5.7.2
M140 S65
M105
M190 S65
M104 S205
M105
M109 S205
M82 ;absolute extrusion mode
G21;(metric values)
G90;(absolute positioning)
M82;(set extruder to absolute mode)
M107;(start with the fan off)
G28;(Home the printer)
G92 E0;(Reset the extruder to 0)
G0 Z5 E5 F500;(Move up and prime the nozzle)
G0 X-1 Z0;(Move outside the printable area)
G1 Y60 E8 F500;(Draw a priming/wiping line to the rear)
G1 X-1;(Move a little closer to the print area)
G1 Y10 E16 F500;(draw more priming/wiping)
G1 E15 F250;(Small retract)
G92 E0;(Zero the extruder)
G92 E0
G92 E0
G1 F2400 E-2.5
;LAYER_COUNT:121
;LAYER:0
M107
G0 F4320 X47.818 Y49.014 Z0.263
;TYPE:SKIRT
G1 F2400 E0
G1 F1800 X49.21 Y47.842 E0.06964
G1 X52.374 Y46.768 E0.19751
G1 X53.132 Y46.354 E0.23056
G1 X53.716 Y45.768 E0.26223
G1 X55.602 Y44.628 E0.34656
G1 X57.196 Y44.186 E0.40987
G1 X62.783 Y44.186 E0.62368
G1 X64.281 Y44.561 E0.68278
G1 X66.015 Y45.608 E0.7603
G1 X66.528 Y46.149 E0.78883
G1 X66.711 Y46.292 E0.79772
G1 X67.037 Y46.436 E0.81136
G1 X67.575 Y46.756 E0.83531
G1 X70.41 Y47.704 E0.94971
G1 X71.972 Y48.712 E1.02086
G1 X74.991 Y52.883 E1.21791
G1 X75.673 Y54.593 E1.28836
G1 X75.689 Y58.966 E1.45572
G1 X75.863 Y59.81 E1.4887
G1 X76.218 Y60.761 E1.52754
G1 X76.337 Y62.1 E1.57899
G1 X76.314 Y62.8 E1.60579
G1 X76.272 Y63.369 E1.62763
G1 X76.016 Y64.561 E1.67429
G1 X74.62 Y68.355 E1.829
G1 X73.313 Y69.853 E1.90508
G1 X70.836 Y72.023 E2.03111
G1 X69.134 Y72.809 E2.10285
G1 X67.381 Y72.909 E2.17005
G1 X66.744 Y73.248 E2.19766
G1 X65.708 Y73.524 E2.23869
G1 X65.017 Y73.922 E2.26921
G1 X63.608 Y74.71 E2.33099
G1 X61.665 Y74.941 E2.40588
G1 X60.315 Y74.767 E2.45797
G1 X59.016 Y74.938 E2.50811
G1 X57.062 Y74.709 E2.5834
G1 X55.552 Y73.903 E2.64891
G1 X54.318 Y73.074 E2.7058
G1 X54.03 Y73.054 E2.71685
G1 X53.178 Y72.901 E2.74997
G1 X51.498 Y72.808 E2.81437
G1 X49.77 Y72.027 E2.88694
G1 X46.99 Y69.55 E3.02943
G1 X46.534 Y69.041 E3.05559
G1 X45.808 Y68.466 E3.09103
G1 X44.769 Y67.076 E3.15744
G1 X44.283 Y65.388 E3.22467
G1 X44.268 Y64.867 E3.24461
G1 X43.921 Y64.225 E3.27254
G1 X43.648 Y63.441 E3.30431
G1 X43.513 Y61.983 E3.36035
G1 X43.839 Y60.564 E3.41607
G1 X44.076 Y60.052 E3.43766
G1 X44.287 Y59.249 E3.46943
G1 X44.31 Y58.693 E3.49073
G1 X44.327 Y54.788 E3.64018
G1 X44.897 Y53.048 E3.71025
G1 X47.412 Y49.576 E3.87432
G0 F1620 X47.818 Y49.014
G0 F4320 X48.075 Y49.255
G1 F1800 X49.385 Y48.152 E3.93986
G1 X52.513 Y47.09 E4.06628
G1 X53.346 Y46.636 E4.10258
G1 X53.933 Y46.046 E4.13443
G1 X55.744 Y44.951 E4.21542
G1 X57.242 Y44.536 E4.27491
G1 X62.742 Y44.536 E4.4854
G1 X64.142 Y44.887 E4.54063
G1 X65.794 Y45.884 E4.61447
G1 X66.293 Y46.41 E4.64222
G1 X66.528 Y46.594 E4.65364
G1 X66.858 Y46.737 E4.66741
G1 X67.428 Y47.076 E4.69279
G1 X70.257 Y48.022 E4.80695
G1 X71.726 Y48.97 E4.87386
G1 X74.682 Y53.054 E5.06679
G1 X75.323 Y54.661 E5.13301
G1 X75.339 Y59.004 E5.29921
G1 X75.525 Y59.905 E5.33442
G1 X75.873 Y60.837 E5.37249
G1 X75.987 Y62.089 E5.42061
G1 X75.965 Y62.774 E5.44684
G1 X75.923 Y63.343 E5.46867
G1 X75.688 Y64.44 E5.5116
G1 X74.315 Y68.172 E5.66379
G1 X73.082 Y69.59 E5.7357
G1 X70.644 Y71.726 E5.85975
G1 X69.046 Y72.464 E5.92711
G1 X67.284 Y72.564 E5.99465
G1 X66.615 Y72.92 E6.02365
G1 X65.575 Y73.197 E6.06484
G1 X64.846 Y73.616 E6.09702
G1 X63.497 Y74.37 E6.15616
G1 X61.665 Y74.588 E6.22677
G1 X60.314 Y74.414 E6.2789
G1 X59.015 Y74.585 E6.32904
G1 X57.168 Y74.369 E6.4002
G1 X55.747 Y73.612 E6.46182
G1 X54.586 Y72.832 E6.51535
G1 X54.472 Y72.733 E6.52113
G1 X54.092 Y72.709 E6.5357
G1 X53.227 Y72.554 E6.56933
G1 X51.584 Y72.463 E6.6323
G1 X49.963 Y71.73 E6.70039
G1 X47.251 Y69.317 E6.83931
G1 X46.773 Y68.783 E6.86674
G1 X46.06 Y68.219 E6.90153
G1 X45.087 Y66.917 E6.96373
G1 X44.632 Y65.335 E7.02673
G1 X44.615 Y64.773 E7.04825
G1 X44.252 Y64.11 E7.07717
G1 X43.993 Y63.366 E7.10732
G1 X43.867 Y62.005 E7.15963
G1 X44.171 Y60.68 E7.21166
G1 X44.407 Y60.17 E7.23316
G1 X44.635 Y59.302 E7.26751
G1 X44.66 Y58.708 E7.29026
G1 X44.677 Y54.846 E7.43806
G1 X45.214 Y53.206 E7.5041
G1 X47.668 Y49.817 E7.66423
G0 F1620 X48.075 Y49.255
G0 F4320 X48.334 Y49.494
G1 F1800 X49.56 Y48.462 E7.72556
G1 X52.652 Y47.412 E7.85053
G1 X53.56 Y46.918 E7.89008
G1 X54.15 Y46.324 E7.92212
G1 X55.886 Y45.275 E7.99975
G1 X57.289 Y44.886 E8.05547
G1 X62.697 Y44.886 E8.26243
G1 X64.006 Y45.214 E8.31407
G1 X65.573 Y46.16 E8.38412
G1 X66.058 Y46.671 E8.41109
G1 X66.347 Y46.897 E8.42513
G1 X66.679 Y47.038 E8.43893
G1 X67.281 Y47.396 E8.46574
G1 X70.104 Y48.34 E8.57965
G1 X71.48 Y49.228 E8.64232
G1 X74.373 Y53.225 E8.83115
G1 X74.973 Y54.729 E8.89312
G1 X74.989 Y59.042 E9.05818
G1 X75.187 Y60 E9.09562
G1 X75.529 Y60.917 E9.13307
G1 X75.637 Y62.078 E9.1777
G1 X75.616 Y62.748 E9.20335
G1 X75.574 Y63.317 E9.22518
G1 X75.36 Y64.319 E9.2644
G1 X74.009 Y67.991 E9.41413
G1 X72.851 Y69.327 E9.48179
G1 X70.452 Y71.429 E9.60386
G1 X68.958 Y72.119 E9.66684
G1 X67.187 Y72.219 E9.73472
G1 X66.486 Y72.592 E9.76511
G1 X65.442 Y72.87 E9.80646
G1 X64.675 Y73.311 E9.84032
G1 X63.389 Y74.03 E9.8967
G1 X61.665 Y74.235 E9.96314
G1 X60.313 Y74.061 E10.01531
G1 X59.014 Y74.232 E10.06545
G1 X57.273 Y74.028 E10.13254
G1 X55.942 Y73.321 E10.19021
G1 X54.781 Y72.541 E10.24374
G1 X54.618 Y72.391 E10.25222
G1 X54.154 Y72.364 E10.27001
G1 X53.276 Y72.207 E10.30414
G1 X51.67 Y72.118 E10.3657
G1 X50.156 Y71.433 E10.42929
G1 X47.512 Y69.084 E10.56464
G1 X47.012 Y68.525 E10.59334
G1 X46.31 Y67.97 E10.62759
G1 X45.406 Y66.76 E10.6854
G1 X44.968 Y65.238 E10.74601
G1 X44.965 Y64.681 E10.76732
G1 X44.583 Y63.995 E10.79737
G1 X44.338 Y63.291 E10.8259
G1 X44.221 Y62.027 E10.87448
G1 X44.503 Y60.796 E10.92281
G1 X44.738 Y60.288 E10.94423
G1 X44.983 Y59.355 E10.98115
G1 X45.01 Y58.723 E11.00535
G1 X45.027 Y54.904 E11.15151
G1 X45.53 Y53.367 E11.2134
G1 X47.927 Y50.056 E11.36983
G0 F1620 X48.334 Y49.494
G0 F4320 X48.591 Y49.735
G1 F1800 X49.735 Y48.772 E11.42706
G1 X52.796 Y47.732 E11.55078
G1 X53.771 Y47.202 E11.59325
G1 X54.367 Y46.602 E11.62561
G1 X56.028 Y45.598 E11.69989
G1 X57.335 Y45.236 E11.75179
G1 X62.652 Y45.236 E11.95527
G1 X63.87 Y45.541 E12.00333
G1 X65.352 Y46.436 E12.06958
G1 X65.82 Y46.928 E12.09557
G1 X66.169 Y47.202 E12.11255
G1 X66.5 Y47.339 E12.12626
G1 X67.134 Y47.716 E12.15449
G1 X69.951 Y48.658 E12.26816
G1 X71.234 Y49.486 E12.3266
G1 X74.064 Y53.396 E12.51132
G1 X74.623 Y54.797 E12.56904
G1 X74.639 Y58.986 E12.72936
G1 X74.725 Y59.493 E12.74904
G1 X74.849 Y60.096 E12.7726
G1 X75.185 Y60.997 E12.8094
G1 X75.287 Y62.067 E12.85053
G1 X75.267 Y62.722 E12.87561
G1 X75.225 Y63.291 E12.89745
G1 X75.032 Y64.198 E12.93293
G1 X73.704 Y67.809 E13.08018
G1 X72.62 Y69.064 E13.14364
G1 X70.26 Y71.132 E13.26373
G1 X68.87 Y71.774 E13.32232
G1 X67.09 Y71.874 E13.39055
G1 X66.357 Y72.264 E13.42232
G1 X65.307 Y72.544 E13.46391
G1 X64.504 Y73.006 E13.49937
G1 X63.281 Y73.69 E13.55299
G1 X61.665 Y73.882 E13.61527
G1 X60.312 Y73.708 E13.66748
G1 X59.013 Y73.879 E13.71762
G1 X57.378 Y73.687 E13.78062
G1 X56.137 Y73.03 E13.83436
G1 X54.976 Y72.25 E13.88789
G1 X54.764 Y72.048 E13.89909
G1 X54.215 Y72.019 E13.92013
G1 X53.323 Y71.86 E13.95481
G1 X51.756 Y71.773 E14.01487
G1 X50.349 Y71.136 E14.07398
G1 X47.773 Y68.851 E14.20575
G1 X47.254 Y68.271 E14.23554
G1 X46.564 Y67.725 E14.26921
G1 X45.724 Y66.601 E14.32291
G1 X45.318 Y65.189 E14.37914
G1 X45.315 Y64.588 E14.40214
G1 X44.914 Y63.88 E14.43328
G1 X44.683 Y63.216 E14.46019
G1 X44.575 Y62.048 E14.50508
G1 X44.835 Y60.912 E14.54967
G1 X45.067 Y60.411 E14.5708
G1 X45.332 Y59.404 E14.61065
G1 X45.36 Y58.738 E14.63616
G1 X45.377 Y54.962 E14.78067
G1 X45.847 Y53.525 E14.83853
G1 X48.185 Y50.297 E14.99107
G0 F1620 X48.591 Y49.735
G0 F4320 X48.848 Y49.976
G1 F1800 X49.91 Y49.082 E15.04419
G1 X52.94 Y48.052 E15.16667
G1 X53.982 Y47.486 E15.21205
G1 X54.584 Y46.88 E15.24474
G1 X56.17 Y45.922 E15.31565
G1 X57.382 Y45.586 E15.36378
G1 X62.607 Y45.586 E15.56374
G1 X63.734 Y45.868 E15.6082
G1 X65.131 Y46.712 E15.67066
G1 X65.582 Y47.186 E15.6957
G1 X65.994 Y47.509 E15.71574
G1 X66.321 Y47.64 E15.72922
G1 X66.987 Y48.036 E15.75887
G1 X69.798 Y48.976 E15.8723
G1 X70.988 Y49.744 E15.92651
G1 X73.755 Y53.567 E16.10711
G1 X74.273 Y54.865 E16.1606
G1 X74.289 Y59.016 E16.31946
G1 X74.382 Y59.564 E16.34073
G1 X74.511 Y60.191 E16.36523
G1 X74.841 Y61.077 E16.40141
G1 X74.937 Y62.057 E16.43909
G1 X74.918 Y62.696 E16.46356
G1 X74.876 Y63.265 E16.48539
G1 X74.704 Y64.077 E16.51716
G1 X73.398 Y67.629 E16.66199
G1 X72.389 Y68.801 E16.72117
G1 X70.068 Y70.835 E16.83928
G1 X68.782 Y71.429 E16.89349
G1 X66.992 Y71.529 E16.9621
G1 X66.226 Y71.937 E16.99532
G1 X65.176 Y72.217 E17.0369
G1 X64.714 Y72.472 E17.0571
G1 X64.333 Y72.7 E17.07409
G1 X63.17 Y73.35 E17.12508
G1 X61.665 Y73.529 E17.18308
G1 X60.553 Y73.386 E17.22599
G1 X60.177 Y73.373 E17.24039
G1 X59.012 Y73.526 E17.28535
G1 X57.484 Y73.347 E17.34423
G1 X56.332 Y72.739 E17.39408
G1 X55.171 Y71.959 E17.44761
G1 X54.915 Y71.705 E17.46141
G1 X54.233 Y71.669 E17.48755
G1 X53.364 Y71.512 E17.52134
G1 X51.842 Y71.428 E17.57968
G1 X50.542 Y70.839 E17.63429
G1 X48.034 Y68.618 E17.7625
G1 X47.496 Y68.017 E17.79337
G1 X46.818 Y67.48 E17.82647
G1 X46.042 Y66.442 E17.87607
G1 X45.668 Y65.14 E17.92791
G1 X45.665 Y64.494 E17.95263
G1 X45.219 Y63.707 E17.98725
G1 X45.027 Y63.138 E18.01023
G1 X44.928 Y62.073 E18.05117
G1 X45.167 Y61.028 E18.09219
G1 X45.396 Y60.534 E18.11303
G1 X45.681 Y59.453 E18.15581
G1 X45.71 Y58.752 E18.18266
G1 X45.727 Y55.02 E18.32549
G1 X46.164 Y53.683 E18.37932
G1 X48.442 Y50.538 E18.52793
G0 F1620 X48.848 Y49.976
G0 F4320 X49.107 Y50.215
G1 F1800 X50.085 Y49.392 E18.57685
G1 X53.084 Y48.372 E18.69808
G1 X54.193 Y47.77 E18.74637
G1 X54.801 Y47.158 E18.77939
G1 X56.312 Y46.246 E18.84693
G1 X57.429 Y45.936 E18.89129
G1 X62.566 Y45.936 E19.08788
G1 X63.595 Y46.194 E19.12848
G1 X64.91 Y46.988 E19.18727
G1 X65.347 Y47.448 E19.21155
G1 X65.816 Y47.815 E19.23434
G1 X66.142 Y47.941 E19.24772
G1 X66.84 Y48.356 E19.27879
G1 X69.645 Y49.294 E19.39198
G1 X70.742 Y50.002 E19.44195
G1 X73.446 Y53.738 E19.61845
G1 X73.923 Y54.933 E19.66769
G1 X73.939 Y59.045 E19.82506
G1 X74.039 Y59.635 E19.84796
G1 X74.173 Y60.286 E19.87339
G1 X74.497 Y61.157 E19.90896
G1 X74.587 Y62.047 E19.94319
G1 X74.569 Y62.67 E19.96704
G1 X74.527 Y63.239 E19.98888
G1 X74.375 Y63.956 E20.01693
G1 X73.091 Y67.449 E20.15935
G1 X72.158 Y68.538 E20.21423
G1 X69.876 Y70.538 E20.33036
G1 X68.694 Y71.084 E20.38018
G1 X66.993 Y71.179 E20.44538
G1 X66.816 Y71.226 E20.45239
G1 X66.095 Y71.61 E20.48365
G1 X65.045 Y71.89 E20.52524
G1 X64.534 Y72.172 E20.54758
G1 X64.162 Y72.395 E20.56418
G1 X63.062 Y73.01 E20.6124
G1 X61.665 Y73.176 E20.66624
G1 X60.578 Y73.036 E20.70819
G1 X60.161 Y73.022 E20.72415
G1 X59.011 Y73.173 E20.76854
G1 X57.589 Y73.007 E20.82333
G1 X56.527 Y72.448 E20.86926
G1 X55.366 Y71.668 E20.92279
G1 X55.035 Y71.325 E20.94103
G1 X54.841 Y71.35 E20.94852
G1 X54.251 Y71.319 E20.97113
G1 X53.407 Y71.164 E21.00397
G1 X51.928 Y71.083 E21.06065
G1 X50.734 Y70.542 E21.11082
G1 X48.295 Y68.385 E21.23543
G1 X47.735 Y67.759 E21.26757
G1 X47.07 Y67.233 E21.30002
G1 X46.36 Y66.283 E21.34541
G1 X46.018 Y65.091 E21.39286
G1 X46.015 Y64.351 E21.42118
G1 X45.909 Y64.215 E21.42778
G1 X45.551 Y63.595 E21.45518
G1 X45.371 Y63.061 E21.47675
G1 X45.281 Y62.097 E21.5138
G1 X45.499 Y61.144 E21.55121
G1 X45.725 Y60.656 E21.57179
G1 X45.925 Y59.9 E21.60172
G1 X46.034 Y59.403 E21.62119
G1 X46.06 Y58.766 E21.64559
G1 X46.077 Y55.078 E21.78673
G1 X46.48 Y53.844 E21.83641
G1 X48.701 Y50.777 E21.98133
G0 F1620 X49.107 Y50.215
G0 F4320 X49.364 Y50.456
G1 F1800 X50.26 Y49.702 E22.02615
G1 X53.225 Y48.694 E22.146
G1 X53.994 Y48.27 E22.1796
G1 X54.403 Y48.055 E22.19729
G1 X55.018 Y47.436 E22.23068
G1 X56.454 Y46.569 E22.29487
G1 X57.475 Y46.286 E22.33542
G1 X62.521 Y46.286 E22.52853
G1 X63.459 Y46.521 E22.56554
G1 X64.689 Y47.264 E22.62053
G1 X65.109 Y47.706 E22.64387
G1 X65.645 Y48.126 E22.66993
G1 X65.963 Y48.242 E22.68288
G1 X66.693 Y48.676 E22.71538
G1 X69.492 Y49.612 E22.82833
G1 X70.496 Y50.26 E22.87406
G1 X73.137 Y53.909 E23.04645
G1 X73.573 Y55.001 E23.09144
G1 X73.589 Y59.074 E23.24732
G1 X73.696 Y59.706 E23.27185
G1 X73.835 Y60.381 E23.29822
G1 X74.153 Y61.237 E23.33317
G1 X74.237 Y62.037 E23.36395
G1 X74.22 Y62.644 E23.38719
G1 X74.178 Y63.213 E23.40903
G1 X74.046 Y63.835 E23.43336
G1 X72.783 Y67.271 E23.57346
G1 X71.927 Y68.275 E23.62395
G1 X69.684 Y70.241 E23.7381
G1 X68.606 Y70.739 E23.78354
G1 X66.937 Y70.832 E23.84751
G1 X66.685 Y70.899 E23.85749
G1 X65.964 Y71.283 E23.88876
G1 X64.914 Y71.563 E23.93034
G1 X64.354 Y71.872 E23.95482
G1 X63.991 Y72.09 E23.97102
G1 X62.954 Y72.67 E24.0165
G1 X61.665 Y72.823 E24.06617
G1 X60.603 Y72.686 E24.10715
G1 X60.145 Y72.671 E24.12469
G1 X59.009 Y72.82 E24.16854
G1 X57.694 Y72.667 E24.2192
G1 X56.69 Y72.138 E24.26263
G1 X55.561 Y71.378 E24.31471
G1 X55.163 Y70.95 E24.33708
G1 X54.859 Y71 E24.34887
G1 X54.269 Y70.969 E24.37148
G1 X53.452 Y70.816 E24.40329
G1 X52.014 Y70.738 E24.45841
G1 X50.926 Y70.245 E24.50412
G1 X48.556 Y68.152 E24.62512
G1 X47.974 Y67.501 E24.65854
G1 X47.32 Y66.984 E24.69045
G1 X46.679 Y66.126 E24.73143
G1 X46.368 Y65.042 E24.77459
G1 X46.364 Y64.226 E24.80582
G1 X46.212 Y64.04 E24.81501
G1 X45.854 Y63.42 E24.84241
G1 X45.716 Y62.991 E24.85966
G1 X45.635 Y62.118 E24.89321
G1 X45.831 Y61.26 E24.92689
G1 X46.054 Y60.778 E24.94722
G1 X46.267 Y59.975 E24.97901
G1 X46.383 Y59.447 E24.9997
G1 X46.41 Y58.78 E25.02525
G1 X46.427 Y55.135 E25.16474
G1 X46.796 Y54.003 E25.21031
G1 X48.958 Y51.018 E25.35136
G0 F1620 X49.364 Y50.456
G0 F4320 X49.623 Y50.695
G1 F1800 X50.435 Y50.012 E25.39197
G1 X53.369 Y49.015 E25.51056
G1 X54.127 Y48.594 E25.54374
G1 X54.37 Y48.494 E25.55379
G1 X54.626 Y48.327 E25.56549
G1 X55.235 Y47.714 E25.59856
G1 X56.596 Y46.893 E25.65939
G1 X57.522 Y46.636 E25.69617
G1 X62.476 Y46.636 E25.88576
G1 X63.323 Y46.848 E25.91917
G1 X64.468 Y47.54 E25.97037
G1 X64.875 Y47.968 E25.99297
G1 X65.474 Y48.437 E26.02209
G1 X65.784 Y48.543 E26.03463
G1 X66.546 Y48.996 E26.06855
G1 X69.339 Y49.93 E26.18126
G1 X70.251 Y50.518 E26.22279
G1 X72.828 Y54.08 E26.39104
G1 X73.223 Y55.069 E26.43179
G1 X73.239 Y59.103 E26.58618
G1 X73.353 Y59.777 E26.61234
G1 X73.497 Y60.476 E26.63965
G1 X73.809 Y61.317 E26.67398
G1 X73.887 Y62.028 E26.70135
G1 X73.871 Y62.618 E26.72394
G1 X73.829 Y63.187 E26.74577
G1 X73.717 Y63.714 E26.76639
G1 X72.475 Y67.093 E26.90416
G1 X71.696 Y68.012 E26.95027
G1 X69.492 Y69.944 E27.06243
G1 X68.518 Y70.394 E27.1035
G1 X66.882 Y70.485 E27.1662
G1 X66.553 Y70.572 E27.17923
G1 X65.833 Y70.956 E27.21045
G1 X64.783 Y71.236 E27.25204
G1 X64.185 Y71.566 E27.27818
G1 X63.82 Y71.784 E27.29445
G1 X62.843 Y72.33 E27.33728
G1 X61.665 Y72.47 E27.38268
G1 X60.628 Y72.336 E27.4227
G1 X60.129 Y72.32 E27.4418
G1 X59.008 Y72.467 E27.48507
G1 X57.799 Y72.326 E27.53165
G1 X56.853 Y71.828 E27.57257
G1 X55.788 Y71.109 E27.62174
G1 X55.286 Y70.569 E27.64996
G1 X54.877 Y70.65 E27.66592
G1 X54.287 Y70.619 E27.68853
G1 X53.5 Y70.469 E27.71919
G1 X52.1 Y70.393 E27.77284
G1 X51.118 Y69.948 E27.8141
G1 X48.817 Y67.919 E27.93151
G1 X48.213 Y67.243 E27.9662
G1 X47.57 Y66.735 E27.99756
G1 X46.998 Y65.969 E28.03415
G1 X46.718 Y64.993 E28.07301
G1 X46.714 Y64.264 E28.10091
G1 X46.678 Y64.054 E28.10906
G1 X46.515 Y63.865 E28.11861
G1 X46.157 Y63.245 E28.14601
G1 X46.065 Y62.959 E28.15751
