;FLAVOR:Marlin
;TIME:1745
;Filament used: 0.779794m
;Layer height: 0.13125
;MINX:41.007
;MINY:48.081
;MINZ:0.263
;MAXX:78.873
;MAXY:71.277
;MAXZ:17.031
;TARGET_MACHINE.NAME:Monoprice Select Mini V2
;Generated with Cura_SteamEngine 5.7.2
M140 S65
M105
M190 S65
M104 S205
M105
M109 S205
M82 ;absolute extrusion mode
G21;(metric values)
G90;(absolute positioning)
M82;(set extruder to absolute mode)
M107;(start with the fan off)
G28;(Home the printer)
G92 E0;(Reset the extruder to 0)
G0 Z5 E5 F500;(Move up and prime the nozzle)
G0 X-1 Z0;(Move outside the printable area)
G1 Y60 E8 F500;(Draw a priming/wiping line to the rear)
G1 X-1;(Move a little closer to the print area)
G1 Y10 E16 F500;(draw more priming/wiping)
G1 E15 F250;(Small retract)
G92 E0;(Zero the extruder)
G92 E0
G92 E0
G1 F2400 E-2.5
;LAYER_COUNT:129
;LAYER:0
M107
G0 F4320 X48.486 Y54.015 Z0.263
;TYPE:SKIRT
G1 F2400 E0
G1 F1800 X50.12 Y52.574 E0.08338
G1 X51.608 Y51.839 E0.14689
G1 X52.824 Y51.646 E0.19401
G1 X55.024 Y51.635 E0.2782
G1 X55.455 Y50.721 E0.31688
G1 X56.668 Y49.407 E0.38531
G1 X58.526 Y48.448 E0.46533
G1 X59.586 Y48.081 E0.50826
G1 X61.317 Y48.112 E0.57452
G1 X62.858 Y48.602 E0.6364
G1 X64.367 Y49.841 E0.71112
G1 X65.241 Y51.365 E0.77836
G1 X65.31 Y51.627 E0.78872
G1 X67.071 Y51.618 E0.85612
G1 X68.365 Y51.889 E0.90671
G1 X69.768 Y52.579 E0.96655
G1 X71.422 Y54.029 E1.05073
G1 X72.428 Y55.614 E1.12257
G1 X72.737 Y57.147 E1.18242
G1 X72.738 Y58.724 E1.24277
G1 X73.931 Y58.746 E1.28844
G1 X75.282 Y59.079 E1.34169
G1 X76.653 Y59.97 E1.40426
G1 X77.685 Y61.137 E1.46388
G1 X78.251 Y62.128 E1.50755
G1 X78.834 Y64.003 E1.5827
G1 X78.873 Y65.973 E1.65811
G1 X78.298 Y67.796 E1.73126
G1 X77.403 Y69.156 E1.79357
G1 X76.389 Y70.136 E1.84753
G1 X74.842 Y71.008 E1.91549
G1 X73.194 Y71.194 E1.97896
G1 X72.385 Y71.157 E2.00996
G1 X71.071 Y70.725 E2.06289
G1 X69.994 Y70.01 E2.11236
G1 X69.047 Y70.597 E2.155
G1 X67.727 Y70.81 E2.20617
G1 X66.245 Y70.81 E2.26289
G1 X65.336 Y70.666 E2.29811
G1 X65.089 Y70.579 E2.30813
G1 X64.531 Y70.865 E2.33213
G1 X63.11 Y71.066 E2.38705
G1 X61.948 Y71.064 E2.43152
G1 X60.763 Y70.776 E2.47819
G1 X59.978 Y70.368 E2.51205
G1 X58.985 Y70.868 E2.5546
G1 X57.523 Y71.069 E2.61107
G1 X56.411 Y71.064 E2.65363
G1 X55.227 Y70.774 E2.70028
G1 X54.818 Y70.566 E2.71784
G1 X54.536 Y70.664 E2.72927
G1 X53.392 Y70.83 E2.77351
G1 X52.17 Y70.839 E2.82027
G1 X50.534 Y70.445 E2.88467
G1 X49.911 Y70.036 E2.91319
G1 X48.959 Y70.737 E2.95844
G1 X47.118 Y71.277 E3.03186
G1 X45.225 Y71.062 E3.10477
G1 X43.755 Y70.315 E3.16788
G1 X42.488 Y69.148 E3.2338
G1 X41.59 Y67.643 E3.30087
G1 X41.14 Y66.182 E3.35937
G1 X41.007 Y64.431 E3.42658
G1 X41.481 Y62.438 E3.50498
G1 X42.322 Y60.985 E3.56922
G1 X43.294 Y59.932 E3.62407
G1 X44.629 Y59.123 E3.68381
G1 X45.218 Y58.912 E3.70775
G1 X46.589 Y58.73 E3.76068
G1 X47.149 Y58.791 E3.78224
G1 X47.147 Y57.084 E3.84756
G1 X47.529 Y55.445 E3.91197
G1 X48.101 Y54.591 E3.9513
G0 F1620 X48.486 Y54.015
G0 F4320 X48.752 Y54.247
G1 F1800 X50.316 Y52.868 E4.0311
G1 X51.715 Y52.177 E4.09082
G1 X52.879 Y51.992 E4.13592
G1 X55.247 Y51.984 E4.22655
G1 X55.75 Y50.917 E4.27169
G1 X56.882 Y49.691 E4.33555
G1 X58.641 Y48.779 E4.41138
G1 X59.643 Y48.432 E4.45196
G1 X61.258 Y48.461 E4.51377
G1 X62.69 Y48.916 E4.57128
G1 X64.094 Y50.069 E4.6408
G1 X64.937 Y51.539 E4.70565
G1 X65.021 Y51.978 E4.72276
G1 X67.033 Y51.968 E4.79976
G1 X68.251 Y52.223 E4.84738
G1 X69.572 Y52.873 E4.90373
G1 X71.154 Y54.26 E4.98424
G1 X72.098 Y55.747 E5.05165
G1 X72.387 Y57.181 E5.10763
G1 X72.388 Y59.172 E5.18383
G1 X72.802 Y59.075 E5.2001
G1 X73.885 Y59.095 E5.24155
G1 X75.142 Y59.405 E5.2911
G1 X76.422 Y60.237 E5.34952
G1 X77.398 Y61.341 E5.40592
G1 X77.929 Y62.27 E5.44687
G1 X78.485 Y64.059 E5.51856
G1 X78.522 Y65.922 E5.58987
G1 X77.979 Y67.645 E5.65901
G1 X77.132 Y68.931 E5.71794
G1 X76.178 Y69.853 E5.76871
G1 X74.732 Y70.668 E5.83224
G1 X73.21 Y70.844 E5.89087
G1 X72.445 Y70.809 E5.92018
G1 X71.229 Y70.409 E5.96917
G1 X70.171 Y69.707 E6.01776
G1 X70.033 Y69.575 E6.02507
G1 X68.925 Y70.262 E6.07496
G1 X67.671 Y70.464 E6.12357
G1 X66.3 Y70.464 E6.17604
G1 X65.391 Y70.32 E6.21126
G1 X65.068 Y70.197 E6.22449
G1 X64.426 Y70.526 E6.25209
G1 X63.061 Y70.719 E6.30485
G1 X61.99 Y70.714 E6.34584
G1 X60.888 Y70.446 E6.38924
G1 X59.98 Y69.974 E6.42841
G1 X58.879 Y70.529 E6.47559
G1 X57.525 Y70.719 E6.52792
G1 X56.454 Y70.714 E6.56891
G1 X55.35 Y70.444 E6.6124
G1 X54.839 Y70.184 E6.63434
G1 X54.485 Y70.318 E6.64883
G1 X53.389 Y70.48 E6.69123
G1 X52.209 Y70.489 E6.73639
G1 X50.677 Y70.12 E6.79669
G1 X49.9 Y69.61 E6.83226
G1 X48.802 Y70.418 E6.88443
G1 X47.087 Y70.921 E6.95283
G1 X45.327 Y70.721 E7.02062
G1 X43.955 Y70.024 E7.07951
G1 X42.764 Y68.927 E7.14148
G1 X41.913 Y67.501 E7.20503
G1 X41.486 Y66.114 E7.26057
G1 X41.36 Y64.457 E7.32417
G1 X41.809 Y62.57 E7.3984
G1 X42.606 Y61.193 E7.45929
G1 X43.518 Y60.205 E7.51075
G1 X44.78 Y59.44 E7.56722
G1 X45.299 Y59.254 E7.58832
G1 X46.635 Y59.077 E7.6399
G1 X47.499 Y59.19 E7.67324
G1 X47.497 Y57.124 E7.75231
G1 X47.855 Y55.587 E7.81271
G1 X48.367 Y54.823 E7.8479
G0 F1620 X48.752 Y54.247
G0 F4320 X49.018 Y54.479
G1 F1800 X50.512 Y53.162 E7.92412
G1 X51.822 Y52.515 E7.98004
G1 X52.934 Y52.338 E8.02313
G1 X55.512 Y52.334 E8.12179
G1 X55.558 Y52.147 E8.12916
G1 X56.044 Y51.115 E8.17281
G1 X57.099 Y49.973 E8.23231
G1 X58.756 Y49.11 E8.30381
G1 X59.7 Y48.783 E8.34204
G1 X61.199 Y48.81 E8.39942
G1 X62.52 Y49.23 E8.45247
G1 X63.822 Y50.299 E8.51694
G1 X64.633 Y51.713 E8.57932
G1 X64.714 Y52.329 E8.6031
G1 X66.995 Y52.318 E8.69039
G1 X68.139 Y52.558 E8.73513
G1 X69.375 Y53.166 E8.78784
G1 X70.884 Y54.489 E8.86464
G1 X71.768 Y55.882 E8.92778
G1 X72.037 Y57.215 E8.97982
G1 X72.038 Y59.629 E9.07221
G1 X72.796 Y59.425 E9.10225
G1 X73.838 Y59.444 E9.14213
G1 X75 Y59.731 E9.18794
G1 X76.193 Y60.506 E9.24238
G1 X77.113 Y61.546 E9.29552
G1 X77.606 Y62.41 E9.33359
G1 X78.136 Y64.115 E9.40192
G1 X78.171 Y65.871 E9.46914
G1 X77.659 Y67.495 E9.5343
G1 X76.863 Y68.704 E9.5897
G1 X75.967 Y69.57 E9.63739
G1 X74.622 Y70.328 E9.69647
G1 X73.226 Y70.494 E9.75027
G1 X72.505 Y70.461 E9.77789
G1 X71.383 Y70.092 E9.82309
G1 X70.413 Y69.454 E9.86753
G1 X70.079 Y69.135 E9.8852
G1 X68.801 Y69.927 E9.94274
G1 X67.615 Y70.118 E9.98871
G1 X66.355 Y70.118 E10.03693
G1 X65.446 Y69.974 E10.07216
G1 X65.052 Y69.812 E10.08846
G1 X64.319 Y70.187 E10.11997
G1 X63.012 Y70.372 E10.17049
G1 X62.033 Y70.364 E10.20795
G1 X61.013 Y70.116 E10.24813
G1 X59.982 Y69.58 E10.2926
G1 X58.772 Y70.19 E10.34445
G1 X57.476 Y70.372 E10.39454
G1 X56.497 Y70.364 E10.43201
G1 X55.473 Y70.114 E10.47235
G1 X54.855 Y69.799 E10.49889
G1 X54.433 Y69.972 E10.51635
G1 X53.386 Y70.13 E10.55687
G1 X52.248 Y70.139 E10.60042
G1 X50.82 Y69.795 E10.65663
G1 X49.833 Y69.147 E10.70182
G1 X49.637 Y69.368 E10.71312
G1 X48.643 Y70.1 E10.76037
G1 X47.057 Y70.565 E10.82362
G1 X45.428 Y70.38 E10.88636
G1 X44.156 Y69.734 E10.94096
G1 X43.04 Y68.706 E10.99902
G1 X42.236 Y67.359 E11.05906
G1 X41.832 Y66.046 E11.11163
G1 X41.713 Y64.483 E11.17162
G1 X42.137 Y62.702 E11.24168
G1 X42.89 Y61.401 E11.29921
G1 X43.742 Y60.478 E11.34728
G1 X44.931 Y59.757 E11.4005
G1 X45.38 Y59.596 E11.41875
G1 X46.636 Y59.43 E11.46724
G1 X47.849 Y59.589 E11.51406
G1 X47.847 Y57.165 E11.60682
G1 X48.182 Y55.729 E11.66325
G1 X48.633 Y55.055 E11.69429
G0 F1620 X49.018 Y54.479
G0 F4320 X49.285 Y54.711
G1 F1800 X50.708 Y53.456 E11.7669
G1 X51.929 Y52.853 E11.81902
G1 X52.989 Y52.684 E11.8601
G1 X55.338 Y52.684 E11.94999
G1 X55.787 Y52.755 E11.96739
G1 X55.875 Y52.296 E11.98527
G1 X56.339 Y51.311 E12.02694
G1 X57.314 Y50.255 E12.08195
G1 X58.871 Y49.441 E12.14919
G1 X59.757 Y49.134 E12.18507
G1 X61.14 Y49.159 E12.23801
G1 X62.352 Y49.544 E12.28667
G1 X63.549 Y50.527 E12.34595
G1 X64.295 Y51.828 E12.40334
G1 X64.411 Y52.709 E12.43735
G1 X64.632 Y52.679 E12.44589
G1 X66.957 Y52.668 E12.53486
G1 X68.027 Y52.893 E12.57671
G1 X69.178 Y53.459 E12.6258
G1 X70.616 Y54.72 E12.69899
G1 X71.438 Y56.015 E12.75769
G1 X71.687 Y57.249 E12.80587
G1 X71.688 Y60.086 E12.91444
G1 X72.839 Y59.776 E12.96006
G1 X73.792 Y59.793 E12.99653
G1 X74.86 Y60.057 E13.03864
G1 X75.962 Y60.773 E13.08893
G1 X76.826 Y61.75 E13.13884
G1 X77.284 Y62.552 E13.17419
G1 X77.787 Y64.171 E13.23907
G1 X77.82 Y65.82 E13.30219
G1 X77.339 Y67.345 E13.36338
G1 X76.594 Y68.477 E13.41525
G1 X75.756 Y69.287 E13.45985
G1 X74.51 Y69.989 E13.51458
G1 X73.242 Y70.144 E13.56347
G1 X72.569 Y70.113 E13.58925
G1 X71.534 Y69.773 E13.63094
G1 X70.655 Y69.201 E13.67108
G1 X70.085 Y68.656 E13.70126
G1 X69.894 Y68.838 E13.71135
G1 X68.677 Y69.592 E13.76614
G1 X67.559 Y69.772 E13.80948
G1 X66.41 Y69.772 E13.85345
G1 X65.501 Y69.628 E13.88867
G1 X65.041 Y69.424 E13.90793
G1 X64.209 Y69.85 E13.9437
G1 X63.015 Y70.022 E13.98987
G1 X62.076 Y70.014 E14.02581
G1 X61.136 Y69.786 E14.06282
G1 X60.181 Y69.295 E14.10392
G1 X60.001 Y69.143 E14.11293
G1 X59.883 Y69.238 E14.11873
G1 X58.666 Y69.852 E14.1709
G1 X57.479 Y70.022 E14.21679
G1 X56.54 Y70.014 E14.25272
G1 X55.596 Y69.784 E14.28991
G1 X54.866 Y69.411 E14.32128
G1 X54.38 Y69.626 E14.34162
G1 X53.383 Y69.78 E14.38023
G1 X52.287 Y69.789 E14.42217
G1 X50.963 Y69.47 E14.47429
G1 X49.986 Y68.828 E14.51903
G1 X49.793 Y68.645 E14.52921
G1 X49.429 Y69.086 E14.55109
G1 X48.485 Y69.781 E14.59595
G1 X47.026 Y70.209 E14.65414
G1 X45.529 Y70.039 E14.7118
G1 X44.357 Y69.444 E14.7621
G1 X43.316 Y68.485 E14.81627
G1 X42.559 Y67.217 E14.87279
G1 X42.178 Y65.978 E14.92239
G1 X42.066 Y64.509 E14.97878
G1 X42.465 Y62.834 E15.04467
G1 X43.174 Y61.609 E15.09884
G1 X43.964 Y60.753 E15.14342
G1 X45.113 Y60.056 E15.19485
G1 X45.426 Y59.943 E15.20758
G1 X46.637 Y59.783 E15.25433
G1 X47.707 Y59.923 E15.29563
G1 X48.199 Y60.147 E15.31632
G1 X48.197 Y57.205 E15.42891
G1 X48.508 Y55.871 E15.48133
G1 X48.899 Y55.287 E15.50822
G0 F1620 X49.285 Y54.711
G0 F4320 X49.551 Y54.943
G1 F1800 X50.904 Y53.75 E15.57726
G1 X52.036 Y53.191 E15.62557
G1 X53.044 Y53.03 E15.66464
G1 X55.283 Y53.03 E15.75032
G1 X56.076 Y53.156 E15.78105
G1 X56.192 Y52.445 E15.80862
G1 X56.634 Y51.507 E15.84831
G1 X57.528 Y50.538 E15.89876
G1 X58.986 Y49.772 E15.96179
G1 X59.814 Y49.485 E15.99533
G1 X61.081 Y49.508 E16.04382
G1 X62.182 Y49.858 E16.08804
G1 X63.277 Y50.757 E16.14226
G1 X63.957 Y51.943 E16.19458
G1 X64.111 Y53.111 E16.23966
G1 X64.634 Y53.029 E16.25992
G1 X66.919 Y53.018 E16.34737
G1 X67.913 Y53.227 E16.38624
G1 X68.982 Y53.753 E16.43184
G1 X70.348 Y54.951 E16.50137
G1 X71.108 Y56.148 E16.55563
G1 X71.337 Y57.283 E16.59994
G1 X71.338 Y60.677 E16.72983
G1 X71.673 Y60.452 E16.74527
G1 X72.882 Y60.127 E16.79319
G1 X73.746 Y60.142 E16.82626
G1 X74.72 Y60.383 E16.86466
G1 X75.731 Y61.04 E16.9108
G1 X76.539 Y61.954 E16.95749
G1 X76.962 Y62.694 E16.99011
G1 X77.438 Y64.227 E17.05154
G1 X77.469 Y65.769 E17.11056
G1 X77.02 Y67.194 E17.16774
G1 X76.323 Y68.252 E17.21622
G1 X75.545 Y69.004 E17.25763
G1 X74.398 Y69.65 E17.30801
G1 X73.258 Y69.794 E17.35199
G1 X72.629 Y69.765 E17.37608
G1 X71.69 Y69.456 E17.41392
G1 X70.895 Y68.946 E17.45006
G1 X70.353 Y68.435 E17.47857
G1 X70.142 Y68.09 E17.49405
G1 X69.71 Y68.541 E17.51795
G1 X68.555 Y69.257 E17.56995
G1 X67.503 Y69.426 E17.61073
G1 X66.465 Y69.426 E17.65045
G1 X65.556 Y69.282 E17.68567
G1 X65.036 Y69.033 E17.70774
G1 X64.1 Y69.512 E17.74798
G1 X63.018 Y69.672 E17.78984
G1 X62.119 Y69.664 E17.82424
G1 X61.258 Y69.455 E17.85815
G1 X60.341 Y68.984 E17.8976
G1 X59.992 Y68.65 E17.91609
G1 X59.725 Y68.925 E17.93076
G1 X58.557 Y69.514 E17.98082
G1 X57.482 Y69.672 E18.0224
G1 X56.583 Y69.664 E18.05681
G1 X55.72 Y69.454 E18.0908
G1 X54.872 Y69.021 E18.12724
G1 X54.325 Y69.28 E18.1504
G1 X53.38 Y69.43 E18.18702
G1 X52.326 Y69.439 E18.22735
G1 X51.103 Y69.144 E18.2755
G1 X50.178 Y68.536 E18.31786
G1 X49.765 Y68.118 E18.34035
G1 X49.221 Y68.804 E18.37386
G1 X48.326 Y69.463 E18.41639
G1 X46.996 Y69.853 E18.46943
G1 X45.63 Y69.698 E18.52205
G1 X44.558 Y69.154 E18.56805
G1 X43.592 Y68.264 E18.61832
G1 X42.88 Y67.071 E18.67149
G1 X42.524 Y65.915 E18.71778
G1 X42.419 Y64.535 E18.77074
G1 X42.793 Y62.966 E18.83247
G1 X43.458 Y61.817 E18.88328
G1 X44.187 Y61.027 E18.92441
G1 X45.242 Y60.381 E18.97176
G1 X45.472 Y60.29 E18.98122
G1 X46.638 Y60.136 E19.02623
G1 X47.662 Y60.27 E19.06576
G1 X48.549 Y60.712 E19.10368
G1 X48.547 Y57.245 E19.23636
G1 X48.834 Y56.013 E19.28478
G1 X49.165 Y55.519 E19.30753
G0 F1620 X49.551 Y54.943
G0 F4320 X49.817 Y55.175
G1 F1800 X51.1 Y54.044 E19.37299
G1 X52.146 Y53.527 E19.41764
G1 X53.045 Y53.38 E19.4525
G1 X55.228 Y53.376 E19.53604
G1 X56.065 Y53.509 E19.56848
G1 X56.435 Y53.67 E19.58392
G1 X56.426 Y53.155 E19.60363
G1 X56.529 Y52.551 E19.62708
G1 X56.929 Y51.703 E19.66296
G1 X57.744 Y50.82 E19.70895
G1 X59.101 Y50.103 E19.76769
G1 X59.871 Y49.836 E19.79888
G1 X61.022 Y49.857 E19.84293
G1 X62.014 Y50.172 E19.88276
G1 X63.004 Y50.985 E19.93179
G1 X63.619 Y52.058 E19.97912
G1 X63.772 Y53.214 E20.02374
G1 X63.724 Y53.529 E20.03594
G1 X64.636 Y53.379 E20.07131
G1 X66.886 Y53.368 E20.15742
G1 X67.797 Y53.56 E20.19305
G1 X68.785 Y54.046 E20.23519
G1 X70.078 Y55.18 E20.301
G1 X70.778 Y56.283 E20.351
G1 X70.987 Y57.317 E20.39137
G1 X70.988 Y61.392 E20.54732
G1 X71.764 Y60.79 E20.58491
G1 X72.925 Y60.478 E20.63091
G1 X73.7 Y60.491 E20.66058
G1 X74.58 Y60.709 E20.69527
G1 X75.5 Y61.307 E20.73726
G1 X76.254 Y62.159 E20.78081
G1 X76.639 Y62.834 E20.81054
G1 X77.089 Y64.283 E20.86861
G1 X77.118 Y65.718 E20.92354
G1 X76.7 Y67.044 E20.97675
G1 X76.054 Y68.025 E21.0217
G1 X75.334 Y68.721 E21.06002
G1 X74.285 Y69.312 E21.1061
G1 X73.214 Y69.447 E21.14741
G1 X72.696 Y69.418 E21.16727
G1 X71.841 Y69.137 E21.20171
G1 X71.135 Y68.691 E21.23367
G1 X70.593 Y68.18 E21.26217
G1 X70.218 Y67.505 E21.29173
G1 X69.486 Y68.269 E21.33222
G1 X68.433 Y68.922 E21.37964
G1 X67.448 Y69.08 E21.41781
G1 X66.52 Y69.08 E21.45333
G1 X65.611 Y68.936 E21.48855
G1 X64.997 Y68.619 E21.51499
G1 X64.833 Y68.75 E21.52303
G1 X63.991 Y69.174 E21.55911
G1 X63.021 Y69.322 E21.59666
G1 X62.161 Y69.314 E21.62957
G1 X61.381 Y69.125 E21.66028
G1 X60.547 Y68.697 E21.69616
G1 X59.964 Y68.138 E21.72707
G1 X59.567 Y68.612 E21.75073
G1 X58.448 Y69.176 E21.79869
G1 X57.485 Y69.322 E21.83596
G1 X56.626 Y69.314 E21.86884
G1 X55.843 Y69.124 E21.89967
G1 X55.102 Y68.745 E21.93153
G1 X54.924 Y68.601 E21.94029
G1 X54.27 Y68.934 E21.96837
G1 X53.325 Y69.084 E22.00499
G1 X52.365 Y69.089 E22.04173
G1 X51.243 Y68.818 E22.0859
G1 X50.403 Y68.266 E22.12437
G1 X49.673 Y67.528 E22.1641
G1 X49.513 Y67.872 E22.17862
G1 X48.976 Y68.549 E22.21169
G1 X48.167 Y69.145 E22.25014
G1 X46.966 Y69.497 E22.29804
G1 X45.731 Y69.357 E22.3456
G1 X44.759 Y68.864 E22.38731
G1 X43.868 Y68.043 E22.43368
G1 X43.203 Y66.929 E22.48333
G1 X42.87 Y65.847 E22.52666
G1 X42.772 Y64.561 E22.57601
G1 X43.121 Y63.098 E22.63357
G1 X43.742 Y62.025 E22.68102
G1 X44.409 Y61.302 E22.71866
G1 X45.425 Y60.68 E22.76425
G1 X45.562 Y60.631 E22.76982
G1 X46.638 Y60.489 E22.81136
G1 X47.559 Y60.61 E22.84691
G1 X48.568 Y61.112 E22.89004
G1 X48.899 Y61.383 E22.90641
G1 X48.897 Y57.286 E23.0632
G1 X49.161 Y56.155 E23.10765
G1 X49.431 Y55.751 E23.12624
G0 F1620 X49.817 Y55.175
G0 F4320 X50.083 Y55.407
G1 F1800 X51.296 Y54.338 E23.18812
G1 X52.255 Y53.864 E23.22906
G1 X53.046 Y53.73 E23.25976
G1 X55.173 Y53.722 E23.34116
G1 X56.01 Y53.855 E23.37359
G1 X56.859 Y54.26 E23.40959
G1 X56.798 Y54.048 E23.41804
G1 X56.771 Y53.214 E23.44997
G1 X56.866 Y52.658 E23.47156
G1 X57.224 Y51.899 E23.50367
G1 X57.96 Y51.102 E23.54519
G1 X59.216 Y50.434 E23.59963
G1 X59.928 Y50.187 E23.62847
G1 X60.963 Y50.206 E23.66809
