; generated by PrusaSlicer 2.5.0+win64 on 2022-11-13 at 22:15:53 UTC


;
;

;
;
; 

; external perimeters extrusion width = 0.45mm
; perimeters extrusion width = 0.45mm
; infill extrusion width = 0.45mm
; solid infill extrusion width = 0.45mm
; top infill extrusion width = 0.40mm
; support material extrusion width = 0.35mm
; first layer extrusion width = 0.42mm

M73 P0 R34
M201 X2500 Y2500 Z400 E5000 ; sets maximum accelerations, mm/sec^2
M203 X180 Y180 Z12 E80 ; sets maximum feedrates, mm / sec
M204 P1250 R1250 T2500 ; sets acceleration (P, T) and retract acceleration (R), mm/sec^2
M205 X8.00 Y8.00 Z2.00 E10.00 ; sets the jerk limits, mm/sec
M205 S0 T0 ; sets the minimum extruding and travel feed rate, mm/sec
M107
;TYPE:Custom
M862.3 P "MINI" ; printer model check
G90 ; use absolute coordinates
M83 ; extruder relative mode
M104 S170 ; set extruder temp for bed leveling
M140 S60 ; set bed temp
M109 R170 ; wait for bed leveling temp
M190 S60 ; wait for bed temp
M204 T1250 ; set travel acceleration
G28 ; home all without mesh bed level
G29 ; mesh bed leveling 
M204 T2500 ; restore travel acceleration
M104 S215 ; set extruder temp
G92 E0
G1 Y-2 X179 F2400
G1 Z3 F720
M109 S215 ; wait for extruder temp

; intro line
G1 X170 F1000
G1 Z0.2 F720
G1 X110 E8 F900
G1 X40 E10 F700
G92 E0

M221 S95 ; set flow
G21 ; set units to millimeters
G90 ; use absolute coordinates
M83 ; use relative distances for extrusion
M900 K0.2 ; Filament gcode LA 1.5
; ; Filament gcode LA 1.0
M107
;LAYER_CHANGE
;Z:0.2
;HEIGHT:0.2
;BEFORE_LAYER_CHANGE
G92 E0.0
;0.2


G1 E-3.2 F4200
G1 Z.2 F720
;AFTER_LAYER_CHANGE
;0.2
G1 Z.4
G1 X86.161 Y76.274 F9000
G1 Z.2 F720
G1 E3.2 F2400
M204 P800
;TYPE:Skirt/Brim
;WIDTH:0.42
G1 F1200
G1 X91.148 Y70.641 E.23587
G1 X99.633 Y62.156 E.37625
G1 X100.834 Y61.509 E.04278
G1 X102.193 Y61.629 E.04278
G1 X102.995 Y62.156 E.03008
G1 X117.844 Y77.005 E.65844
G1 X118.491 Y78.207 E.04278
G1 X118.371 Y79.566 E.04278
G1 X117.844 Y80.367 E.03008
G1 X109.253 Y88.952 E.38079
G1 X78.494 Y116.175 E1.28791
G1 X77.256 Y116.748 E.04278
M73 P1 R34
G1 X75.906 Y116.546 E.04278
G1 X75.238 Y116.076 E.02563
G1 X63.924 Y104.762 E.50167
G1 X63.277 Y103.561 E.04278
G1 X63.396 Y102.202 E.04278
G1 X63.825 Y101.506 E.02563
G1 X86.122 Y76.319 E1.0547
M204 P1000
; printing object creeper v2.stl id:0 copy 0
G1 E-2.24 F4200
;WIPE_START
G1 F7200
G1 X87.212 Y75.087 E-.912
;WIPE_END
G1 E-.048 F4200
G1 Z.4 F720
G1 X98.039 Y78.113 F9000
G1 Z.2 F720
G1 E3.2 F2400
M204 P800
;TYPE:External perimeter
;WIDTH:0.419999
G1 F1200
G1 X101.887 Y81.961 E.17066
G1 X102.047 Y82.015 E.00529
G1 X102.154 Y81.961 E.00374
G1 X110.506 Y73.609 E.37034
G1 X115.583 Y78.686 E.22512
G1 X107.678 Y86.592 E.35054
G1 X103.922 Y82.836 E.16654
G1 X103.762 Y82.783 E.00529
G1 X103.655 Y82.836 E.00374
G1 X85.664 Y100.827 E.79774
G1 X85.61 Y100.94 E.00392
G1 X85.664 Y101.093 E.00511
G1 X87.652 Y103.081 E.08815
G1 X76.919 Y113.815 E.47596
G1 X66.185 Y103.081 E.47596
G1 X76.919 Y92.348 E.47596
G1 X78.907 Y94.336 E.08815
G1 X79.029 Y94.39 E.0042
G1 X79.173 Y94.336 E.00484
G1 X97.164 Y76.345 E.79774
G1 X97.217 Y76.238 E.00374
G1 X97.164 Y76.078 E.00529
G1 X93.408 Y72.322 E.16654
G1 X101.314 Y64.417 E.35054
G1 X106.391 Y69.494 E.22512
G1 X98.039 Y77.846 E.37034
G1 X97.985 Y77.953 E.00374
G1 X98.02 Y78.056 E.00341
M204 P1000
G1 E-2.24 F4200
;WIPE_START
G1 F7200
G1 X99.178 Y79.225 E-.912
;WIPE_END
G1 E-.048 F4200
G1 Z.4 F720
G1 X110.385 Y73.89 F9000
G1 Z.2 F720
G1 E3.2 F2400
M204 P800
;TYPE:Solid infill
;WIDTH:0.422419
G1 F1200
G1 X115.182 Y78.687 E.21408
G1 X114.914 Y78.956 E.01198
G1 X110.237 Y74.278 E.20872
G1 X109.969 Y74.547 E.01198
G1 X114.646 Y79.224 E.20872
G1 X114.377 Y79.492 E.01198
G1 X109.7 Y74.815 E.20872
G1 X109.432 Y75.083 E.01198
G1 X114.109 Y79.761 E.20872
G1 X113.841 Y80.029 E.01198
G1 X109.163 Y75.352 E.20872
G1 X108.895 Y75.62 E.01198
G1 X113.572 Y80.297 E.20872
G1 X113.304 Y80.566 E.01198
G1 X108.627 Y75.889 E.20872
G1 X108.358 Y76.157 E.01198
G1 X113.036 Y80.834 E.20872
G1 X112.767 Y81.102 E.01198
G1 X108.09 Y76.425 E.20872
G1 X107.822 Y76.694 E.01198
G1 X112.499 Y81.371 E.20872
G1 X112.23 Y81.639 E.01198
G1 X107.553 Y76.962 E.20872
G1 X107.285 Y77.23 E.01198
G1 X111.962 Y81.907 E.20872
G1 X111.694 Y82.176 E.01198
G1 X107.017 Y77.499 E.20872
G1 X106.748 Y77.767 E.01198
G1 X111.425 Y82.444 E.20872
G1 X111.157 Y82.712 E.01198
G1 X106.48 Y78.035 E.20872
G1 X106.212 Y78.304 E.01198
G1 X110.889 Y82.981 E.20872
G1 X110.62 Y83.249 E.01198
G1 X105.943 Y78.572 E.20872
G1 X105.675 Y78.84 E.01198
G1 X110.352 Y83.517 E.20872
G1 X110.084 Y83.786 E.01198
G1 X105.407 Y79.109 E.20872
G1 X105.138 Y79.377 E.01198
G1 X109.815 Y84.054 E.20872
G1 X109.547 Y84.322 E.01198
M73 P2 R34
G1 X104.87 Y79.645 E.20872
G1 X104.602 Y79.914 E.01198
G1 X109.279 Y84.591 E.20872
G1 X109.01 Y84.859 E.01198
G1 X104.333 Y80.182 E.20872
G1 X104.065 Y80.45 E.01198
G1 X108.742 Y85.127 E.20872
G1 X108.474 Y85.396 E.01198
G1 X103.797 Y80.719 E.20872
G1 X103.528 Y80.987 E.01198
G1 X108.205 Y85.664 E.20872
G1 X107.937 Y85.933 E.01198
G1 X103.26 Y81.255 E.20872
G1 X102.992 Y81.524 E.01198
G1 X104.061 Y82.593 E.04772
G1 X103.966 Y82.53 E.0036
G1 X103.719 Y82.499 E.00786
G1 X103.526 Y82.595 E.00679
G1 X102.723 Y81.792 E.03584
G1 X102.455 Y82.06 E.01198
G1 X103.363 Y82.968 E.04052
M204 P1000
G1 E-2.24 F4200
;WIPE_START
G1 F7200
G1 X102.455 Y82.06 E-.71161
G1 X102.711 Y81.805 E-.20039
;WIPE_END
G1 E-.048 F4200
G1 Z.4 F720
G1 X106.11 Y69.615 F9000
G1 Z.2 F720
G1 E3.2 F2400
M204 P800
G1 F1200
G1 X101.313 Y64.818 E.21408
G1 X101.044 Y65.086 E.01198
G1 X105.722 Y69.763 E.20872
G1 X105.453 Y70.031 E.01198
G1 X100.776 Y65.354 E.20872
G1 X100.508 Y65.623 E.01198
G1 X105.185 Y70.3 E.20872
G1 X104.917 Y70.568 E.01198
M73 P2 R33
G1 X100.239 Y65.891 E.20872
G1 X99.971 Y66.159 E.01198
G1 X104.648 Y70.837 E.20872
G1 X104.38 Y71.105 E.01198
G1 X99.703 Y66.428 E.20872
G1 X99.434 Y66.696 E.01198
G1 X104.111 Y71.373 E.20872
G1 X103.843 Y71.642 E.01198
G1 X99.166 Y66.964 E.20872
G1 X98.898 Y67.233 E.01198
G1 X103.575 Y71.91 E.20872
G1 X103.306 Y72.178 E.01198
G1 X98.629 Y67.501 E.20872
G1 X98.361 Y67.77 E.01198
G1 X103.038 Y72.447 E.20872
G1 X102.77 Y72.715 E.01198
G1 X98.093 Y68.038 E.20872
G1 X97.824 Y68.306 E.01198
G1 X102.501 Y72.983 E.20872
G1 X102.233 Y73.252 E.01198
G1 X97.556 Y68.575 E.20872
G1 X97.288 Y68.843 E.01198
G1 X101.965 Y73.52 E.20872
G1 X101.696 Y73.788 E.01198
G1 X97.019 Y69.111 E.20872
G1 X96.751 Y69.38 E.01198
G1 X101.428 Y74.057 E.20872
G1 X101.16 Y74.325 E.01198
G1 X96.483 Y69.648 E.20872
G1 X96.214 Y69.916 E.01198
G1 X100.891 Y74.593 E.20872
G1 X100.623 Y74.862 E.01198
G1 X95.946 Y70.185 E.20872
G1 X95.678 Y70.453 E.01198
G1 X100.355 Y75.13 E.20872
G1 X100.086 Y75.398 E.01198
G1 X95.409 Y70.721 E.20872
G1 X95.141 Y70.99 E.01198
G1 X99.818 Y75.667 E.20872
G1 X99.55 Y75.935 E.01198
G1 X94.873 Y71.258 E.20872
G1 X94.604 Y71.526 E.01198
G1 X99.281 Y76.203 E.20872
G1 X99.013 Y76.472 E.01198
G1 X94.336 Y71.795 E.20872
G1 X94.067 Y72.063 E.01198
G1 X98.745 Y76.74 E.20872
G1 X98.476 Y77.008 E.01198
G1 X97.407 Y75.939 E.04772
G1 X97.47 Y76.034 E.0036
G1 X97.501 Y76.281 E.00786
G1 X97.405 Y76.474 E.00679
G1 X98.208 Y77.277 E.03584
G1 X97.94 Y77.545 E.01198
G1 X97.152 Y76.757 E.03517
G1 X96.883 Y77.026 E.01198
G1 X97.722 Y77.864 E.03743
G1 X97.702 Y77.914 E.00168
G1 X97.733 Y78.157 E.00773
G1 X97.832 Y78.306 E.00566
G1 X101.694 Y82.168 E.17234
G1 X101.843 Y82.267 E.00566
G1 X102.091 Y82.298 E.00786
G1 X102.134 Y82.277 E.00153
G1 X102.974 Y83.117 E.0375
G1 X102.706 Y83.385 E.01198
G1 X96.615 Y77.294 E.27184
G1 X96.346 Y77.562 E.01198
G1 X102.438 Y83.654 E.27184
G1 X102.17 Y83.922 E.01198
G1 X96.078 Y77.83 E.27184
G1 X95.81 Y78.099 E.01198
G1 X101.901 Y84.19 E.27184
G1 X101.633 Y84.459 E.01198
G1 X95.541 Y78.367 E.27184
G1 X95.273 Y78.635 E.01198
G1 X101.365 Y84.727 E.27184
G1 X101.096 Y84.995 E.01198
G1 X95.005 Y78.904 E.27184
G1 X94.736 Y79.172 E.01198
G1 X100.828 Y85.264 E.27184
G1 X100.56 Y85.532 E.01198
G1 X94.468 Y79.44 E.27185
G1 X94.2 Y79.709 E.01198
G1 X100.291 Y85.8 E.27185
G1 X100.023 Y86.069 E.01198
G1 X93.931 Y79.977 E.27185
G1 X93.663 Y80.245 E.01198
G1 X99.755 Y86.337 E.27185
G1 X99.486 Y86.606 E.01198
G1 X93.394 Y80.514 E.27185
G1 X93.126 Y80.782 E.01198
G1 X99.218 Y86.874 E.27185
G1 X98.95 Y87.142 E.01198
G1 X92.858 Y81.05 E.27185
G1 X92.589 Y81.319 E.01198
M73 P3 R33
G1 X98.681 Y87.411 E.27186
G1 X98.413 Y87.679 E.01198
G1 X92.321 Y81.587 E.27186
G1 X92.053 Y81.855 E.01198
G1 X98.145 Y87.947 E.27186
G1 X97.876 Y88.216 E.01198
G1 X91.784 Y82.124 E.27186
G1 X91.516 Y82.392 E.01198
G1 X97.608 Y88.484 E.27186
G1 X97.34 Y88.752 E.01198
G1 X91.248 Y82.66 E.27186
G1 X90.979 Y82.929 E.01198
G1 X97.071 Y89.021 E.27186
G1 X96.803 Y89.289 E.01198
G1 X90.711 Y83.197 E.27186
G1 X90.442 Y83.465 E.01198
G1 X96.535 Y89.558 E.27187
G1 X96.266 Y89.826 E.01198
G1 X90.174 Y83.734 E.27187
G1 X89.906 Y84.002 E.01198
G1 X95.998 Y90.094 E.27187
G1 X95.73 Y90.363 E.01198
G1 X89.637 Y84.27 E.27187
G1 X89.369 Y84.539 E.01198
G1 X95.461 Y90.631 E.27187
G1 X95.193 Y90.899 E.01198
G1 X89.101 Y84.807 E.27187
G1 X88.832 Y85.075 E.01198
G1 X94.925 Y91.168 E.27187
G1 X94.656 Y91.436 E.01198
G1 X88.564 Y85.344 E.27188
G1 X88.296 Y85.612 E.01198
G1 X94.388 Y91.704 E.27188
G1 X94.12 Y91.973 E.01198
G1 X88.027 Y85.88 E.27188
G1 X87.759 Y86.149 E.01198
G1 X93.851 Y92.241 E.27188
G1 X93.583 Y92.51 E.01198
G1 X87.49 Y86.417 E.27188
G1 X87.222 Y86.685 E.01198
G1 X93.315 Y92.778 E.27188
G1 X93.046 Y93.046 E.01198
G1 X86.954 Y86.954 E.27188
G1 X86.685 Y87.222 E.01198
G1 X92.778 Y93.315 E.27189
G1 X92.51 Y93.583 E.01198
G1 X86.417 Y87.49 E.27189
G1 X86.149 Y87.759 E.01198
G1 X92.241 Y93.851 E.27189
G1 X91.973 Y94.12 E.01198
G1 X85.88 Y88.027 E.27189
G1 X85.612 Y88.295 E.01198
G1 X91.705 Y94.388 E.27189
G1 X91.436 Y94.656 E.01198
G1 X85.344 Y88.564 E.27189
G1 X85.075 Y88.832 E.01198
G1 X91.168 Y94.925 E.27189
G1 X90.9 Y95.193 E.01198
G1 X84.807 Y89.1 E.27189
G1 X84.539 Y89.369 E.01198
G1 X90.631 Y95.461 E.2719
G1 X90.363 Y95.73 E.01198
G1 X84.27 Y89.637 E.2719
G1 X84.002 Y89.905 E.01198
G1 X90.095 Y95.998 E.2719
G1 X89.826 Y96.267 E.01198
G1 X83.733 Y90.174 E.2719
G1 X83.465 Y90.442 E.01198
G1 X89.558 Y96.535 E.2719
G1 X89.29 Y96.803 E.01198
G1 X83.197 Y90.71 E.2719
G1 X82.928 Y90.979 E.01198
G1 X89.021 Y97.072 E.2719
G1 X88.753 Y97.34 E.01198
G1 X82.66 Y91.247 E.27191
G1 X82.392 Y91.515 E.01198
G1 X88.485 Y97.608 E.27191
G1 X88.216 Y97.877 E.01198
G1 X82.123 Y91.784 E.27191
G1 X81.855 Y92.052 E.01198
G1 X87.948 Y98.145 E.27191
G1 X87.68 Y98.413 E.01198
G1 X81.587 Y92.32 E.27191
G1 X81.318 Y92.589 E.01198
G1 X87.411 Y98.682 E.27191
G1 X87.143 Y98.95 E.01198
G1 X81.05 Y92.857 E.27191
G1 X80.781 Y93.125 E.01198
G1 X86.875 Y99.219 E.27191
G1 X86.606 Y99.487 E.01198
G1 X80.513 Y93.394 E.27192
G1 X80.245 Y93.662 E.01198
M73 P4 R33
G1 X86.338 Y99.755 E.27192
G1 X86.07 Y100.024 E.01198
G1 X79.976 Y93.93 E.27192
G1 X79.708 Y94.199 E.01198
G1 X85.801 Y100.292 E.27192
G1 X85.533 Y100.56 E.01198
G1 X79.44 Y94.467 E.27192
G1 X79.34 Y94.567 E.00445
G1 X79.195 Y94.649 E.00525
G1 X79.099 Y94.663 E.00308
G1 X85.337 Y100.901 E.27842
G1 X85.326 Y100.986 E.00269
G1 X85.359 Y101.136 E.00486
G1 X85.458 Y101.287 E.00568
G1 X87.252 Y103.081 E.0801
G1 X87.117 Y103.217 E.00606
G1 X76.783 Y92.883 E.46116
G1 X76.514 Y93.152 E.01198
G1 X86.848 Y103.486 E.46116
G1 X86.58 Y103.754 E.01198
G1 X76.246 Y93.42 E.46116
G1 X75.978 Y93.688 E.01198
G1 X86.312 Y104.022 E.46116
G1 X86.043 Y104.291 E.01198
G1 X75.709 Y93.957 E.46116
G1 X75.441 Y94.225 E.01198
G1 X85.775 Y104.559 E.46116
G1 X85.507 Y104.827 E.01198
G1 X75.173 Y94.493 E.46116
G1 X74.904 Y94.762 E.01198
G1 X85.238 Y105.096 E.46116
G1 X84.97 Y105.364 E.01198
G1 X74.636 Y95.03 E.46116
G1 X74.368 Y95.299 E.01198
G1 X84.701 Y105.632 E.46116
G1 X84.433 Y105.901 E.01198
G1 X74.099 Y95.567 E.46116
G1 X73.831 Y95.835 E.01198
G1 X84.165 Y106.169 E.46116
G1 X83.896 Y106.438 E.01198
G1 X73.562 Y96.104 E.46116
G1 X73.294 Y96.372 E.01198
G1 X83.628 Y106.706 E.46116
G1 X83.36 Y106.974 E.01198
G1 X73.026 Y96.64 E.46116
G1 X72.757 Y96.909 E.01198
G1 X83.091 Y107.243 E.46116
G1 X82.823 Y107.511 E.01198
G1 X72.489 Y97.177 E.46116
G1 X72.221 Y97.445 E.01198
G1 X82.555 Y107.779 E.46116
G1 X82.286 Y108.048 E.01198
G1 X71.952 Y97.714 E.46116
G1 X71.684 Y97.982 E.01198
G1 X82.018 Y108.316 E.46116
G1 X81.75 Y108.584 E.01198
G1 X71.416 Y98.25 E.46116
G1 X71.147 Y98.519 E.01198
G1 X81.481 Y108.853 E.46116
G1 X81.213 Y109.121 E.01198
G1 X70.879 Y98.787 E.46116
G1 X70.611 Y99.055 E.01198
G1 X80.945 Y109.389 E.46116
G1 X80.676 Y109.658 E.01198
M73 P5 R33
G1 X70.342 Y99.324 E.46116
G1 X70.074 Y99.592 E.01198
G1 X80.408 Y109.926 E.46116
G1 X80.14 Y110.194 E.01198
G1 X69.806 Y99.86 E.46116
G1 X69.537 Y100.129 E.01198
M73 P5 R32
G1 X79.871 Y110.463 E.46116
G1 X79.603 Y110.731 E.01198
G1 X69.269 Y100.397 E.46116
G1 X69.001 Y100.665 E.01198
G1 X79.335 Y110.999 E.46116
G1 X79.066 Y111.268 E.01198
G1 X68.732 Y100.934 E.46116
G1 X68.464 Y101.202 E.01198
G1 X78.798 Y111.536 E.46116
G1 X78.53 Y111.804 E.01198
G1 X68.196 Y101.47 E.46116
G1 X67.927 Y101.739 E.01198
G1 X78.261 Y112.073 E.46116
G1 X77.993 Y112.341 E.01198
G1 X67.659 Y102.007 E.46116
G1 X67.391 Y102.276 E.01198
G1 X77.724 Y112.609 E.46116
G1 X77.456 Y112.878 E.01198
G1 X67.122 Y102.544 E.46116
G1 X66.854 Y102.812 E.01198
G1 X77.188 Y113.146 E.46116
G1 X76.919 Y113.415 E.01198
G1 X66.465 Y102.961 E.46652
M204 P1000
; stop printing object creeper v2.stl id:0 copy 0
M106 S84.15
;LAYER_CHANGE
;Z:0.4
;HEIGHT:0.2
;BEFORE_LAYER_CHANGE
G92 E0.0
;0.4


G1 E-2.24 F4200
;WIPE_START
G1 F7200
G1 X67.629 Y104.124 E-.912
;WIPE_END
G1 E-.048 F4200
G1 Z.4 F720
;AFTER_LAYER_CHANGE
;0.4
M104 S210 ; set temperature
G1 Z.6
G1 X65.458 Y106.296 F9000
G1 Z.4 F720
G1 E3.2 F2400
;TYPE:Skirt/Brim
;WIDTH:0.42
G1 X63.924 Y104.762 E.068
G1 X63.277 Y103.561 E.04278
G1 X63.396 Y102.202 E.04278
G1 X63.825 Y101.506 E.02563
G1 X91.148 Y70.641 E1.29245
G1 X99.633 Y62.156 E.37625
G1 X100.834 Y61.509 E.04278
G1 X102.193 Y61.629 E.04278
G1 X102.995 Y62.156 E.03008
G1 X117.844 Y77.005 E.65844
G1 X118.491 Y78.207 E.04278
G1 X118.371 Y79.566 E.04278
G1 X117.844 Y80.367 E.03008
G1 X109.253 Y88.952 E.38079
G1 X78.494 Y116.175 E1.28791
G1 X77.256 Y116.748 E.04278
G1 X75.906 Y116.546 E.04278
G1 X75.238 Y116.076 E.02563
G1 X65.5 Y106.338 E.43179
; printing object creeper v2.stl id:0 copy 0
G1 E-2.24 F4200
;WIPE_START
G1 F7200
G1 X64.336 Y105.175 E-.912
;WIPE_END
G1 E-.048 F4200
G1 Z.6 F720
G1 X65.923 Y103.081 F9000
G1 Z.4 F720
G1 E3.2 F2400
M204 P800
;TYPE:External perimeter
;WIDTH:0.449999
G1 F1800
G1 X76.919 Y92.086 E.52635
G1 X78.896 Y94.063 E.09466
G1 X79.031 Y94.123 E.00498
G1 X79.184 Y94.063 E.00556
G1 X96.861 Y76.386 E.84622
G1 X96.949 Y76.24 E.00575
G1 X96.892 Y76.067 E.00616
G1 X93.147 Y72.322 E.17927
G1 X101.319 Y64.161 E.39095
G1 X106.652 Y69.494 E.2553
G1 X98.341 Y77.805 E.39784
G1 X98.253 Y77.95 E.00575
G1 X98.311 Y78.123 E.00616
G1 X101.877 Y81.689 E.1707
G1 X102.05 Y81.747 E.00616
G1 X102.165 Y81.689 E.00436
G1 X110.506 Y73.348 E.3993
G1 X115.845 Y78.686 E.25556
G1 X107.678 Y86.853 E.39095
G1 X103.933 Y83.108 E.17928
G1 X103.76 Y83.051 E.00616
G1 X103.645 Y83.108 E.00436
G1 X85.937 Y100.816 E.84767
G1 X85.877 Y100.954 E.00507
M73 P6 R32
G1 X85.937 Y101.104 E.00547
G1 X87.914 Y103.081 E.09466
G1 X76.919 Y114.077 E.52635
G1 X65.965 Y103.124 E.52432
M204 P1000
G1 E-2.24 F4200
;WIPE_START
G1 F7200
G1 X67.125 Y101.956 E-.912
;WIPE_END
G1 E-.048 F4200
G1 Z.6 F720
G1 X87.323 Y102.66 F9000
G1 Z.4 F720
G1 E3.2 F2400
;TYPE:Solid infill
;WIDTH:0.458149
G1 F4800
G1 X76.628 Y113.355 E.5222
G1 X76.334 Y113.061 E.01434
G1 X86.901 Y102.495 E.51594
G1 X86.609 Y102.2 E.01434
G1 X76.041 Y112.768 E.516
G1 X75.747 Y112.474 E.01434
G1 X86.316 Y101.905 E.51606
G1 X86.024 Y101.61 E.01434
G1 X75.454 Y112.18 E.51612
G1 X75.16 Y111.887 E.01434
G1 X85.861 Y101.186 E.5225
G1 E-2.24 F4200
;WIPE_START
G1 F7200
G1 X84.697 Y102.349 E-.912
;WIPE_END
G1 E-.048 F4200
G1 Z.6 F720
G1 X107.545 Y86.548 F9000
G1 Z.4 F720
G1 E3.2 F2400
G1 F4800
