;FLAVOR:Marlin
;TIME:1891
;Filament used: 0.824386m
;Layer height: 0.13125
;MINX:45.955
;MINY:46.107
;MINZ:0.263
;MAXX:74.043
;MAXY:73.883
;MAXZ:19.913
;TARGET_MACHINE.NAME:Monoprice Select Mini V2
;Generated with Cura_SteamEngine 5.7.2
M140 S65
M105
M190 S65
M104 S205
M105
M109 S205
M82 ;absolute extrusion mode
G21;(metric values)
G90;(absolute positioning)
M82;(set extruder to absolute mode)
M107;(start with the fan off)
G28;(Home the printer)
G92 E0;(Reset the extruder to 0)
G0 Z5 E5 F500;(Move up and prime the nozzle)
G0 X-1 Z0;(Move outside the printable area)
G1 Y60 E8 F500;(Draw a priming/wiping line to the rear)
G1 X-1;(Move a little closer to the print area)
G1 Y10 E16 F500;(draw more priming/wiping)
G1 E15 F250;(Small retract)
G92 E0;(Zero the extruder)
G92 E0
G92 E0
G1 F2400 E-2.5
;LAYER_COUNT:151
;LAYER:0
M107
G0 F4320 X47.881 Y47.229 Z0.263
;TYPE:SKIRT
G1 F2400 E0
G1 F1800 X49.535 Y46.31 E0.07241
G1 X50.645 Y46.135 E0.11542
G1 X68.849 Y46.107 E0.81208
G1 X70.341 Y46.309 E0.8697
G1 X71.845 Y47.024 E0.93343
G1 X73.052 Y48.307 E1.00085
G1 X73.82 Y49.839 E1.06643
G1 X74.016 Y51.061 E1.1138
G1 X74.043 Y68.84 E1.7942
G1 X73.576 Y70.364 E1.8552
G1 X72.799 Y71.725 E1.91517
G1 X71.48 Y72.917 E1.98321
G1 X70.33 Y73.462 E2.03191
G1 X69.001 Y73.867 E2.08508
G1 X51.101 Y73.883 E2.77012
G1 X49.554 Y73.469 E2.8314
G1 X48.254 Y72.713 E2.88895
G1 X47.193 Y71.682 E2.94557
G1 X46.315 Y70.193 E3.01172
G1 X45.955 Y68.491 E3.0783
G1 X46.002 Y50.808 E3.75503
G1 X46.418 Y49.27 E3.81601
G1 X46.931 Y48.399 E3.85469
G1 X47.444 Y47.767 E3.88584
G0 F1620 X47.881 Y47.229
G0 F4320 X48.109 Y47.503
G1 F1800 X49.65 Y46.646 E3.95332
G1 X50.699 Y46.481 E3.99396
G1 X68.849 Y46.457 E4.68856
G1 X70.242 Y46.649 E4.74238
G1 X71.634 Y47.311 E4.80136
G1 X72.762 Y48.51 E4.86436
G1 X73.482 Y49.947 E4.92588
G1 X73.67 Y51.117 E4.97123
G1 X73.693 Y68.786 E5.64742
G1 X73.252 Y70.225 E5.70502
G1 X72.523 Y71.502 E5.76129
G1 X71.283 Y72.623 E5.82526
G1 X70.228 Y73.127 E5.87001
G1 X68.948 Y73.517 E5.92122
G1 X51.146 Y73.533 E6.6025
G1 X49.692 Y73.144 E6.6601
G1 X48.466 Y72.431 E6.71438
G1 X47.47 Y71.463 E6.76753
G1 X46.645 Y70.064 E6.82968
G1 X46.305 Y68.457 E6.89255
G1 X46.352 Y50.855 E7.56618
G1 X46.743 Y49.409 E7.6235
G1 X47.233 Y48.577 E7.66045
G1 X47.671 Y48.04 E7.68697
G0 F1620 X48.109 Y47.503
G0 F4320 X48.338 Y47.776
G1 F1800 X49.765 Y46.983 E7.74945
G1 X50.754 Y46.827 E7.78777
G1 X68.849 Y46.807 E8.48026
G1 X70.143 Y46.989 E8.53027
G1 X71.423 Y47.598 E8.58452
G1 X72.472 Y48.713 E8.64311
G1 X73.144 Y50.055 E8.70054
G1 X73.324 Y51.173 E8.74388
G1 X73.343 Y68.732 E9.41586
G1 X72.928 Y70.086 E9.47006
G1 X72.247 Y71.279 E9.52263
G1 X71.084 Y72.33 E9.58262
G1 X70.126 Y72.792 E9.62332
G1 X68.895 Y73.167 E9.67257
G1 X51.191 Y73.183 E10.3501
G1 X49.83 Y72.819 E10.40402
G1 X48.678 Y72.149 E10.45502
G1 X47.749 Y71.246 E10.5046
G1 X46.975 Y69.933 E10.56293
G1 X46.655 Y68.422 E10.62204
G1 X46.702 Y50.902 E11.29253
G1 X47.068 Y49.548 E11.34621
G1 X47.535 Y48.755 E11.38143
G1 X47.898 Y48.312 E11.40334
G0 F1620 X48.338 Y47.776
G0 F4320 X48.567 Y48.049
G1 F1800 X49.88 Y47.319 E11.46084
G1 X50.808 Y47.173 E11.49679
G1 X68.849 Y47.157 E12.18722
G1 X70.04 Y47.327 E12.23326
G1 X71.212 Y47.885 E12.28293
G1 X72.182 Y48.916 E12.33711
G1 X72.807 Y50.163 E12.39049
G1 X72.978 Y51.228 E12.43177
G1 X72.993 Y68.678 E13.09958
G1 X72.604 Y69.947 E13.15037
G1 X71.971 Y71.056 E13.19924
G1 X70.886 Y72.037 E13.25522
G1 X70.024 Y72.457 E13.29192
G1 X68.842 Y72.817 E13.3392
G1 X51.237 Y72.833 E14.01295
G1 X49.967 Y72.493 E14.06326
G1 X48.89 Y71.867 E14.11093
G1 X48.028 Y71.029 E14.15694
G1 X47.304 Y69.801 E14.2115
G1 X47.005 Y68.388 E14.26677
G1 X47.052 Y50.949 E14.93416
G1 X47.394 Y49.683 E14.98435
G1 X47.806 Y48.977 E15.01563
G1 X48.127 Y48.585 E15.03502
G0 F1620 X48.567 Y48.049
G0 F4320 X48.796 Y48.322
G1 F1800 X49.995 Y47.656 E15.08751
G1 X50.863 Y47.519 E15.12114
G1 X68.849 Y47.507 E15.80946
G1 X69.938 Y47.666 E15.85158
G1 X71.001 Y48.172 E15.89664
G1 X71.892 Y49.119 E15.9464
G1 X72.469 Y50.271 E15.99571
G1 X72.632 Y51.284 E16.03497
G1 X72.643 Y68.625 E16.69861
G1 X72.281 Y69.807 E16.74592
G1 X71.695 Y70.833 E16.79114
G1 X70.687 Y71.744 E16.84313
G1 X69.871 Y72.142 E16.87788
G1 X68.79 Y72.467 E16.92108
G1 X51.282 Y72.483 E17.59111
G1 X50.105 Y72.168 E17.63774
G1 X49.102 Y71.585 E17.68214
G1 X48.305 Y70.81 E17.72468
G1 X47.634 Y69.672 E17.77524
G1 X47.355 Y68.354 E17.8268
G1 X47.402 Y50.996 E18.49109
G1 X47.72 Y49.819 E18.53775
G1 X48.077 Y49.199 E18.56513
G1 X48.356 Y48.858 E18.58199
G0 F1620 X48.796 Y48.322
G0 F4320 X49.025 Y48.595
G1 F1800 X50.11 Y47.992 E18.62949
G1 X50.917 Y47.865 E18.66076
G1 X68.849 Y47.857 E19.34701
G1 X69.836 Y48.005 E19.38521
G1 X70.79 Y48.459 E19.42564
G1 X71.602 Y49.322 E19.47099
G1 X72.132 Y50.379 E19.51624
G1 X72.286 Y51.339 E19.55345
G1 X72.293 Y68.571 E20.21292
G1 X71.957 Y69.668 E20.25682
G1 X71.419 Y70.61 E20.29834
G1 X70.488 Y71.451 E20.34635
G1 X69.77 Y71.807 E20.37702
G1 X68.739 Y72.117 E20.41822
G1 X51.327 Y72.133 E21.08458
G1 X50.243 Y71.843 E21.12752
G1 X49.314 Y71.303 E21.16865
G1 X48.584 Y70.593 E21.20762
G1 X47.964 Y69.541 E21.25435
G1 X47.705 Y68.319 E21.30216
G1 X47.752 Y51.043 E21.96331
G1 X48.046 Y49.955 E22.00644
G1 X48.348 Y49.421 E22.02992
G1 X48.586 Y49.131 E22.04428
G0 F1620 X49.025 Y48.595
G0 F4320 X49.254 Y48.868
G1 F1800 X50.225 Y48.328 E22.0868
G1 X50.971 Y48.211 E22.11569
G1 X68.849 Y48.207 E22.79988
G1 X69.734 Y48.344 E22.83416
G1 X70.579 Y48.746 E22.86997
G1 X71.312 Y49.525 E22.9109
G1 X71.794 Y50.487 E22.95208
G1 X71.94 Y51.395 E22.98728
G1 X71.943 Y68.517 E23.64253
G1 X71.633 Y69.529 E23.68304
G1 X71.143 Y70.387 E23.72085
G1 X70.287 Y71.16 E23.76499
G1 X69.669 Y71.472 E23.79149
G1 X68.688 Y71.767 E23.83069
G1 X51.372 Y71.783 E24.49337
G1 X50.381 Y71.518 E24.53263
G1 X49.526 Y71.021 E24.57048
G1 X48.863 Y70.376 E24.60588
G1 X48.294 Y69.41 E24.64878
G1 X48.055 Y68.284 E24.69283
G1 X48.102 Y51.09 E25.35085
G1 X48.372 Y50.089 E25.39053
G1 X48.619 Y49.643 E25.41004
G1 X48.815 Y49.404 E25.42187
G0 F1620 X49.254 Y48.868
G0 F4320 X49.483 Y49.141
G1 F1800 X50.34 Y48.664 E25.4594
G1 X51.025 Y48.557 E25.48594
G1 X68.849 Y48.557 E26.16806
G1 X69.63 Y48.682 E26.19833
G1 X70.369 Y49.034 E26.22965
G1 X71.022 Y49.728 E26.26612
G1 X71.457 Y50.597 E26.30331
G1 X71.59 Y51.395 E26.33427
G1 X71.593 Y68.463 E26.98746
G1 X71.309 Y69.39 E27.02457
G1 X70.867 Y70.164 E27.05868
G1 X70.086 Y70.869 E27.09894
G1 X69.568 Y71.137 E27.12126
G1 X68.637 Y71.417 E27.15847
G1 X51.418 Y71.433 E27.81744
G1 X50.518 Y71.192 E27.8531
G1 X49.738 Y70.739 E27.88762
G1 X49.14 Y70.157 E27.91955
G1 X48.624 Y69.282 E27.95843
G1 X48.405 Y68.249 E27.99884
G1 X48.452 Y51.137 E28.65372
G1 X48.699 Y50.222 E28.68999
G1 X48.89 Y49.865 E28.70548
G1 X49.044 Y49.677 E28.71478
G0 F1620 X49.483 Y49.141
G0 F4320 X49.712 Y49.414
G1 F1800 X50.457 Y49 E28.7474
G1 X51.025 Y48.907 E28.76943
G1 X68.849 Y48.907 E29.45155
G1 X69.523 Y49.019 E29.4777
G1 X70.159 Y49.322 E29.50466
G1 X70.732 Y49.931 E29.53666
G1 X71.12 Y50.707 E29.56986
G1 X71.24 Y51.395 E29.59659
G1 X71.243 Y68.409 E30.24771
G1 X70.985 Y69.251 E30.28141
G1 X70.59 Y69.943 E30.31191
G1 X69.886 Y70.578 E30.34819
G1 X69.407 Y70.826 E30.36883
G1 X68.585 Y71.067 E30.40162
G1 X51.463 Y71.083 E31.05687
G1 X50.656 Y70.867 E31.08884
G1 X49.95 Y70.457 E31.12009
G1 X49.419 Y69.94 E31.14845
G1 X48.954 Y69.151 E31.1835
G1 X48.755 Y68.214 E31.22016
G1 X48.802 Y51.184 E31.8719
G1 X49.027 Y50.349 E31.90499
G1 X49.161 Y50.087 E31.91626
G1 X49.273 Y49.95 E31.92303
G0 F1620 X49.712 Y49.414
G0 F4320 X49.941 Y49.687
G1 F1800 X50.573 Y49.336 E31.95069
G1 X51.025 Y49.257 E31.96825
G1 X68.849 Y49.257 E32.65038
G1 X69.417 Y49.356 E32.67244
G1 X69.949 Y49.61 E32.695
G1 X70.443 Y50.135 E32.72259
G1 X70.784 Y50.818 E32.75181
G1 X70.89 Y51.395 E32.77426
G1 X70.893 Y68.356 E33.42335
G1 X70.662 Y69.111 E33.45357
G1 X70.313 Y69.722 E33.4805
G1 X69.684 Y70.289 E33.51291
G1 X69.309 Y70.49 E33.52919
G1 X68.535 Y70.717 E33.56006
G1 X51.508 Y70.733 E34.21168
G1 X50.794 Y70.542 E34.23997
G1 X50.162 Y70.175 E34.26794
G1 X49.698 Y69.723 E34.29273
G1 X49.284 Y69.02 E34.32395
G1 X49.105 Y68.179 E34.35685
G1 X49.152 Y51.231 E35.00546
G1 X49.365 Y50.44 E35.03681
G1 X49.432 Y50.309 E35.04244
G1 X49.502 Y50.223 E35.04668
G0 F1620 X49.941 Y49.687
G0 F4320 X50.17 Y49.96
G1 F1800 X50.691 Y49.671 E35.06948
G1 X51.025 Y49.607 E35.0825
G1 X68.849 Y49.607 E35.76462
G1 X69.308 Y49.692 E35.78248
G1 X69.739 Y49.898 E35.80077
G1 X70.154 Y50.339 E35.82394
G1 X70.449 Y50.931 E35.84925
G1 X70.54 Y51.395 E35.86735
G1 X70.543 Y68.302 E36.51438
G1 X70.337 Y68.974 E36.54128
G1 X70.037 Y69.5 E36.56445
G1 X69.48 Y70.002 E36.59315
G1 X69.21 Y70.154 E36.605
G1 X68.484 Y70.367 E36.63396
G1 X51.553 Y70.383 E37.28191
G1 X50.932 Y70.217 E37.30651
G1 X50.374 Y69.893 E37.3312
G1 X49.975 Y69.504 E37.35253
G1 X49.614 Y68.892 E37.37972
G1 X49.455 Y68.144 E37.40899
G1 X49.502 Y51.278 E38.05445
G1 X49.703 Y50.531 E38.08405
G1 X49.731 Y50.496 E38.08577
G0 F1620 X50.17 Y49.96
G0 F4320 X50.398 Y50.233
G1 F1800 X50.764 Y50.013 E38.10211
G1 X51.025 Y49.957 E38.11233
G1 X68.849 Y49.957 E38.79445
G1 X69.24 Y50.035 E38.80971
G1 X69.579 Y50.209 E38.82429
G1 X69.841 Y50.495 E38.83914
G1 X70.136 Y51.087 E38.86445
G1 X70.194 Y51.45 E38.87852
G1 X70.193 Y68.248 E39.52137
G1 X70.002 Y68.871 E39.54631
G1 X69.76 Y69.279 E39.56447
G1 X69.246 Y69.742 E39.59094
G1 X69.111 Y69.818 E39.59687
G1 X68.433 Y70.017 E39.62391
G1 X51.598 Y70.033 E40.26819
G1 X51.07 Y69.892 E40.2891
G1 X50.583 Y69.609 E40.31066
G1 X50.277 Y69.326 E40.32661
G1 X49.944 Y68.761 E40.35171
G1 X49.805 Y68.109 E40.37722
G1 X49.852 Y51.325 E41.01954
G1 X49.997 Y50.789 E41.04079
G0 F1620 X50.022 Y50.694
G0 X50.398 Y50.233
G0 F4320 X50.591 Y50.525
G1 F1800 X50.853 Y50.352 E41.05281
G1 X51.025 Y50.307 E41.05961
G1 X68.849 Y50.307 E41.74174
G1 X69.164 Y50.377 E41.75409
G1 X69.407 Y50.514 E41.76476
G1 X69.528 Y50.651 E41.77176
G1 X69.798 Y51.193 E41.79493
G1 X69.844 Y51.45 E41.80492
G1 X69.843 Y68.194 E42.44571
G1 X69.667 Y68.768 E42.46869
G1 X69.526 Y69.019 E42.47971
G1 X69.012 Y69.482 E42.50618
G1 X68.382 Y69.667 E42.53131
G1 X51.598 Y69.683 E43.17363
G1 X51.246 Y69.589 E43.18758
G1 X50.759 Y69.306 E43.20913
G1 X50.579 Y69.148 E43.2183
G1 X50.274 Y68.63 E43.2413
G1 X50.155 Y68.074 E43.26306
G1 X50.202 Y51.326 E43.90401
G1 X50.262 Y51.123 E43.91211
G0 F1620 X50.341 Y50.856
G0 X50.591 Y50.525
G0 F4320 X51.097 Y51.007
G1 F1800 X68.849 Y51.007 E44.59148
G1 X68.959 Y51.046 E44.59595
G1 X69.144 Y51.45 E44.61295
G1 X69.143 Y68.14 E45.25168
G1 X69.001 Y68.551 E45.26832
G1 X68.714 Y68.841 E45.28393
G1 X68.382 Y68.967 E45.29752
G1 X51.598 Y68.983 E45.93985
G1 X51.111 Y68.7 E45.9614
G1 X50.954 Y68.464 E45.97225
G1 X50.855 Y68.076 E45.98757
G1 X50.902 Y51.638 E46.61666
G0 F1620 X50.902 Y51.328
G0 X50.996 Y51.102
G0 X51.097 Y51.007
G0 F4320 X50.857 Y50.752
G1 F1800 X51.025 Y50.657 E46.62404
G1 X68.849 Y50.657 E47.30617
G1 X69.076 Y50.716 E47.31514
G1 X69.215 Y50.807 E47.3215
G1 X69.462 Y51.304 E47.34274
G1 X69.494 Y51.45 E47.34846
G1 X69.493 Y68.14 E47.98719
G1 X69.332 Y68.665 E48.0082
G1 X69.25 Y68.797 E48.01415
G1 X68.838 Y69.168 E48.03537
G1 X68.382 Y69.317 E48.05372
G1 X51.598 Y69.333 E48.69605
G1 X51.422 Y69.286 E48.70302
G1 X50.935 Y69.003 E48.72458
G1 X50.82 Y68.894 E48.73064
G1 X50.615 Y68.551 E48.74593
G1 X50.505 Y68.075 E48.76463
G1 X50.552 Y51.358 E49.40439
G0 F1620 X50.552 Y51.327
G0 X50.673 Y50.968
G0 X50.857 Y50.752
G1 F2400 E46.90439
;MESH:frog_keycap.stl
G0 F4320 X51.465 Y51.571
G0 X52.461 Y51.802
;TYPE:WALL-INNER
G1 F2400 E49.40439
G1 F1164.5 X67.428 Y51.798 E50.28975
G0 F4320 X68.106 Y67.869
G1 F1712 X68.038 Y67.908 E50.29291
G1 X68.107 Y67.947 E50.2961
G1 X68.126 Y67.915 E50.29759
G0 F1620 X68.13 Y67.908
G0 F4320 X51.964 Y67.92
G1 F1675.5 X51.94 Y67.96 E50.29951
G1 X51.87 Y67.92 E50.30283
G1 X51.931 Y67.885 E50.30572
G0 F1620 X51.94 Y67.88
G0 F4320 X52.183 Y67.674
G1 F1627.9 X52.013 Y67.411 E50.31897
G1 F1500 X52.014 Y62.413 E50.5485
G1 F1532.8 X52.016 Y57.415 E50.77311
G1 F1567.2 X52.018 Y52.417 E50.9928
G1 F1472 X52.077 Y52.109 E51.00747
G1 F1255 X52.461 Y51.802 E51.03446
G1 F1202.3 X51.654 Y51.742 E51.08082
G1 F1400 X51.622 Y52.416 E51.11403
G1 F1567.2 X51.613 Y57.426 E51.33424
G1 F1532.8 X51.603 Y62.436 E51.55939
G1 F1500 X51.593 Y67.446 E51.78947
G1 F1627.9 X51.553 Y67.998 E51.81289
G1 F1800 X51.616 Y68.202 E51.82106
G1 F1745.2 X51.757 Y68.289 E51.8276
G1 F1640.6 X52.568 Y68.26 E51.86168
G1 F1594.9 X67.557 Y68.246 E52.50906
G1 F1693.5 X68.269 Y68.267 E52.53803
G1 F1800 X68.404 Y68.162 E52.54458
G1 X68.443 Y68.037 E52.54959
G1 F1627.9 X68.406 Y67.45 E52.57448
G1 F1492.9 X68.408 Y52.416 E53.26818
G1 F1363.6 X68.381 Y51.757 E53.3015
G1 F1211.5 X67.428 Y51.798 E53.35574
G1 F1247.5 X67.937 Y52.123 E53.38908
G1 F1409.4 X67.988 Y52.416 E53.40362
G1 F1492.9 X67.983 Y67.414 E54.09567
G1 F1627.9 X67.818 Y67.668 E54.10848
G1 F1693.5 X67.523 Y67.855 E54.12269
G1 F1594.9 X52.568 Y67.864 E54.7686
G1 F1689 X52.183 Y67.674 E54.78611
G0 F4320 X52.094 Y67.674
G0 X51.228 Y68.041
;TYPE:WALL-OUTER
G1 F1800 X51.308 Y68.331 E54.79763
G1 X51.391 Y68.446 E54.80305
G1 X51.716 Y68.608 E54.81695
G1 X68.337 Y68.592 E55.45304
G1 X68.526 Y68.509 E55.46094
G1 X68.693 Y68.329 E55.47033
G1 X68.768 Y68.086 E55.48007
G1 X68.768 Y51.493 E56.11508
G1 X68.716 Y51.38 E56.11984
G1 X51.275 Y51.38 E56.78731
G1 X51.229 Y67.347 E57.39836
G0 F1620 X51.228 Y68.041
G0 F4320 X51.281 Y68.233
G0 X51.545 Y68.162
G0 X67.463 Y67.793
G0 X67.463 Y67.514
M104 S200
G1 F1800 X52.568 Y67.516 E57.96839
G1 X52.421 Y67.453 E57.97452
G1 X52.37 Y67.35 E57.97891
G1 X52.368 Y52.416 E58.55044
G1 X52.398 Y52.31 E58.55465
G1 X52.533 Y52.218 E58.56091
G1 X67.428 Y52.216 E59.13094
G1 X67.628 Y52.331 E59.13977
G1 X67.626 Y66.898 E59.69724
G0 F1620 X67.626 Y67.351
G0 X67.577 Y67.45
G0 X67.463 Y67.514
G0 F4320 X67.263 Y67.514
;MESH:NONMESH
G0 F90 X67.263 Y67.514 Z0.394
G0 F4320 X67.263 Y67.793
G0 X52.166 Y67.721
G0 X52.166 Y52.013
G0 X52.5 Y51.83
;TIME_ELAPSED:81.649114
;LAYER:1
M140 S60
M106 S255
;TYPE:WALL-INNER
;MESH:frog_keycap.stl
G1 F1404.7 X67.384 Y51.826 E60.182
G0 F5760 X68.059 Y67.872
G1 F2295.1 X67.992 Y67.91 E60.18354
G1 X68.059 Y67.948 E60.18507
G1 X68.078 Y67.916 E60.18582
G0 F2160 X68.082 Y67.91
G0 F5760 X52.009 Y67.921
G1 F2246 X51.986 Y67.96 E60.18674
G1 X51.917 Y67.921 E60.18835
G1 X51.976 Y67.887 E60.18974
G0 F2160 X51.985 Y67.882
G0 F5760 X67.789 Y67.721
G0 X67.773 Y67.67
G1 F2258.1 X67.479 Y67.855 E60.19678
G1 F2126.6 X52.612 Y67.864 E60.51661
G1 F2252 X52.227 Y67.675 E60.52532
G1 F2176.2 X52.058 Y67.412 E60.5319
G1 F2019.2 X52.061 Y59.942 E60.70114
G1 F2084.4 X52.064 Y52.472 E60.8651
G1 F1935.5 X52.132 Y52.136 E60.8732
G1 F1564.2 X52.5 Y51.83 E60.8872
G1 X51.939 Y51.765 E60.90372
G1 F1783.4 X51.704 Y51.765 E60.90975
G1 F1935.5 X51.666 Y52.472 E60.92648
G1 F2084.4 X51.653 Y59.96 E61.09083
G1 F2019.2 X51.639 Y67.448 E61.26049
G1 F2176.2 X51.601 Y68.01 E61.27233
G1 F2400 X51.662 Y68.203 E61.27619
G1 X51.803 Y68.283 E61.27928
G1 F2252 X52.612 Y68.26 E61.29572
G1 F2126.6 X67.513 Y68.246 E61.61629
G1 F2193.2 X68.204 Y68.275 E61.63071
G1 F2326.9 X68.357 Y68.166 E61.63441
G1 F2400 X68.395 Y68.042 E61.63688
G1 F2176.2 X68.359 Y67.449 E61.64937
G1 F2000 X68.364 Y52.472 E61.99196
G1 F1753.7 X68.329 Y51.756 E62.01066
G1 F1486.7 X67.384 Y51.826 E62.03982
G1 F1558.4 X67.883 Y52.149 E62.05727
G1 F1858.4 X67.944 Y52.472 E62.06537
G1 F2000 X67.94 Y67.413 E62.40714
G1 F2176.2 X67.773 Y67.67 E62.41358
G0 F5760 X67.419 Y67.514
;TYPE:WALL-OUTER
