;FLAVOR:Marlin
;TIME:4181
;Filament used: 2.23776m
;Layer height: 0.13125
;MINX:45.582
;MINY:46.953
;MINZ:0.263
;MAXX:102.819
;MAXY:71.204
;MAXZ:27.904
;TARGET_MACHINE.NAME:Monoprice Select Mini V2
;Generated with Cura_SteamEngine 5.7.2
M140 S65
M105
M190 S65
M104 S205
M105
M109 S205
M82 ;absolute extrusion mode
G21;(metric values)
G90;(absolute positioning)
M82;(set extruder to absolute mode)
M107;(start with the fan off)
G28;(Home the printer)
G92 E0;(Reset the extruder to 0)
G0 Z5 E5 F500;(Move up and prime the nozzle)
G0 X-1 Z0;(Move outside the printable area)
G1 Y60 E8 F500;(Draw a priming/wiping line to the rear)
G1 X-1;(Move a little closer to the print area)
G1 Y10 E16 F500;(draw more priming/wiping)
G1 E15 F250;(Small retract)
G92 E0;(Zero the extruder)
G92 E0
G92 E0
G1 F2400 E-2.5
;LAYER_COUNT:212
;LAYER:0
M107
G0 F4320 X48.513 Y51.71 Z0.263
;TYPE:SKIRT
G1 F2400 E0
G1 F1800 X49.541 Y50.796 E0.05264
G1 X50.895 Y49.95 E0.11374
G1 X52.002 Y49.484 E0.15971
G1 X54.028 Y48.932 E0.24007
G1 X55.136 Y48.876 E0.28253
G1 X56.217 Y49.084 E0.32466
G1 X56.452 Y49.159 E0.3341
G1 X57.042 Y49.215 E0.35678
G1 X58.252 Y49.501 E0.40436
G1 X59.073 Y49.792 E0.43769
G1 X60.129 Y50.227 E0.4814
G1 X60.788 Y50.741 E0.51339
G1 X61.267 Y50.894 E0.53263
G1 X62.397 Y51.477 E0.58129
G1 X63.46 Y49.741 E0.65919
G1 X64.842 Y48.642 E0.72677
G1 X66.064 Y47.952 E0.78047
G1 X67.466 Y47.413 E0.83796
G1 X68.784 Y47.11 E0.88971
G1 X70.583 Y46.954 E0.95882
G1 X72.386 Y47.408 E1.02997
G1 X73.841 Y48.223 E1.0938
G1 X74.293 Y47.87 E1.11574
G1 X75.567 Y47.286 E1.16938
G1 X77.171 Y46.953 E1.23207
G1 X79.227 Y47.178 E1.31122
G1 X80.319 Y47.465 E1.35443
G1 X82.048 Y48.198 E1.4263
G1 X83.047 Y48.829 E1.47152
G1 X84.08 Y49.715 E1.52361
G1 X84.942 Y50.957 E1.58146
G1 X85.358 Y52.062 E1.62665
G1 X85.659 Y52.072 E1.63817
G1 X86.333 Y51.525 E1.67139
G1 X86.875 Y51.251 E1.69464
G1 X87.089 Y51.091 E1.70486
G1 X87.637 Y50.735 E1.72987
G1 X88.122 Y50.459 E1.75123
G1 X88.715 Y50.052 E1.77875
G1 X89.683 Y49.627 E1.81921
G1 X90.26 Y49.514 E1.84171
G1 X91.245 Y49.179 E1.88153
G1 X92.097 Y49.014 E1.91474
G1 X92.685 Y49.042 E1.93727
G1 X93.294 Y48.959 E1.96079
G1 X95.083 Y49.102 E2.02947
G1 X96.849 Y49.622 E2.09993
G1 X98.768 Y50.796 E2.18602
G1 X99.422 Y51.352 E2.21887
G1 X100.87 Y53.077 E2.30506
G1 X101.351 Y53.893 E2.34131
G1 X101.909 Y55.141 E2.39363
G1 X102.366 Y56.607 E2.4524
G1 X102.524 Y57.605 E2.49106
G1 X102.485 Y58.162 E2.51243
G1 X102.642 Y58.722 E2.53469
G1 X102.676 Y59.324 E2.55777
G1 X102.763 Y59.841 E2.57783
G1 X102.819 Y61.065 E2.62472
G1 X102.174 Y63.535 E2.72242
G1 X101.465 Y65.181 E2.79101
G1 X100.526 Y66.671 E2.85841
G1 X99.82 Y67.488 E2.89973
G1 X98.536 Y68.6 E2.96473
G1 X97.361 Y69.363 E3.01835
G1 X96.064 Y69.843 E3.07128
G1 X95.328 Y70.154 E3.10185
G1 X94.033 Y70.397 E3.15228
G1 X93.196 Y70.354 E3.18435
G1 X92.8 Y70.401 E3.19961
G1 X91.735 Y70.344 E3.24043
G1 X91.252 Y70.244 E3.25931
G1 X90.612 Y70.201 E3.28385
G1 X89.702 Y69.92 E3.3203
G1 X89.188 Y69.714 E3.34149
G1 X88.352 Y69.453 E3.37501
G1 X87.516 Y68.989 E3.4116
G1 X86.858 Y68.735 E3.4386
G1 X85.869 Y68.152 E3.48253
G1 X84.981 Y68.831 E3.52531
G1 X83.139 Y69.382 E3.59889
G1 X82.996 Y69.394 E3.60438
G1 X81.527 Y69.21 E3.66104
G1 X80.629 Y68.942 E3.6969
G1 X80.227 Y69.433 E3.72119
G1 X78.801 Y70.469 E3.78864
G1 X77.151 Y71.044 E3.85551
G1 X75.253 Y71.204 E3.92841
G1 X73.4 Y71.105 E3.99942
G1 X71.891 Y70.801 E4.05833
G1 X70.85 Y70.42 E4.10076
G1 X70.373 Y70.107 E4.12259
G1 X70.072 Y70.061 E4.13424
G1 X68.715 Y69.676 E4.18823
G1 X67.311 Y68.682 E4.25406
G1 X67.131 Y68.503 E4.26377
G1 X65.943 Y68.926 E4.31203
G1 X64.779 Y69.149 E4.35739
G1 X62.923 Y68.802 E4.42965
G1 X62.04 Y68.299 E4.46854
G1 X61.612 Y68.601 E4.48859
G1 X60.698 Y69.062 E4.52776
G1 X60.386 Y69.179 E4.54052
G1 X59.559 Y69.637 E4.57669
G1 X58.431 Y69.958 E4.62158
G1 X57.517 Y70.271 E4.65855
G1 X56.8 Y70.385 E4.68633
G1 X55.957 Y70.388 E4.7186
G1 X55.607 Y70.334 E4.73215
G1 X55.016 Y70.36 E4.75479
G1 X54.475 Y70.255 E4.77588
G1 X54.347 Y70.261 E4.78078
G1 X53.108 Y70.184 E4.82829
G1 X51.175 Y69.465 E4.90722
G1 X50.152 Y68.9 E4.95194
G1 X48.715 Y67.797 E5.02127
G1 X47.608 Y66.494 E5.0867
G1 X46.674 Y64.943 E5.15599
G1 X46.19 Y63.798 E5.20356
G1 X45.802 Y62.484 E5.256
G1 X45.677 Y61.476 E5.29487
G1 X45.695 Y61.071 E5.31038
G1 X45.582 Y60.032 E5.35038
G1 X45.605 Y59.261 E5.3799
G1 X45.695 Y57.84 E5.43439
G1 X45.831 Y56.593 E5.48239
G1 X46.139 Y55.745 E5.51692
G1 X46.329 Y55.058 E5.5442
G1 X46.874 Y54.02 E5.58907
G1 X47.832 Y52.498 E5.65789
G1 X48.059 Y52.235 E5.67119
G0 F1620 X48.513 Y51.71
G0 F4320 X48.746 Y51.972
G1 F1800 X49.774 Y51.058 E5.72383
G1 X51.031 Y50.273 E5.78055
G1 X52.138 Y49.807 E5.82651
G1 X54.083 Y49.28 E5.90363
G1 X55.112 Y49.228 E5.94306
G1 X56.151 Y49.428 E5.98355
G1 X56.381 Y49.505 E5.99283
G1 X56.961 Y49.556 E6.01512
G1 X58.171 Y49.842 E6.0627
G1 X58.94 Y50.116 E6.09394
G1 X59.953 Y50.533 E6.13586
G1 X60.623 Y51.056 E6.16839
G1 X61.106 Y51.205 E6.18774
G1 X62.194 Y51.767 E6.2346
G1 X62.595 Y52.156 E6.25598
G1 X62.745 Y51.579 E6.2788
G1 X63.726 Y49.977 E6.35069
G1 X65.015 Y48.946 E6.41386
G1 X66.19 Y48.279 E6.46556
G1 X67.592 Y47.74 E6.52305
G1 X68.814 Y47.459 E6.57103
G1 X70.557 Y47.308 E6.63799
G1 X72.255 Y47.735 E6.70499
G1 X73.561 Y48.467 E6.76229
G1 X73.806 Y48.694 E6.77507
G1 X74.476 Y48.171 E6.8076
G1 X75.675 Y47.621 E6.85808
G1 X77.189 Y47.307 E6.91725
G1 X79.138 Y47.517 E6.99227
G1 X80.23 Y47.804 E7.03548
G1 X81.862 Y48.494 E7.10329
G1 X82.819 Y49.095 E7.14654
G1 X83.817 Y49.951 E7.19686
G1 X84.63 Y51.122 E7.25142
G1 X85.112 Y52.404 E7.30383
G1 X85.779 Y52.426 E7.32937
G1 X86.527 Y51.819 E7.36624
G1 X87.065 Y51.547 E7.38931
G1 X87.28 Y51.385 E7.39961
G1 X87.828 Y51.029 E7.42462
G1 X88.315 Y50.752 E7.44606
G1 X88.856 Y50.373 E7.47134
G1 X89.793 Y49.962 E7.5105
G1 X90.355 Y49.852 E7.53241
G1 X91.312 Y49.523 E7.57114
G1 X92.123 Y49.366 E7.60275
G1 X92.7 Y49.394 E7.62486
G1 X93.305 Y49.311 E7.64823
G1 X95.018 Y49.448 E7.714
G1 X96.707 Y49.945 E7.78137
G1 X98.541 Y51.063 E7.86357
G1 X99.195 Y51.619 E7.89643
G1 X100.568 Y53.255 E7.97816
G1 X101.049 Y54.071 E8.01441
G1 X101.575 Y55.246 E8.06368
G1 X102.02 Y56.662 E8.12048
G1 X102.172 Y57.623 E8.15772
G1 X102.132 Y58.201 E8.17989
G1 X102.293 Y58.741 E8.20145
G1 X102.328 Y59.37 E8.22556
G1 X102.413 Y59.857 E8.24448
G1 X102.467 Y61.028 E8.28934
G1 X101.835 Y63.446 E8.38499
G1 X101.168 Y64.995 E8.44953
G1 X100.26 Y66.443 E8.51494
G1 X99.59 Y67.224 E8.55432
G1 X98.345 Y68.306 E8.61745
G1 X97.199 Y69.05 E8.66974
G1 X95.937 Y69.517 E8.72123
G1 X95.229 Y69.816 E8.75065
G1 X94.011 Y70.045 E8.79807
G1 X93.185 Y70.003 E8.82973
G1 X92.759 Y70.053 E8.84614
G1 X91.806 Y70.001 E8.88267
G1 X91.303 Y69.897 E8.90232
G1 X90.675 Y69.855 E8.92641
G1 X89.832 Y69.595 E8.96017
G1 X89.308 Y69.385 E8.98178
G1 X88.492 Y69.13 E9.01449
G1 X87.666 Y68.672 E9.05064
G1 X87.036 Y68.433 E9.07643
G1 X86.116 Y67.891 E9.11729
G1 X85.887 Y67.665 E9.1296
G1 X85.738 Y67.811 E9.13759
G1 X84.818 Y68.515 E9.18192
G1 X83.039 Y69.047 E9.25298
G1 X81.626 Y68.874 E9.30746
G1 X80.745 Y68.613 E9.34262
G1 X80.531 Y68.509 E9.35173
G1 X79.984 Y69.177 E9.38477
G1 X78.638 Y70.155 E9.44845
G1 X77.077 Y70.699 E9.51171
G1 X75.272 Y70.854 E9.58104
G1 X73.419 Y70.755 E9.65206
G1 X72.011 Y70.472 E9.70702
G1 X70.97 Y70.091 E9.74944
G1 X70.501 Y69.771 E9.77117
G1 X70.168 Y69.724 E9.78404
G1 X68.868 Y69.355 E9.83576
G1 X67.513 Y68.396 E9.89928
G1 X67.169 Y68.036 E9.91834
G1 X66.877 Y68.222 E9.93159
G1 X65.826 Y68.596 E9.97428
G1 X64.778 Y68.793 E10.01509
G1 X63.045 Y68.469 E10.08256
G1 X62.018 Y67.884 E10.1278
G1 X61.454 Y68.288 E10.15435
G1 X60.54 Y68.749 E10.19352
G1 X60.243 Y68.858 E10.20563
G1 X59.423 Y69.312 E10.2415
G1 X58.423 Y69.602 E10.28135
G1 X58.346 Y69.617 E10.28435
G1 X57.46 Y69.926 E10.32026
G1 X56.797 Y70.035 E10.34597
G1 X56.011 Y70.042 E10.37605
G1 X55.625 Y69.982 E10.391
G1 X55.042 Y70.008 E10.41334
G1 X54.501 Y69.903 E10.43443
G1 X54.331 Y69.911 E10.44094
G1 X53.182 Y69.838 E10.485
G1 X51.297 Y69.137 E10.56197
G1 X50.365 Y68.622 E10.60272
G1 X48.959 Y67.543 E10.67054
G1 X47.875 Y66.267 E10.73462
G1 X46.996 Y64.806 E10.79987
G1 X46.526 Y63.699 E10.84589
G1 X46.138 Y62.385 E10.89833
G1 X46.027 Y61.491 E10.9328
G1 X46.046 Y61.06 E10.94931
G1 X45.932 Y60.042 E10.98852
G1 X45.954 Y59.283 E11.01758
G1 X46.043 Y57.878 E11.07145
G1 X46.174 Y56.673 E11.11784
G1 X46.47 Y55.859 E11.15099
G1 X46.655 Y55.19 E11.17755
G1 X47.184 Y54.183 E11.22108
G1 X48.128 Y52.685 E11.28884
G1 X48.292 Y52.496 E11.29842
G0 F1620 X48.746 Y51.972
G0 F4320 X48.979 Y52.234
G1 F1800 X50.007 Y51.32 E11.35106
G1 X51.167 Y50.596 E11.40339
G1 X52.274 Y50.13 E11.44936
G1 X54.136 Y49.628 E11.52316
G1 X55.088 Y49.58 E11.55964
G1 X56.085 Y49.772 E11.5985
G1 X56.311 Y49.851 E11.60766
G1 X56.88 Y49.897 E11.62951
G1 X58.09 Y50.183 E11.67709
G1 X58.807 Y50.44 E11.70624
G1 X59.777 Y50.839 E11.74638
G1 X60.461 Y51.373 E11.77959
G1 X60.945 Y51.516 E11.7989
G1 X61.988 Y52.055 E11.84383
G1 X62.783 Y52.825 E11.88619
G1 X63.071 Y51.716 E11.93004
G1 X63.992 Y50.213 E11.9975
G1 X65.189 Y49.25 E12.05629
G1 X66.316 Y48.606 E12.10597
G1 X67.718 Y48.067 E12.16345
G1 X68.844 Y47.808 E12.20767
G1 X70.531 Y47.662 E12.27247
G1 X72.124 Y48.062 E12.33533
G1 X73.39 Y48.772 E12.39087
G1 X73.778 Y49.16 E12.41187
G1 X74.659 Y48.472 E12.45465
G1 X75.783 Y47.956 E12.50198
G1 X77.207 Y47.661 E12.55764
G1 X79.101 Y47.865 E12.63054
G1 X80.095 Y48.127 E12.66988
G1 X81.677 Y48.791 E12.73554
G1 X82.591 Y49.361 E12.77676
G1 X83.556 Y50.188 E12.8254
G1 X84.317 Y51.285 E12.87649
G1 X84.808 Y52.592 E12.92993
G1 X84.839 Y52.797 E12.93786
G1 X85.074 Y52.753 E12.94701
G1 X85.899 Y52.78 E12.9786
G1 X86.721 Y52.113 E13.01911
G1 X87.251 Y51.845 E13.04184
G1 X87.471 Y51.679 E13.05239
G1 X88.019 Y51.323 E13.0774
G1 X88.503 Y51.048 E13.0987
G1 X88.997 Y50.694 E13.12196
G1 X89.934 Y50.283 E13.16111
G1 X90.443 Y50.192 E13.1809
G1 X91.379 Y49.867 E13.21882
G1 X92.148 Y49.718 E13.2488
G1 X92.714 Y49.745 E13.27048
G1 X93.315 Y49.663 E13.2937
G1 X94.953 Y49.794 E13.35658
G1 X96.565 Y50.268 E13.42089
G1 X98.314 Y51.33 E13.49919
G1 X98.968 Y51.886 E13.53204
G1 X100.266 Y53.433 E13.60933
G1 X100.747 Y54.249 E13.64558
G1 X101.241 Y55.352 E13.69183
G1 X101.674 Y56.717 E13.74663
G1 X101.826 Y57.678 E13.78387
G1 X101.777 Y58.235 E13.80527
G1 X101.946 Y58.802 E13.82791
G1 X101.98 Y59.411 E13.85125
G1 X102.063 Y59.873 E13.86921
G1 X102.115 Y60.991 E13.91205
G1 X101.496 Y63.357 E14.00564
G1 X100.847 Y64.856 E14.06815
G1 X99.994 Y66.215 E14.12956
G1 X99.324 Y66.996 E14.16894
G1 X98.154 Y68.012 E14.22824
G1 X97.037 Y68.737 E14.2792
G1 X95.81 Y69.191 E14.32927
G1 X95.13 Y69.478 E14.35752
G1 X93.989 Y69.693 E14.40195
G1 X93.174 Y69.652 E14.43318
G1 X92.719 Y69.705 E14.45071
G1 X91.877 Y69.658 E14.48299
G1 X91.354 Y69.55 E14.50342
G1 X90.738 Y69.509 E14.52705
G1 X89.963 Y69.27 E14.55809
G1 X89.433 Y69.057 E14.57995
G1 X88.632 Y68.807 E14.61206
G1 X87.813 Y68.353 E14.6479
G1 X87.214 Y68.131 E14.67234
G1 X86.294 Y67.589 E14.71321
G1 X85.893 Y67.161 E14.73565
G1 X85.525 Y67.533 E14.75568
G1 X84.655 Y68.199 E14.79761
G1 X83.011 Y68.691 E14.86328
G1 X81.725 Y68.538 E14.91284
G1 X80.844 Y68.277 E14.94801
G1 X80.44 Y68.067 E14.96543
G1 X79.741 Y68.921 E15.00767
G1 X78.475 Y69.841 E15.06756
G1 X77.003 Y70.354 E15.12722
G1 X75.291 Y70.504 E15.19298
G1 X73.438 Y70.405 E15.264
G1 X72.131 Y70.143 E15.31501
G1 X71.13 Y69.777 E15.3558
G1 X70.629 Y69.435 E15.37902
G1 X70.264 Y69.387 E15.39311
G1 X69.021 Y69.034 E15.44256
G1 X67.715 Y68.11 E15.50378
G1 X67.222 Y67.577 E15.53157
G1 X66.758 Y67.893 E15.55305
G1 X65.761 Y68.252 E15.5936
G1 X64.777 Y68.437 E15.63192
G1 X63.167 Y68.136 E15.6946
G1 X62.126 Y67.543 E15.74045
G1 X61.975 Y67.54 E15.74623
G1 X61.802 Y67.608 E15.75335
G1 X61.296 Y67.975 E15.77727
G1 X60.382 Y68.436 E15.81645
G1 X60.1 Y68.538 E15.82792
G1 X59.29 Y68.986 E15.86335
G1 X58.325 Y69.266 E15.9018
G1 X58.26 Y69.276 E15.90432
G1 X57.401 Y69.581 E15.9392
G1 X56.792 Y69.685 E15.96284
G1 X56.064 Y69.696 E15.99071
G1 X55.643 Y69.631 E16.00701
G1 X55.069 Y69.656 E16.029
G1 X54.527 Y69.551 E16.05013
G1 X54.315 Y69.561 E16.05825
G1 X53.256 Y69.492 E16.09886
G1 X51.419 Y68.809 E16.17387
G1 X50.578 Y68.344 E16.21064
G1 X49.203 Y67.289 E16.27697
G1 X48.142 Y66.04 E16.33969
G1 X47.318 Y64.669 E16.4009
G1 X46.862 Y63.6 E16.44538
G1 X46.474 Y62.286 E16.49781
G1 X46.377 Y61.506 E16.52789
G1 X46.397 Y61.048 E16.54544
G1 X46.282 Y60.052 E16.58381
G1 X46.303 Y59.305 E16.61241
G1 X46.391 Y57.916 E16.66567
G1 X46.517 Y56.753 E16.71044
G1 X46.801 Y55.973 E16.74221
G1 X46.981 Y55.322 E16.76805
G1 X47.494 Y54.346 E16.81025
G1 X48.424 Y52.872 E16.87695
G1 X48.524 Y52.757 E16.88278
G0 F1620 X48.979 Y52.234
G0 F4320 X49.212 Y52.496
G1 F1800 X50.24 Y51.582 E16.93543
G1 X51.303 Y50.919 E16.98337
G1 X52.41 Y50.453 E17.02934
G1 X54.189 Y49.976 E17.09982
G1 X55.065 Y49.932 E17.13339
G1 X55.97 Y50.103 E17.16864
G1 X56.237 Y50.196 E17.17946
G1 X56.852 Y50.246 E17.20307
G1 X57.972 Y50.513 E17.24713
G1 X58.674 Y50.764 E17.27567
G1 X59.601 Y51.145 E17.31402
G1 X60.299 Y51.69 E17.34791
G1 X60.846 Y51.852 E17.36974
G1 X61.781 Y52.342 E17.41014
G1 X62.615 Y53.149 E17.45456
G1 X62.997 Y53.644 E17.47848
G1 X62.994 Y53.406 E17.48759
G1 X63.397 Y51.856 E17.54888
G1 X64.26 Y50.446 E17.61215
G1 X65.363 Y49.554 E17.66644
G1 X66.49 Y48.91 E17.71611
G1 X67.843 Y48.394 E17.77153
G1 X68.874 Y48.157 E17.81201
G1 X70.505 Y48.016 E17.87467
G1 X71.993 Y48.389 E17.93337
G1 X73.219 Y49.077 E17.98718
G1 X73.762 Y49.652 E18.01744
G1 X73.867 Y49.534 E18.02349
G1 X74.842 Y48.773 E18.07082
G1 X75.891 Y48.291 E18.115
G1 X77.225 Y48.015 E18.16713
G1 X79.013 Y48.204 E18.23594
G1 X79.96 Y48.45 E18.27339
G1 X81.493 Y49.089 E18.33695
G1 X82.363 Y49.627 E18.37609
G1 X83.295 Y50.425 E18.42305
G1 X84.004 Y51.448 E18.47068
G1 X84.48 Y52.715 E18.52248
G1 X84.524 Y53.232 E18.54234
G1 X85.062 Y53.103 E18.56351
G1 X85.935 Y53.132 E18.59694
G1 X86.12 Y53.079 E18.6043
G1 X86.256 Y52.942 E18.61169
G1 X86.915 Y52.407 E18.64417
G1 X87.437 Y52.143 E18.66656
G1 X87.662 Y51.973 E18.67735
G1 X88.21 Y51.617 E18.70236
G1 X88.691 Y51.344 E18.72353
G1 X89.171 Y51 E18.74613
G1 X90.034 Y50.621 E18.7822
G1 X90.529 Y50.533 E18.80144
G1 X91.446 Y50.211 E18.83863
G1 X92.174 Y50.07 E18.86701
G1 X92.729 Y50.097 E18.88828
G1 X93.326 Y50.015 E18.91134
G1 X94.888 Y50.14 E18.97131
G1 X96.422 Y50.591 E19.0325
G1 X98.087 Y51.597 E19.10695
G1 X98.741 Y52.153 E19.1398
G1 X99.964 Y53.611 E19.21262
G1 X100.445 Y54.427 E19.24887
G1 X100.908 Y55.459 E19.29216
G1 X101.328 Y56.772 E19.34492
G1 X101.473 Y57.69 E19.38049
G1 X101.422 Y58.269 E19.40273
G1 X101.599 Y58.863 E19.42645
G1 X101.633 Y59.46 E19.44933
G1 X101.718 Y59.935 E19.4678
G1 X101.763 Y60.953 E19.5068
G1 X101.157 Y63.268 E19.59838
G1 X100.526 Y64.716 E19.65883
G1 X99.728 Y65.987 E19.71626
G1 X99.058 Y66.768 E19.75564
G1 X97.963 Y67.718 E19.81112
G1 X96.875 Y68.424 E19.86075
G1 X95.683 Y68.865 E19.90939
G1 X95.031 Y69.14 E19.93647
G1 X93.966 Y69.341 E19.97795
G1 X93.163 Y69.301 E20.00872
G1 X92.679 Y69.357 E20.02737
G1 X91.948 Y69.315 E20.05539
G1 X91.405 Y69.203 E20.07661
G1 X90.805 Y69.163 E20.09962
G1 X90.094 Y68.945 E20.12808
G1 X89.558 Y68.729 E20.15019
G1 X88.769 Y68.483 E20.18182
G1 X87.956 Y68.033 E20.21738
G1 X87.392 Y67.829 E20.24034
G1 X86.472 Y67.287 E20.2812
G1 X85.906 Y66.648 E20.31387
G1 X85.312 Y67.255 E20.34637
G1 X84.492 Y67.883 E20.3859
G1 X82.982 Y68.335 E20.44622
G1 X81.824 Y68.202 E20.49083
G1 X80.943 Y67.941 E20.52599
G1 X80.325 Y67.607 E20.55288
