;FLAVOR:Marlin
;TIME:4820
;Filament used: 2.10833m
;Layer height: 0.13125
;MINX:19.154
;MINY:14.144
;MINZ:0.163
;MAXX:101.763
;MAXY:105.891
;MAXZ:22.664
;TARGET_MACHINE.NAME:Monoprice Select Mini V2
;Generated with Cura_SteamEngine 5.7.2
M140 S65
M105
M190 S65
M104 S205
M105
M109 S205
M82 ;absolute extrusion mode
G21;(metric values)
G90;(absolute positioning)
M82;(set extruder to absolute mode)
M107;(start with the fan off)
G28;(Home the printer)
G92 E0;(Reset the extruder to 0)
G0 Z5 E5 F500;(Move up and prime the nozzle)
G0 X-1 Z0;(Move outside the printable area)
G1 Y60 E8 F500;(Draw a priming/wiping line to the rear)
G1 X-1;(Move a little closer to the print area)
G1 Y10 E16 F500;(draw more priming/wiping)
G1 E15 F250;(Small retract)
G92 E0;(Zero the extruder)
G92 E0
G92 E0
G1 F2400 E-2.5
;LAYER_COUNT:172
;LAYER:0
M107
G0 F4320 X35.625 Y18.36 Z0.263
;TYPE:SKIRT
G1 F2400 E0
G1 F1800 X36.461 Y17.067 E0.05893
G1 X38.399 Y15.161 E0.16295
G1 X40.14 Y14.398 E0.2357
G1 X41.68 Y14.144 E0.29543
G1 X43.78 Y14.381 E0.37631
G1 X44.523 Y14.575 E0.40569
G1 X44.897 Y14.611 E0.42007
G1 X45.931 Y14.61 E0.45964
G1 X46.535 Y14.702 E0.48303
G1 X47.114 Y14.576 E0.5057
G1 X49.278 Y14.705 E0.58867
G1 X50.028 Y14.674 E0.61739
G1 X50.993 Y14.758 E0.65446
G1 X51.402 Y14.753 E0.67012
G1 X52.154 Y14.821 E0.69901
G1 X52.48 Y14.811 E0.71149
G1 X53.321 Y14.854 E0.74372
G1 X53.857 Y14.909 E0.76434
G1 X55.295 Y14.758 E0.81968
G1 X57.143 Y15.178 E0.8922
G1 X58.86 Y16.089 E0.96659
G1 X60.087 Y17.325 E1.03324
G1 X61.245 Y18.884 E1.10756
G1 X61.836 Y20.677 E1.17981
G1 X61.895 Y22.166 E1.23684
G1 X61.486 Y23.83 E1.30242
G1 X60.541 Y25.27 E1.36833
G1 X59.22 Y26.543 E1.43854
G1 X59.164 Y26.695 E1.44474
G1 X59.151 Y27.096 E1.46009
G1 X59.331 Y28.087 E1.49864
G1 X59.366 Y28.888 E1.52932
G1 X59.514 Y29.655 E1.55922
G1 X59.601 Y30.733 E1.60061
G1 X59.777 Y31.582 E1.63379
G1 X59.776 Y32.486 E1.66838
G1 X59.979 Y33.675 E1.71455
G1 X59.996 Y34.078 E1.72998
G1 X60.257 Y34.44 E1.74706
G1 X60.721 Y35.585 E1.79434
G1 X60.885 Y37.266 E1.85898
G1 X60.626 Y38.294 E1.89955
G1 X60.72 Y38.467 E1.90708
G1 X61.059 Y39.325 E1.94239
G1 X61.226 Y41.102 E2.0107
G1 X60.989 Y41.816 E2.03949
G1 X61.441 Y42.616 E2.07465
G1 X61.597 Y44.063 E2.13035
G1 X61.554 Y44.589 E2.15055
G1 X61.748 Y45.246 E2.17676
G1 X61.744 Y46.154 E2.21151
G1 X61.882 Y46.364 E2.22113
G1 X62.645 Y48.001 E2.29025
G1 X62.791 Y50.896 E2.40118
G1 X64.095 Y51.015 E2.45129
G1 X65.179 Y51.367 E2.49491
G1 X65.463 Y51.421 E2.50597
G1 X65.711 Y51.407 E2.51548
G1 X66.53 Y51.001 E2.55046
G1 X67.951 Y50.463 E2.60861
G1 X70.028 Y50.343 E2.68823
G1 X71.705 Y50.772 E2.75447
G1 X72.257 Y50.999 E2.77732
G1 X72.657 Y48.637 E2.869
G1 X72.482 Y47.257 E2.92223
G1 X72.973 Y45.017 E3.00999
G1 X74.084 Y42.99 E3.09845
G1 X75.846 Y41.334 E3.19099
G1 X77.959 Y40.381 E3.2797
G1 X80.196 Y39.988 E3.36662
G1 X81.575 Y40.053 E3.41945
G1 X83.67 Y40.662 E3.50295
G1 X84.626 Y41.24 E3.5457
G1 X86.15 Y42.501 E3.6214
G1 X86.987 Y43.849 E3.68212
G1 X87.972 Y45.035 E3.74113
G1 X88.594 Y46.277 E3.79428
G1 X88.827 Y47.801 E3.85328
G1 X88.839 Y48.642 E3.88547
G1 X89.026 Y49.727 E3.92761
G1 X89.127 Y50.96 E3.97495
G1 X89.331 Y52.274 E4.02584
G1 X89.353 Y52.959 E4.05207
G1 X89.387 Y53.123 E4.05848
G1 X90.532 Y53.188 E4.10237
G1 X91.278 Y53.202 E4.13092
G1 X92.026 Y53.298 E4.15979
G1 X93.161 Y53.021 E4.2045
G1 X94.638 Y52.849 E4.2614
G1 X96.409 Y53.112 E4.32992
G1 X98.243 Y53.985 E4.40766
G1 X99.44 Y54.785 E4.46275
G1 X100.68 Y56.384 E4.54019
G1 X101.231 Y57.346 E4.58262
G1 X101.629 Y59.079 E4.65067
G1 X101.763 Y60.634 E4.7104
G1 X101.253 Y62.508 E4.78472
G1 X100.606 Y63.772 E4.83907
G1 X99.299 Y65.348 E4.91742
G1 X98.007 Y66.153 E4.97568
G1 X96.462 Y66.854 E5.04061
G1 X94.781 Y67.154 E5.10595
G1 X93.022 Y66.948 E5.17373
G1 X92.041 Y66.725 E5.21223
G1 X90.673 Y66.823 E5.26472
G1 X90.414 Y66.812 E5.27464
G1 X89.369 Y66.883 E5.31472
G1 X89.214 Y68.621 E5.3815
G1 X89.082 Y69.182 E5.40356
G1 X88.992 Y70.548 E5.45595
G1 X88.815 Y71.552 E5.49496
G1 X88.837 Y72.491 E5.53091
G1 X88.599 Y73.636 E5.57566
G1 X88.053 Y74.876 E5.62752
G1 X87.337 Y75.746 E5.67064
G1 X86.694 Y76.774 E5.71704
G1 X85.567 Y78.243 E5.7879
G1 X84.197 Y79.267 E5.85335
G1 X82.893 Y79.667 E5.90555
G1 X80.54 Y80.083 E5.997
G1 X77.916 Y79.594 E6.09915
G1 X75.87 Y78.674 E6.185
G1 X74.075 Y76.973 E6.27964
G1 X72.973 Y74.986 E6.36659
G1 X72.513 Y72.872 E6.44939
G1 X72.678 Y71.385 E6.50665
G1 X72.275 Y69.03 E6.59808
G1 X70.786 Y69.48 E6.65761
G1 X69.619 Y69.669 E6.70285
G1 X68.548 Y69.576 E6.744
G1 X66.503 Y68.989 E6.82542
G1 X65.714 Y68.587 E6.85931
G1 X65.328 Y68.589 E6.87408
G1 X64.13 Y68.952 E6.92198
G1 X62.792 Y69.092 E6.97347
G1 X62.627 Y72.062 E7.08731
G1 X61.789 Y73.822 E7.16191
G1 X61.429 Y74.286 E7.18438
G1 X61.345 Y74.696 E7.2004
G1 X61.187 Y76.045 E7.25238
G1 X61.077 Y76.54 E7.27178
G1 X60.996 Y77.716 E7.31689
G1 X60.849 Y78.469 E7.34626
G1 X60.848 Y79.247 E7.37603
G1 X60.664 Y80.095 E7.40924
G1 X60.576 Y81.28 E7.45471
G1 X60.486 Y81.788 E7.47446
G1 X60.435 Y82.856 E7.51538
G1 X60.271 Y83.958 E7.55801
G1 X60.139 Y85.11 E7.60239
G1 X60.023 Y85.678 E7.62458
G1 X59.988 Y86.724 E7.66463
G1 X59.768 Y87.567 E7.69797
G1 X59.727 Y88.337 E7.72748
G1 X59.577 Y89.27 E7.76364
G1 X59.568 Y90.226 E7.80023
G1 X59.372 Y91.12 E7.83526
G1 X59.333 Y91.898 E7.86507
G1 X59.201 Y92.796 E7.8998
G1 X59.174 Y93.287 E7.91862
G1 X59.228 Y93.409 E7.92373
G1 X60.035 Y94.263 E7.9687
G1 X61.159 Y95.801 E8.0416
G1 X61.696 Y97.447 E8.10786
G1 X61.804 Y98.905 E8.16381
G1 X61.741 Y99.465 E8.18537
G1 X61.114 Y101.306 E8.2598
G1 X59.708 Y103.108 E8.34727
G1 X58.828 Y103.931 E8.39338
G1 X56.933 Y104.931 E8.47538
G1 X55.024 Y105.22 E8.54927
G1 X53.636 Y105.063 E8.60273
G1 X52.651 Y105.18 E8.64069
G1 X52.163 Y105.181 E8.65937
G1 X51.337 Y105.247 E8.69108
G1 X50.89 Y105.224 E8.70821
G1 X49.716 Y105.343 E8.75337
G1 X49.261 Y105.292 E8.77089
G1 X47.27 Y105.385 E8.84717
G1 X46.86 Y105.348 E8.86292
G1 X46.184 Y105.333 E8.8888
G1 X45.717 Y105.383 E8.90677
G1 X44.659 Y105.397 E8.94727
G1 X43.744 Y105.626 E8.98336
G1 X41.443 Y105.891 E9.07201
G1 X39.223 Y105.28 E9.16012
G1 X37.945 Y104.361 E9.22037
G1 X36.464 Y102.943 E9.29883
G1 X35.578 Y101.573 E9.36127
G1 X35.06 Y99.819 E9.43126
G1 X35.056 Y97.077 E9.5362
G1 X35.703 Y95.183 E9.6128
G1 X36.646 Y93.917 E9.67321
G1 X38.461 Y92.117 E9.77104
G1 X40.344 Y91.355 E9.84877
G1 X40.852 Y91.296 E9.86835
G1 X40.729 Y88.853 E9.96196
G1 X40.627 Y87.403 E10.01759
G1 X40.638 Y87.136 E10.02781
G1 X40.538 Y85.687 E10.0834
G1 X40.55 Y85.426 E10.0934
G1 X40.452 Y84.123 E10.1434
G1 X39.902 Y83.895 E10.16619
G1 X38.214 Y82.449 E10.25125
G1 X37.403 Y81.328 E10.3042
G1 X37.289 Y81.084 E10.31451
G1 X37.042 Y81.069 E10.32398
G1 X35.644 Y80.727 E10.37906
G1 X34.182 Y79.813 E10.44504
G1 X33.977 Y79.617 E10.4559
G1 X33.216 Y78.505 E10.50746
G1 X32.674 Y77.336 E10.55678
G1 X32.526 Y76.096 E10.60457
G1 X32.513 Y74.609 E10.66148
G1 X32.456 Y74.188 E10.67774
G1 X32.351 Y73.876 E10.69033
G1 X31.923 Y73.079 E10.72495
G1 X31.356 Y71.672 E10.78301
G1 X31.272 Y69.923 E10.85002
G1 X31.12 Y68.94 E10.88809
G1 X31.059 Y67.614 E10.93889
G1 X31.233 Y66.873 E10.96801
G1 X30.825 Y65.724 E11.01468
G1 X30.806 Y65.207 E11.03448
G1 X30.449 Y65.074 E11.04906
G1 X30.055 Y65.586 E11.07378
G1 X28.769 Y66.54 E11.13506
G1 X27.343 Y66.937 E11.19171
G1 X25.964 Y66.997 E11.24453
G1 X25.137 Y66.791 E11.27715
G1 X24.426 Y66.711 E11.30453
G1 X22.949 Y66.154 E11.36494
G1 X20.904 Y64.448 E11.46686
G1 X19.754 Y62.727 E11.54607
G1 X19.154 Y60.449 E11.63622
G1 X19.343 Y58.822 E11.69891
G1 X19.745 Y57.27 E11.76026
G1 X20.881 Y55.579 E11.83823
G1 X22.668 Y54.074 E11.92764
G1 X23.151 Y53.423 E11.95866
G1 X24.229 Y52.183 E12.02154
G1 X25.643 Y51.143 E12.08871
G1 X27.322 Y50.607 E12.15616
G1 X27.936 Y50.56 E12.17973
G1 X29.521 Y50.713 E12.24067
G1 X30.887 Y51.346 E12.29829
G1 X31.076 Y51.494 E12.30747
G1 X30.949 Y50.278 E12.35426
G1 X30.956 Y48.474 E12.4233
G1 X31.475 Y46.404 E12.50497
G1 X32.355 Y45.116 E12.56467
G1 X32.491 Y44.748 E12.57968
G1 X32.483 Y43.656 E12.62148
G1 X32.693 Y42.571 E12.66377
G1 X33.317 Y41.183 E12.72201
G1 X34.281 Y40.15 E12.77608
G1 X35.143 Y39.581 E12.81561
G1 X36.664 Y38.978 E12.87823
G1 X37.275 Y38.956 E12.90162
G1 X37.38 Y38.717 E12.91161
G1 X38.117 Y37.631 E12.96184
G1 X39.919 Y36.105 E13.05221
G1 X40.463 Y35.867 E13.07493
G1 X40.468 Y35.511 E13.08856
G1 X40.561 Y34.418 E13.13054
G1 X40.553 Y33.966 E13.14784
G1 X40.637 Y32.885 E13.18934
G1 X40.625 Y32.558 E13.20186
G1 X40.783 Y30.245 E13.29058
G1 X40.811 Y29.671 E13.31258
G1 X40.879 Y28.73 E13.34868
G1 X39.208 Y28.268 E13.41503
G1 X37.812 Y27.239 E13.4814
G1 X36.462 Y25.932 E13.55331
G1 X35.578 Y24.564 E13.61564
G1 X35.06 Y22.81 E13.68563
G1 X35.056 Y20.089 E13.78977
G1 X35.409 Y19.019 E13.83289
G0 F1620 X35.625 Y18.36
G0 F4320 X35.942 Y18.514
G1 F1800 X36.734 Y17.289 E13.88871
G1 X38.597 Y15.457 E13.98871
G1 X40.244 Y14.735 E14.05753
G1 X41.687 Y14.497 E14.1135
G1 X43.692 Y14.72 E14.1907
G1 X44.458 Y14.92 E14.221
G1 X44.884 Y14.961 E14.23738
G1 X45.894 Y14.96 E14.27603
G1 X46.308 Y15.046 E14.29221
G1 X46.567 Y15.053 E14.30213
G1 X47.142 Y14.928 E14.32465
G1 X49.283 Y15.056 E14.40673
G1 X49.998 Y15.023 E14.43412
G1 X50.978 Y15.108 E14.47177
G1 X51.37 Y15.102 E14.48677
G1 X52.142 Y15.172 E14.51644
G1 X52.462 Y15.161 E14.52869
G1 X53.303 Y15.204 E14.56092
G1 X53.858 Y15.261 E14.58227
G1 X55.275 Y15.112 E14.6368
G1 X57.019 Y15.508 E14.70524
G1 X58.649 Y16.373 E14.77586
G1 X59.806 Y17.534 E14.83858
G1 X60.932 Y19.049 E14.91082
G1 X61.488 Y20.737 E14.97884
G1 X61.543 Y22.132 E15.03226
G1 X61.161 Y23.687 E15.09354
G1 X60.269 Y25.046 E15.15575
G1 X58.918 Y26.348 E15.22756
G1 X58.816 Y26.626 E15.23889
G1 X58.8 Y27.12 E15.25781
G1 X58.981 Y28.102 E15.29602
G1 X59.017 Y28.929 E15.3277
G1 X59.17 Y29.721 E15.35857
G1 X59.254 Y30.784 E15.39938
G1 X59.427 Y31.619 E15.43201
G1 X59.426 Y32.517 E15.46638
G1 X59.629 Y33.69 E15.51194
G1 X59.651 Y34.198 E15.5314
G1 X59.95 Y34.613 E15.55097
G1 X60.378 Y35.669 E15.59458
G1 X60.531 Y37.24 E15.65498
G1 X60.293 Y38.187 E15.69235
G1 X60.275 Y38.386 E15.7
G1 X60.394 Y38.596 E15.70924
G1 X60.716 Y39.411 E15.74277
G1 X60.871 Y41.061 E15.8062
G1 X60.608 Y41.854 E15.83817
G1 X61.101 Y42.726 E15.87651
G1 X61.249 Y44.1 E15.92939
G1 X61.2 Y44.625 E15.94957
G1 X61.398 Y45.297 E15.97638
G1 X61.394 Y46.258 E16.01316
G1 X61.589 Y46.556 E16.02679
G1 X62.298 Y48.084 E16.09125
G1 X62.432 Y50.704 E16.19165
G1 X62.405 Y51.212 E16.21112
G1 X64.026 Y51.361 E16.27342
G1 X65.092 Y51.707 E16.31631
G1 X65.437 Y51.772 E16.32974
G1 X65.805 Y51.752 E16.34385
G1 X66.686 Y51.315 E16.38148
G1 X68.025 Y50.809 E16.43626
G1 X69.993 Y50.695 E16.51171
G1 X71.572 Y51.096 E16.57405
G1 X72.529 Y51.49 E16.61366
G1 X73.011 Y48.645 E16.72409
G1 X72.837 Y47.274 E16.77698
G1 X73.304 Y45.141 E16.86054
G1 X74.364 Y43.208 E16.94491
G1 X76.044 Y41.629 E17.03314
G1 X78.062 Y40.718 E17.11788
G1 X80.217 Y40.34 E17.20161
G1 X81.519 Y40.401 E17.25149
G1 X83.527 Y40.985 E17.33152
G1 X84.445 Y41.54 E17.37257
G1 X85.883 Y42.735 E17.44413
G1 X86.701 Y44.051 E17.50343
G1 X87.675 Y45.225 E17.56181
G1 X88.256 Y46.384 E17.61142
G1 X88.477 Y47.806 E17.66649
G1 X88.489 Y48.676 E17.69979
G1 X88.677 Y49.755 E17.74171
G1 X88.779 Y51.005 E17.7897
G1 X88.981 Y52.285 E17.8393
G1 X89.004 Y53.003 E17.86679
G1 X89.099 Y53.457 E17.88454
G1 X90.525 Y53.538 E17.9392
G1 X91.271 Y53.552 E17.96775
G1 X92.046 Y53.654 E17.99767
G1 X93.201 Y53.369 E18.0432
G1 X94.635 Y53.202 E18.09845
G1 X96.306 Y53.45 E18.1631
G1 X98.049 Y54.276 E18.23691
G1 X99.198 Y55.044 E18.2898
G1 X100.376 Y56.558 E18.36322
G1 X100.902 Y57.476 E18.40371
G1 X101.28 Y59.109 E18.46785
G1 X101.409 Y60.602 E18.5252
G1 X100.924 Y62.381 E18.59577
G1 X100.31 Y63.581 E18.64736
G1 X99.068 Y65.079 E18.72183
G1 X97.862 Y65.834 E18.77628
G1 X96.357 Y66.517 E18.83953
G1 X94.771 Y66.8 E18.90118
G1 X93.063 Y66.6 E18.96699
G1 X92.067 Y66.372 E19.0061
G1 X90.688 Y66.473 E19.05901
G1 X90.414 Y66.461 E19.06951
G1 X89.094 Y66.551 E19.12014
G1 X89.021 Y66.829 E19.13114
G1 X88.873 Y68.541 E19.1969
G1 X88.735 Y69.127 E19.21994
G1 X88.647 Y70.487 E19.2721
G1 X88.464 Y71.524 E19.3124
G1 X88.486 Y72.458 E19.34815
G1 X88.263 Y73.531 E19.39009
G1 X87.752 Y74.691 E19.4386
G1 X87.051 Y75.544 E19.48086
G1 X86.416 Y76.561 E19.52674
G1 X85.318 Y77.992 E19.59577
G1 X84.035 Y78.951 E19.65707
G1 X82.832 Y79.322 E19.70525
G1 X80.54 Y79.727 E19.79432
G1 X78.02 Y79.257 E19.89243
G1 X76.069 Y78.38 E19.97429
G1 X74.355 Y76.756 E20.06465
G1 X73.304 Y74.861 E20.14758
G1 X72.867 Y72.854 E20.22619
G1 X73.031 Y71.375 E20.28313
G1 X72.688 Y69.37 E20.36098
G1 X72.512 Y68.5 E20.39495
G1 X72.22 Y68.681 E20.4081
G1 X70.73 Y69.134 E20.4677
G1 X69.605 Y69.316 E20.51131
G1 X68.578 Y69.227 E20.55076
G1 X66.662 Y68.677 E20.62705
G1 X65.798 Y68.237 E20.66415
G1 X65.275 Y68.239 E20.68417
G1 X64.028 Y68.617 E20.73403
G1 X62.407 Y68.779 E20.79638
G1 X62.433 Y69.268 E20.81512
G1 X62.282 Y71.972 E20.91876
G1 X61.488 Y73.639 E20.98943
G1 X61.102 Y74.136 E21.01351
G1 X60.998 Y74.643 E21.03332
G1 X60.845 Y75.969 E21.0844
G1 X60.73 Y76.486 E21.10467
G1 X60.652 Y77.649 E21.14928
G1 X60.499 Y78.433 E21.17984
G1 X60.498 Y79.21 E21.20958
G1 X60.317 Y80.045 E21.24228
G1 X60.231 Y81.219 E21.28733
G1 X60.137 Y81.749 E21.30793
G1 X60.085 Y82.839 E21.34969
G1 X59.923 Y83.919 E21.39148
G1 X59.796 Y85.04 E21.43466
G1 X59.674 Y85.639 E21.45805
G1 X59.639 Y86.673 E21.49765
G1 X59.42 Y87.515 E21.53094
G1 X59.381 Y88.281 E21.56029
G1 X59.227 Y89.237 E21.59735
G1 X59.218 Y90.186 E21.63367
G1 X59.023 Y91.075 E21.6685
G1 X58.983 Y91.881 E21.69939
G1 X58.851 Y92.769 E21.73374
G1 X58.82 Y93.35 E21.75601
G1 X58.933 Y93.607 E21.76675
G1 X59.752 Y94.47 E21.81229
G1 X60.843 Y95.963 E21.88305
G1 X61.35 Y97.517 E21.94561
G1 X61.456 Y98.866 E21.99739
G1 X61.397 Y99.39 E22.01757
G1 X60.802 Y101.137 E22.0882
G1 X59.469 Y102.852 E22.17133
G1 X58.623 Y103.643 E22.21565
G1 X56.821 Y104.594 E22.29363
G1 X55.018 Y104.867 E22.36342
G1 X53.634 Y104.71 E22.41672
G1 X52.61 Y104.832 E22.45619
G1 X52.146 Y104.831 E22.47395
G1 X51.355 Y104.897 E22.50432
G1 X50.886 Y104.873 E22.52229
G1 X49.72 Y104.991 E22.56715
G1 X49.27 Y104.941 E22.58447
G1 X47.302 Y105.036 E22.65988
G1 X46.885 Y104.998 E22.6759
G1 X46.169 Y104.983 E22.70331
G1 X45.712 Y105.033 E22.7209
G1 X44.612 Y105.048 E22.763
G1 X43.659 Y105.286 E22.80059
G1 X41.469 Y105.535 E22.88494
G1 X39.379 Y104.96 E22.9679
G1 X38.187 Y104.108 E23.02397
G1 X36.736 Y102.718 E23.10087
G1 X35.9 Y101.426 E23.15976
G1 X35.41 Y99.767 E23.22597
G1 X35.406 Y97.134 E23.32673
G1 X36.016 Y95.349 E23.39892
G1 X36.927 Y94.126 E23.45728
G1 X38.659 Y92.414 E23.55048
G1 X40.428 Y91.698 E23.62352
G1 X41.219 Y91.606 E23.65399
G1 X41.079 Y88.835 E23.76017
G1 X40.977 Y87.418 E23.81454
G1 X40.989 Y87.136 E23.82534
G1 X40.888 Y85.703 E23.88032
G1 X40.901 Y85.426 E23.89093
G1 X40.785 Y83.883 E23.95015
G1 X40.089 Y83.594 E23.97899
G1 X38.471 Y82.207 E24.06055
G1 X37.686 Y81.123 E24.11177
G1 X37.524 Y80.741 E24.12765
G1 X37.125 Y80.729 E24.14293
G1 X35.783 Y80.401 E24.1958
G1 X34.368 Y79.516 E24.25967
G1 X34.265 Y79.418 E24.26511
G1 X33.534 Y78.358 E24.31439
G1 X33.014 Y77.237 E24.36168
G1 X32.876 Y76.093 E24.40577
G1 X32.863 Y74.583 E24.46356
G1 X32.798 Y74.106 E24.48199
G1 X32.674 Y73.739 E24.49681
G1 X32.248 Y72.948 E24.5312
G1 X31.703 Y71.596 E24.58698
G1 X31.621 Y69.889 E24.65238
G1 X31.47 Y68.924 E24.68976
G1 X31.411 Y67.646 E24.73873
G1 X31.607 Y66.81 E24.77159
G1 X31.512 Y66.613 E24.77996
G1 X31.155 Y65.607 E24.82081
G1 X31.156 Y64.933 E24.8466
