;FLAVOR:Marlin
;TIME:3433
;Filament used: 1.50869m
;Layer height: 0.13125
;MINX:7.175
;MINY:28.342
;MINZ:0.263
;MAXX:41.642
;MAXY:97.184
;MAXZ:33.406
;TARGET_MACHINE.NAME:Monoprice Select Mini V2
;Generated with Cura_SteamEngine 5.7.2
M140 S65
M105
M190 S65
M104 S205
M105
M109 S205
M82 ;absolute extrusion mode
G21;(metric values)
G90;(absolute positioning)
M82;(set extruder to absolute mode)
M107;(start with the fan off)
G28;(Home the printer)
G92 E0;(Reset the extruder to 0)
G0 Z5 E5 F500;(Move up and prime the nozzle)
G0 X-1 Z0;(Move outside the printable area)
G1 Y60 E8 F500;(Draw a priming/wiping line to the rear)
G1 X-1;(Move a little closer to the print area)
G1 Y10 E16 F500;(draw more priming/wiping)
G1 E15 F250;(Small retract)
G92 E0;(Zero the extruder)
G92 E0
G92 E0
G1 F2400 E-2.5
;LAYER_COUNT:254
;LAYER:0
M107
G0 F4320 X15.46 Y37.061 Z0.263
;TYPE:SKIRT
G1 F2400 E0
G1 F1800 X19.501 Y35.926 E0.16063
G1 X21.063 Y35.874 E0.22044
G1 X25.31 Y37.065 E0.38925
G1 X26.704 Y37.904 E0.45151
G1 X29.653 Y41.098 E0.61788
G1 X30.258 Y42.044 E0.66085
G1 X31.443 Y46.086 E0.82205
G1 X31.494 Y47.67 E0.8827
G1 X30.316 Y51.868 E1.04956
G1 X29.641 Y53.096 E1.10319
G1 X26.612 Y56.119 E1.26696
G1 X26.954 Y56.629 E1.29046
G1 X28.051 Y60.381 E1.44006
G1 X28.1 Y61.929 E1.49934
G1 X28.076 Y62.076 E1.50504
G1 X30.017 Y61.543 E1.58207
G1 X31.619 Y61.359 E1.64378
G1 X35.779 Y62.528 E1.80915
G1 X37.137 Y63.347 E1.86984
G1 X39.834 Y66.243 E2.02129
G1 X40.493 Y67.248 E2.06728
G1 X41.58 Y70.96 E2.2153
G1 X41.642 Y72.551 E2.27624
G1 X40.546 Y76.463 E2.43171
G1 X39.777 Y77.774 E2.48988
G1 X37.158 Y80.38 E2.63127
G1 X35.874 Y81.198 E2.68954
G1 X31.596 Y82.382 E2.85941
G1 X30.291 Y82.228 E2.9097
G1 X29.815 Y83.102 E2.94779
G1 X29.607 Y83.323 E2.9594
G1 X30.351 Y85.863 E3.06069
G1 X30.402 Y87.447 E3.12134
G1 X29.316 Y91.317 E3.27517
G1 X28.641 Y92.545 E3.32879
G1 X25.819 Y95.367 E3.48153
G1 X24.532 Y96.13 E3.53878
G1 X20.741 Y97.184 E3.68937
G1 X19.09 Y97.181 E3.75255
G1 X15.45 Y96.116 E3.8977
G1 X14.156 Y95.343 E3.95538
G1 X11.365 Y92.552 E4.10643
G1 X10.594 Y91.263 E4.16391
G1 X9.576 Y87.794 E4.30227
G1 X9.475 Y86.086 E4.36775
G1 X10.434 Y82.819 E4.49805
G1 X9.876 Y81.885 E4.53969
G1 X9.2 Y79.584 E4.63147
G1 X9.19 Y78.121 E4.68746
G1 X9.243 Y77.732 E4.70249
G1 X9.229 Y76.92 E4.73357
G1 X9.894 Y74.667 E4.82347
G1 X10.314 Y73.603 E4.86724
G1 X11.12 Y72.266 E4.92699
G1 X12.467 Y71.282 E4.99083
G1 X12.49 Y70.198 E5.03232
G1 X11.443 Y69.435 E5.0819
G1 X9.072 Y67.085 E5.20966
G1 X8.297 Y65.791 E5.26738
G1 X7.276 Y62.313 E5.4061
G1 X7.175 Y60.601 E5.47173
G1 X8.334 Y56.764 E5.62513
G1 X8.889 Y55.68 E5.67173
G1 X11.298 Y53.137 E5.80579
G1 X11.197 Y53.019 E5.81173
G1 X10.469 Y51.801 E5.86604
G1 X9.358 Y48.016 E6.017
G1 X9.257 Y46.306 E6.08255
G1 X10.508 Y42.155 E6.24847
G1 X11.063 Y41.071 E6.29508
G1 X14.068 Y37.898 E6.46232
G1 X14.866 Y37.418 E6.49796
G0 F1620 X15.46 Y37.061
G0 F4320 X15.599 Y37.386
G1 F1800 X19.555 Y36.275 E6.65521
G1 X21.022 Y36.226 E6.71139
G1 X25.17 Y37.389 E6.87625
G1 X26.48 Y38.177 E6.93476
G1 X29.358 Y41.287 E7.09692
G1 X29.937 Y42.192 E7.13803
G1 X31.094 Y46.141 E7.29551
G1 X31.142 Y47.627 E7.35241
G1 X29.99 Y51.733 E7.51562
G1 X29.356 Y52.887 E7.56601
G1 X26.403 Y55.84 E7.72583
G1 X26.123 Y56.019 E7.73855
G1 X26.634 Y56.78 E7.77363
G1 X27.702 Y60.436 E7.91939
G1 X27.75 Y61.94 E7.97698
G1 X27.568 Y62.579 E8.0024
G1 X30.11 Y61.881 E8.10329
G1 X31.591 Y61.715 E8.16032
G1 X35.638 Y62.852 E8.32119
G1 X36.914 Y63.622 E8.37823
G1 X39.541 Y66.435 E8.52553
G1 X40.172 Y67.397 E8.56956
G1 X41.232 Y71.016 E8.71387
G1 X41.29 Y72.511 E8.77113
G1 X40.222 Y76.324 E8.92267
G1 X39.498 Y77.558 E8.97742
G1 X36.937 Y80.106 E9.11568
G1 X35.73 Y80.875 E9.17045
G1 X31.571 Y82.026 E9.33559
G1 X30.098 Y81.852 E9.39236
G1 X29.531 Y82.893 E9.43772
G1 X29.215 Y83.229 E9.45538
G1 X30.002 Y85.918 E9.5626
G1 X30.05 Y87.404 E9.6195
G1 X28.99 Y91.182 E9.76967
G1 X28.356 Y92.336 E9.82006
G1 X25.606 Y95.086 E9.96889
G1 X24.392 Y95.806 E10.02291
G1 X20.694 Y96.834 E10.1698
G1 X19.14 Y96.831 E10.22927
G1 X15.589 Y95.792 E10.37086
G1 X14.372 Y95.065 E10.42511
G1 X11.644 Y92.337 E10.57276
G1 X10.918 Y91.123 E10.62689
G1 X9.922 Y87.731 E10.76218
G1 X9.828 Y86.128 E10.82364
G1 X10.813 Y82.771 E10.95752
G1 X10.2 Y81.745 E11.00326
G1 X9.55 Y79.531 E11.09157
G1 X9.537 Y78.169 E11.1437
G1 X9.594 Y77.754 E11.15973
G1 X9.58 Y76.968 E11.18981
G1 X10.22 Y74.796 E11.27647
G1 X10.64 Y73.732 E11.32024
G1 X11.382 Y72.508 E11.37502
G1 X12.591 Y71.625 E11.43232
G1 X12.867 Y71.481 E11.44423
G1 X12.819 Y71.203 E11.45503
G1 X12.841 Y70.172 E11.49449
G1 X12.872 Y70.013 E11.50069
G1 X12.751 Y69.955 E11.50583
G1 X11.689 Y69.186 E11.55601
G1 X9.349 Y66.867 E11.68208
G1 X8.621 Y65.651 E11.73632
G1 X7.623 Y62.25 E11.87197
G1 X7.528 Y60.643 E11.93357
G1 X8.646 Y56.924 E12.08219
G1 X9.179 Y55.883 E12.12695
G1 X11.781 Y53.137 E12.27172
G1 X11.497 Y52.839 E12.28748
G1 X10.793 Y51.661 E12.34
G1 X9.705 Y47.953 E12.48788
G1 X9.61 Y46.348 E12.54941
G1 X10.82 Y42.315 E12.71055
G1 X11.353 Y41.274 E12.75531
G1 X14.29 Y38.173 E12.91877
G1 X15.005 Y37.743 E12.9507
G0 F1620 X15.599 Y37.386
G0 F4320 X15.738 Y37.711
G1 F1800 X19.609 Y36.624 E13.10457
G1 X20.98 Y36.578 E13.15707
G1 X25.031 Y37.714 E13.31808
G1 X26.256 Y38.45 E13.37277
G1 X29.063 Y41.476 E13.53073
G1 X29.616 Y42.34 E13.56999
G1 X30.745 Y46.196 E13.72375
G1 X30.79 Y47.585 E13.77693
G1 X29.665 Y51.597 E13.9364
G1 X29.071 Y52.678 E13.9836
G1 X26.156 Y55.593 E14.14136
G1 X25.626 Y55.907 E14.16494
G1 X26.314 Y56.931 E14.21215
G1 X27.353 Y60.491 E14.35408
G1 X27.398 Y61.896 E14.40787
G1 X27.06 Y63.082 E14.45507
G1 X30.203 Y62.219 E14.5798
G1 X31.562 Y62.071 E14.63212
G1 X35.497 Y63.176 E14.78854
G1 X36.692 Y63.897 E14.84195
G1 X39.285 Y66.674 E14.98735
G1 X39.851 Y67.545 E15.0271
G1 X40.884 Y71.072 E15.16775
G1 X40.938 Y72.471 E15.22133
G1 X39.898 Y76.185 E15.36893
G1 X39.219 Y77.342 E15.42027
G1 X36.716 Y79.832 E15.55539
G1 X35.586 Y80.552 E15.60667
G1 X31.546 Y81.67 E15.76709
G1 X30.159 Y81.508 E15.82053
G1 X29.88 Y81.429 E15.83163
G1 X29.805 Y81.659 E15.84089
G1 X29.224 Y82.726 E15.88738
G1 X28.821 Y83.129 E15.90919
G1 X29.653 Y85.973 E16.02259
G1 X29.698 Y87.362 E16.07578
G1 X28.665 Y91.046 E16.2222
G1 X28.071 Y92.127 E16.26941
G1 X25.391 Y94.807 E16.41445
G1 X24.254 Y95.481 E16.46504
G1 X20.647 Y96.484 E16.60831
G1 X19.19 Y96.481 E16.66407
G1 X15.728 Y95.468 E16.80212
G1 X14.588 Y94.787 E16.85294
G1 X11.923 Y92.122 E16.99717
G1 X11.242 Y90.983 E17.04796
G1 X10.269 Y87.668 E17.18018
G1 X10.181 Y86.17 E17.2376
G1 X11.192 Y82.723 E17.37508
G1 X10.523 Y81.604 E17.42497
G1 X9.9 Y79.479 E17.50972
G1 X9.884 Y78.216 E17.55806
G1 X9.944 Y77.775 E17.57509
G1 X9.931 Y77.016 E17.60414
G1 X10.546 Y74.925 E17.68755
G1 X10.966 Y73.861 E17.73133
G1 X11.645 Y72.749 E17.78119
G1 X12.797 Y71.908 E17.83578
G1 X13.265 Y71.673 E17.85582
G1 X13.169 Y71.21 E17.87391
G1 X13.191 Y70.179 E17.91338
G1 X13.293 Y69.785 E17.92895
G1 X12.955 Y69.671 E17.94261
G1 X11.935 Y68.937 E17.9907
G1 X9.626 Y66.649 E18.1151
G1 X8.945 Y65.511 E18.16585
G1 X7.97 Y62.187 E18.29842
G1 X7.881 Y60.684 E18.35604
G1 X8.958 Y57.084 E18.49985
G1 X9.469 Y56.086 E18.54275
G1 X12.071 Y53.34 E18.68753
G1 X12.316 Y53.178 E18.69877
G1 X11.797 Y52.659 E18.72686
G1 X11.116 Y51.52 E18.77764
G1 X10.052 Y47.891 E18.92237
G1 X9.963 Y46.389 E18.97995
G1 X11.132 Y42.475 E19.13628
G1 X11.643 Y41.477 E19.17919
G1 X14.512 Y38.448 E19.33885
G1 X15.144 Y38.068 E19.36708
G0 F1620 X15.738 Y37.711
G0 F4320 X15.877 Y38.036
G1 F1800 X19.663 Y36.973 E19.51757
G1 X20.939 Y36.93 E19.56643
G1 X24.891 Y38.038 E19.7235
G1 X26.034 Y38.725 E19.77454
G1 X28.768 Y41.665 E19.92818
G1 X29.295 Y42.488 E19.96558
G1 X30.396 Y46.251 E20.11563
G1 X30.438 Y47.543 E20.1651
G1 X29.339 Y51.463 E20.32091
G1 X28.787 Y52.468 E20.36479
G1 X25.941 Y55.314 E20.51882
G1 X25.08 Y55.824 E20.55711
G1 X25.334 Y56.1 E20.57147
G1 X25.993 Y57.082 E20.61673
G1 X27.004 Y60.546 E20.75483
G1 X27.046 Y61.852 E20.80483
G1 X26.51 Y63.732 E20.87965
G1 X26.964 Y63.472 E20.89967
G1 X30.296 Y62.557 E21.0319
G1 X31.532 Y62.426 E21.07947
G1 X35.356 Y63.5 E21.23148
G1 X36.47 Y64.172 E21.28127
G1 X38.991 Y66.865 E21.42244
G1 X39.53 Y67.695 E21.46031
G1 X40.536 Y71.128 E21.59722
G1 X40.586 Y72.431 E21.64712
G1 X39.574 Y76.046 E21.79079
G1 X38.94 Y77.126 E21.83871
G1 X36.495 Y79.558 E21.97069
G1 X35.442 Y80.229 E22.01847
G1 X31.52 Y81.314 E22.17421
G1 X30.255 Y81.171 E22.22293
G1 X29.638 Y80.996 E22.24747
G1 X29.498 Y81.492 E22.26719
G1 X28.941 Y82.515 E22.31177
G1 X28.427 Y83.029 E22.33959
G1 X29.304 Y86.028 E22.45917
G1 X29.346 Y87.32 E22.50864
G1 X28.339 Y90.912 E22.6514
G1 X27.787 Y91.917 E22.69528
G1 X25.176 Y94.528 E22.8366
G1 X24.116 Y95.156 E22.88375
G1 X20.6 Y96.134 E23.02341
G1 X19.241 Y96.131 E23.07542
G1 X15.867 Y95.144 E23.20996
G1 X14.804 Y94.509 E23.25734
G1 X12.202 Y91.907 E23.39817
G1 X11.566 Y90.843 E23.44561
G1 X10.616 Y87.605 E23.57475
G1 X10.534 Y86.211 E23.62819
G1 X11.517 Y82.845 E23.76239
G1 X11.611 Y82.644 E23.77088
G1 X11.434 Y82.446 E23.78104
G1 X10.846 Y81.463 E23.82488
G1 X10.249 Y79.427 E23.90608
G1 X10.231 Y78.264 E23.95059
G1 X10.295 Y77.797 E23.96863
G1 X10.282 Y77.064 E23.99669
G1 X10.872 Y75.054 E24.07685
G1 X11.292 Y73.99 E24.12063
G1 X11.907 Y72.991 E24.16553
G1 X13.003 Y72.191 E24.21745
G1 X13.414 Y71.989 E24.23498
G1 X13.681 Y71.921 E24.24553
G1 X13.519 Y71.217 E24.27317
G1 X13.541 Y70.186 E24.31264
G1 X13.728 Y69.54 E24.33837
G1 X13.158 Y69.386 E24.36097
G1 X12.181 Y68.688 E24.40692
G1 X9.903 Y66.431 E24.52964
G1 X9.269 Y65.371 E24.57691
G1 X8.316 Y62.124 E24.70642
G1 X8.234 Y60.725 E24.76005
G1 X9.27 Y57.244 E24.89904
G1 X9.759 Y56.289 E24.9401
G1 X12.325 Y53.581 E25.08287
G1 X12.88 Y53.248 E25.10764
G1 X12.076 Y52.444 E25.15116
G1 X11.44 Y51.38 E25.1986
G1 X10.398 Y47.828 E25.34026
G1 X10.316 Y46.43 E25.39385
G1 X11.444 Y42.635 E25.54537
G1 X11.933 Y41.68 E25.58643
G1 X14.734 Y38.723 E25.7423
G1 X15.283 Y38.393 E25.76681
G0 F1620 X15.877 Y38.036
G0 F4320 X16.016 Y38.361
G1 F1800 X19.717 Y37.322 E25.91393
G1 X20.897 Y37.282 E25.95911
G1 X24.752 Y38.363 E26.11233
G1 X25.81 Y38.999 E26.15957
G1 X28.473 Y41.854 E26.30899
G1 X28.974 Y42.636 E26.34453
G1 X30.047 Y46.306 E26.49086
G1 X30.086 Y47.501 E26.53662
G1 X29.014 Y51.327 E26.68868
G1 X28.502 Y52.259 E26.72937
G1 X25.726 Y55.035 E26.87961
G1 X24.783 Y55.593 E26.92155
G1 X24.477 Y55.691 E26.93384
G1 X25.043 Y56.295 E26.96552
G1 X25.672 Y57.233 E27.00874
G1 X26.655 Y60.601 E27.14301
G1 X26.694 Y61.808 E27.18923
G1 X25.91 Y64.559 E27.2987
G1 X26.064 Y64.413 E27.30682
G1 X27.057 Y63.809 E27.3513
G1 X30.333 Y62.905 E27.48136
G1 X31.502 Y62.781 E27.52635
G1 X35.215 Y63.824 E27.67395
G1 X36.248 Y64.447 E27.72011
G1 X38.697 Y67.056 E27.85705
G1 X39.209 Y67.845 E27.89305
G1 X40.188 Y71.184 E28.02621
G1 X40.234 Y72.391 E28.07244
G1 X39.25 Y75.907 E28.21217
G1 X38.661 Y76.91 E28.25668
G1 X36.274 Y79.284 E28.38552
G1 X35.298 Y79.906 E28.42981
G1 X31.493 Y80.959 E28.5809
G1 X30.351 Y80.834 E28.62486
G1 X29.397 Y80.563 E28.66282
G1 X29.171 Y81.362 E28.6946
G1 X28.658 Y82.304 E28.73565
G1 X28.033 Y82.929 E28.76947
G1 X28.955 Y86.083 E28.89523
G1 X28.994 Y87.278 E28.94098
G1 X28.014 Y90.776 E29.08001
G1 X27.502 Y91.708 E29.1207
G1 X24.961 Y94.249 E29.25822
G1 X23.978 Y94.831 E29.30194
G1 X20.553 Y95.784 E29.438
G1 X19.292 Y95.781 E29.48626
G1 X16.006 Y94.82 E29.61728
G1 X15.02 Y94.231 E29.66123
G1 X12.48 Y91.691 E29.7987
G1 X11.891 Y90.705 E29.84266
G1 X10.963 Y87.542 E29.96881
G1 X10.887 Y86.252 E30.01826
G1 X11.853 Y82.943 E30.15018
G1 X12.035 Y82.581 E30.16569
G1 X11.734 Y82.266 E30.18236
G1 X11.17 Y81.323 E30.22441
G1 X10.598 Y79.373 E30.30218
G1 X10.578 Y78.311 E30.34283
G1 X10.645 Y77.819 E30.36184
G1 X10.633 Y77.112 E30.3889
G1 X11.208 Y75.153 E30.46703
G1 X11.59 Y74.173 E30.50728
G1 X12.168 Y73.234 E30.54948
G1 X13.209 Y72.474 E30.59881
G1 X13.564 Y72.305 E30.61385
G1 X14.172 Y72.172 E30.63767
G1 X14.006 Y71.794 E30.65347
G1 X13.87 Y71.18 E30.67754
G1 X13.89 Y70.239 E30.71356
G1 X14.164 Y69.295 E30.75118
G1 X13.311 Y69.065 E30.78499
G1 X12.385 Y68.403 E30.82855
G1 X10.18 Y66.213 E30.94748
G1 X9.593 Y65.231 E30.99127
G1 X8.663 Y62.061 E31.11769
G1 X8.587 Y60.768 E31.16726
G1 X9.582 Y57.404 E31.30152
G1 X10.049 Y56.492 E31.34073
G1 X12.547 Y53.856 E31.47971
G1 X13.444 Y53.318 E31.51974
G1 X12.354 Y52.228 E31.57873
G1 X11.765 Y51.242 E31.62269
G1 X10.745 Y47.765 E31.76136
G1 X10.669 Y46.473 E31.81089
G1 X11.756 Y42.795 E31.95766
G1 X12.223 Y41.883 E31.99688
G1 X14.956 Y38.998 E32.14896
G1 X15.422 Y38.718 E32.16976
G0 F1620 X16.016 Y38.361
G0 F4320 X16.155 Y38.686
G1 F1800 X19.771 Y37.671 E32.3135
G1 X20.855 Y37.634 E32.35501
G1 X24.613 Y38.688 E32.50437
G1 X25.586 Y39.273 E32.54782
G1 X28.178 Y42.043 E32.693
G1 X28.653 Y42.784 E32.72669
G1 X29.698 Y46.361 E32.8693
G1 X29.734 Y47.459 E32.91134
G1 X28.689 Y51.191 E33.05966
G1 X28.217 Y52.05 E33.09717
G1 X25.511 Y54.756 E33.24362
G1 X24.605 Y55.292 E33.28391
G1 X23.825 Y55.509 E33.31489
G1 X24.752 Y56.49 E33.36655
G1 X25.351 Y57.384 E33.40773
G1 X26.306 Y60.656 E33.53817
G1 X26.342 Y61.764 E33.5806
G1 X25.395 Y65.087 E33.71283
G1 X24.991 Y65.943 E33.74906
G1 X23.549 Y67.385 E33.8271
G1 X24.116 Y67.578 E33.85002
G1 X24.375 Y67.762 E33.86218
G1 X24.414 Y67.327 E33.8789
G1 X24.572 Y66.748 E33.90187
G1 X25.012 Y66.019 E33.93445
G1 X26.246 Y64.712 E34.00324
G1 X27.198 Y64.133 E34.04588
G1 X30.37 Y63.253 E34.17186
G1 X31.472 Y63.136 E34.21427
G1 X35.074 Y64.148 E34.35746
G1 X36.026 Y64.722 E34.4
G1 X38.403 Y67.246 E34.53269
G1 X38.887 Y67.992 E34.56672
G1 X39.84 Y71.241 E34.6963
G1 X39.882 Y72.351 E34.73881
G1 X38.926 Y75.768 E34.8746
G1 X38.382 Y76.694 E34.9157
G1 X36.053 Y79.01 E35.04139
G1 X35.154 Y79.583 E35.08219
G1 X31.465 Y80.604 E35.22868
G1 X30.447 Y80.497 E35.26785
G1 X29.156 Y80.13 E35.31922
G1 X28.844 Y81.232 E35.36305
G1 X28.375 Y82.093 E35.40057
G1 X27.612 Y82.856 E35.44186
G1 X27.696 Y83.022 E35.44898
G1 X28.606 Y86.138 E35.57321
G1 X28.642 Y87.236 E35.61526
G1 X27.689 Y90.64 E35.75054
G1 X27.217 Y91.499 E35.78805
G1 X24.746 Y93.97 E35.92178
G1 X23.84 Y94.506 E35.96207
G1 X20.506 Y95.434 E36.09451
G1 X19.343 Y95.431 E36.13902
G1 X16.145 Y94.496 E36.26653
G1 X15.236 Y93.953 E36.30705
G1 X12.758 Y91.475 E36.44117
G1 X12.215 Y90.566 E36.48169
G1 X11.31 Y87.48 E36.60476
G1 X11.24 Y86.293 E36.65027
G1 X12.189 Y83.041 E36.77991
G1 X12.465 Y82.517 E36.80258
G1 X12.034 Y82.086 E36.8259
G1 X11.494 Y81.183 E36.86617
G1 X10.947 Y79.319 E36.94051
G1 X10.925 Y78.359 E36.97726
G1 X10.996 Y77.842 E36.99723
G1 X10.984 Y77.16 E37.02334
G1 X11.544 Y75.252 E37.09944
G1 X11.888 Y74.356 E37.13617
G1 X12.429 Y73.477 E37.17567
G1 X13.415 Y72.757 E37.22239
G1 X13.677 Y72.639 E37.23339
G1 X14.671 Y72.421 E37.27233
G1 X14.348 Y71.718 E37.30194
G1 X14.221 Y71.144 E37.32444
G1 X14.239 Y70.292 E37.35705
G1 X14.502 Y69.388 E37.39308
G1 X14.73 Y69.01 E37.40997
G1 X14.391 Y68.994 E37.42296
G1 X13.461 Y68.743 E37.45983
G1 X12.632 Y68.155 E37.49872
G1 X10.458 Y65.996 E37.61598
G1 X9.917 Y65.09 E37.65636
G1 X9.01 Y61.998 E37.77968
G1 X8.94 Y60.81 E37.82522
G1 X9.894 Y57.564 E37.9547
G1 X10.339 Y56.695 E37.99206
G1 X12.769 Y54.131 E38.12725
G1 X13.704 Y53.57 E38.16898
G1 X14.073 Y53.453 E38.1838
G1 X12.632 Y52.012 E38.26179
G1 X12.089 Y51.103 E38.30231
G1 X11.092 Y47.703 E38.43791
G1 X11.022 Y46.515 E38.48345
G1 X12.068 Y42.955 E38.62545
G1 X12.513 Y42.086 E38.66281
G1 X15.178 Y39.273 E38.81111
G1 X15.561 Y39.043 E38.8282
G0 F1620 X16.155 Y38.686
G0 F4320 X16.294 Y39.011
