;FLAVOR:Marlin
;TIME:2260
;Filament used: 0.938457m
;Layer height: 0.13125
;MINX:28.702
;MINY:24.929
;MINZ:0.263
;MAXX:92.479
;MAXY:94.718
;MAXZ:16.507
;TARGET_MACHINE.NAME:Monoprice Select Mini V2
;Generated with Cura_SteamEngine 5.7.2
M140 S65
M105
M190 S65
M104 S205
M105
M109 S205
M82 ;absolute extrusion mode
G21;(metric values)
G90;(absolute positioning)
M82;(set extruder to absolute mode)
M107;(start with the fan off)
G28;(Home the printer)
G92 E0;(Reset the extruder to 0)
G0 Z5 E5 F500;(Move up and prime the nozzle)
G0 X-1 Z0;(Move outside the printable area)
G1 Y60 E8 F500;(Draw a priming/wiping line to the rear)
G1 X-1;(Move a little closer to the print area)
G1 Y10 E16 F500;(draw more priming/wiping)
G1 E15 F250;(Small retract)
G92 E0;(Zero the extruder)
G92 E0
G92 E0
G1 F2400 E-2.5
;LAYER_COUNT:125
;LAYER:0
M107
G0 F4320 X42.094 Y28.377 Z0.263
;TYPE:SKIRT
G1 F2400 E0
G1 F1800 X43.142 Y27.2 E0.06031
G1 X43.874 Y26.596 E0.09663
G1 X45.752 Y25.778 E0.17502
G1 X47.26 Y25.355 E0.23496
G1 X48.238 Y25.332 E0.2724
G1 X49.184 Y25.282 E0.30865
G1 X50.598 Y25.323 E0.36279
G1 X51.065 Y25.397 E0.38089
G1 X52.072 Y25.351 E0.41946
G1 X52.933 Y25.43 E0.45255
G1 X53.544 Y25.411 E0.47595
G1 X53.911 Y25.444 E0.49005
G1 X54.424 Y25.333 E0.51014
G1 X56.063 Y24.929 E0.57474
G1 X56.947 Y24.936 E0.60857
G1 X58.76 Y25.227 E0.67884
G1 X60.224 Y26.051 E0.74313
G1 X61.214 Y26.797 E0.79057
G1 X62.244 Y27.863 E0.8473
G1 X63.019 Y29.233 E0.90754
G1 X63.368 Y30.788 E0.96853
G1 X63.546 Y32.828 E1.04689
G1 X63.484 Y33.459 E1.07116
G1 X62.854 Y35.325 E1.14653
G1 X61.854 Y36.757 E1.21337
G1 X61.224 Y37.274 E1.24456
G1 X61.314 Y37.885 E1.2682
G1 X61.336 Y38.642 E1.29718
G1 X61.56 Y39.672 E1.33752
G1 X61.558 Y40.652 E1.37502
G1 X61.706 Y41.483 E1.40733
G1 X61.753 Y42.118 E1.4317
G1 X62.008 Y43.045 E1.46849
G1 X62.011 Y44.011 E1.50546
G1 X62.142 Y44.946 E1.54159
G1 X62.197 Y45.934 E1.57946
G1 X62.506 Y47.478 E1.63972
G1 X62.569 Y48.786 E1.68984
G1 X61.934 Y50.638 E1.76476
G1 X61.479 Y51.183 E1.79193
G1 X62.022 Y51.439 E1.81491
G1 X62.437 Y51.834 E1.83683
G1 X63.157 Y51.914 E1.86456
G1 X63.837 Y52.073 E1.89128
G1 X64.971 Y52.176 E1.93486
G1 X65.868 Y51.941 E1.97035
G1 X67.356 Y51.896 E2.02732
G1 X67.249 Y51.097 E2.05817
G1 X67.736 Y48.603 E2.15542
G1 X68.815 Y46.571 E2.24346
G1 X70.545 Y44.945 E2.33432
G1 X72.53 Y44.034 E2.41791
G1 X74.532 Y43.712 E2.49551
G1 X75.894 Y43.705 E2.54763
G1 X78.363 Y44.469 E2.64654
G1 X79.421 Y45.088 E2.69345
G1 X80.316 Y45.935 E2.74061
G1 X81.206 Y47.308 E2.80323
G1 X81.553 Y48.428 E2.8481
G1 X82.385 Y50.071 E2.91858
G1 X82.621 Y51.249 E2.96456
G1 X82.68 Y52.371 E3.00756
G1 X82.832 Y53.142 E3.03763
G1 X84.049 Y52.811 E3.0859
G1 X86.469 Y52.968 E3.1787
G1 X88.238 Y53.521 E3.24964
G1 X89.981 Y54.558 E3.32725
G1 X91.676 Y56.818 E3.43537
G1 X92.276 Y58.412 E3.50055
G1 X92.479 Y59.358 E3.53757
G1 X92.371 Y61.31 E3.61239
G1 X91.562 Y63.226 E3.69198
G1 X90.858 Y64.406 E3.74457
G1 X89.527 Y65.696 E3.8155
G1 X88.194 Y66.491 E3.8749
G1 X86.257 Y67.096 E3.95256
G1 X83.792 Y67.135 E4.04691
G1 X82.837 Y66.833 E4.08524
G1 X82.656 Y67.654 E4.11742
G1 X82.568 Y69.101 E4.17289
G1 X82.206 Y70.385 E4.22395
G1 X81.755 Y71.134 E4.25741
G1 X81.1 Y72.785 E4.32538
G1 X80.61 Y73.687 E4.36467
G1 X79.532 Y74.854 E4.42547
G1 X78.318 Y75.53 E4.47864
G1 X76.11 Y76.237 E4.56737
G1 X74.666 Y76.339 E4.62277
G1 X72.431 Y75.947 E4.70961
G1 X70.482 Y74.978 E4.79291
G1 X68.826 Y73.448 E4.87919
G1 X67.755 Y71.45 E4.96595
G1 X67.255 Y68.959 E5.06318
G1 X67.399 Y67.974 E5.10127
G1 X66.206 Y68.104 E5.1472
G1 X65.106 Y67.865 E5.19028
G1 X63.99 Y67.925 E5.23305
G1 X62.863 Y68.138 E5.27694
G1 X62.436 Y68.176 E5.29335
G1 X61.871 Y68.624 E5.32094
G1 X61.251 Y68.908 E5.34704
G1 X61.623 Y69.349 E5.36912
G1 X61.975 Y70.078 E5.4001
G1 X62.389 Y71.458 E5.45524
G1 X62.341 Y73.344 E5.52744
G1 X62.187 Y74.309 E5.56484
G1 X62.132 Y74.886 E5.58702
G1 X62.024 Y75.754 E5.6205
G1 X61.969 Y76.895 E5.66421
G1 X61.817 Y77.964 E5.70553
G1 X61.729 Y78.711 E5.73432
G1 X61.585 Y79.758 E5.77477
G1 X61.516 Y80.528 E5.80435
G1 X61.375 Y81.406 E5.83838
G1 X61.261 Y82.599 E5.88425
G1 X61.145 Y83.196 E5.90752
G1 X61.072 Y84.213 E5.94654
G1 X61.15 Y84.465 E5.95664
G1 X61.774 Y85.273 E5.99571
G1 X62.484 Y86.903 E6.06375
G1 X62.515 Y88.894 E6.13995
G1 X61.999 Y90.285 E6.19673
G1 X61.233 Y91.395 E6.24834
G1 X60.026 Y92.686 E6.31598
G1 X58.9 Y93.475 E6.3686
G1 X57.351 Y94.038 E6.43167
G1 X56.036 Y94.357 E6.48346
G1 X55.436 Y94.405 E6.50649
G1 X54.66 Y94.549 E6.5367
G1 X54.075 Y94.521 E6.55911
G1 X53.216 Y94.596 E6.59211
G1 X52.964 Y94.592 E6.60176
G1 X51.334 Y94.677 E6.66422
G1 X50.798 Y94.644 E6.68477
G1 X49.718 Y94.718 E6.7262
G1 X48.523 Y94.669 E6.77197
G1 X47.967 Y94.677 E6.79325
G1 X46.776 Y94.505 E6.8393
G1 X45.217 Y94.027 E6.90171
G1 X43.877 Y93.378 E6.95869
G1 X43.147 Y92.855 E6.99305
G1 X41.658 Y91.113 E7.08076
G1 X40.99 Y88.983 E7.16619
G1 X40.923 Y87.258 E7.23225
G1 X41.586 Y85.213 E7.31452
G1 X41.925 Y84.575 E7.34217
G1 X43.42 Y82.835 E7.42997
G1 X44.425 Y82.34 E7.47284
G1 X44.373 Y81.025 E7.5232
G1 X44.309 Y80.165 E7.55621
G1 X44.259 Y79.027 E7.5998
G1 X44.217 Y78.392 E7.62415
G1 X43.349 Y77.789 E7.6646
G1 X42.635 Y76.862 E7.70938
G1 X41.69 Y76.666 E7.74632
G1 X40.41 Y75.931 E7.8028
G1 X39.556 Y75.148 E7.84714
G1 X38.729 Y73.824 E7.90688
G1 X38.426 Y72.749 E7.94963
G1 X37.376 Y71.299 E8.01814
G1 X36.59 Y68.894 E8.11497
G1 X36.433 Y67.524 E8.16774
G1 X36.586 Y65.86 E8.23169
G1 X37.085 Y64.644 E8.282
G1 X36.565 Y64.377 E8.30437
G1 X35.599 Y64.944 E8.34723
G1 X33.9 Y65.26 E8.41337
G1 X32.419 Y65.051 E8.47061
G1 X30.978 Y64.435 E8.53058
G1 X29.791 Y63.242 E8.59499
G1 X29.411 Y62.711 E8.61998
G1 X28.781 Y61.12 E8.68546
G1 X28.702 Y59.49 E8.74792
G1 X29.088 Y57.857 E8.81213
G1 X29.982 Y56.387 E8.87798
G1 X31.088 Y55.489 E8.9325
G1 X32.401 Y54.9 E8.98757
G1 X33.903 Y54.712 E9.0455
G1 X35.095 Y54.877 E9.09155
G1 X36.393 Y55.425 E9.14547
G1 X36.544 Y55.528 E9.15247
G1 X36.45 Y55.15 E9.16738
G1 X36.403 Y54.177 E9.20466
G1 X36.601 Y52.572 E9.26654
G1 X36.968 Y51.271 E9.31828
G1 X37.728 Y50.068 E9.37273
G1 X37.696 Y49.779 E9.38386
G1 X37.664 Y47.793 E9.45987
G1 X37.99 Y46.149 E9.52402
G1 X38.894 Y44.557 E9.59408
G1 X39.952 Y43.557 E9.64979
G1 X41.284 Y42.815 E9.70814
G1 X42.267 Y42.445 E9.74834
G1 X43.223 Y42.368 E9.78504
G1 X43.343 Y42.307 E9.7902
G1 X44.22 Y41.561 E9.83426
G1 X44.282 Y40.626 E9.87012
G1 X44.33 Y39.576 E9.91034
G1 X44.399 Y38.611 E9.94737
G1 X44.44 Y37.672 E9.98334
G1 X43.354 Y37.115 E10.03005
G1 X41.664 Y35.124 E10.12999
G1 X40.99 Y32.96 E10.21673
G1 X40.923 Y31.259 E10.28188
G1 X41.554 Y29.219 E10.3636
G1 X41.72 Y28.961 E10.37534
G0 F1620 X42.094 Y28.377
G0 F4320 X42.389 Y28.566
G1 F1800 X43.365 Y27.47 E10.4315
G1 X44.059 Y26.897 E10.46595
G1 X45.847 Y26.115 E10.54063
G1 X47.312 Y25.704 E10.59886
G1 X48.256 Y25.682 E10.635
G1 X49.202 Y25.632 E10.67125
G1 X50.543 Y25.669 E10.72259
G1 X51.046 Y25.749 E10.74208
G1 X52.04 Y25.7 E10.78017
G1 X52.921 Y25.781 E10.81403
G1 X53.513 Y25.76 E10.8367
G1 X53.93 Y25.797 E10.85272
G1 X54.508 Y25.673 E10.87534
G1 X56.105 Y25.279 E10.93829
G1 X56.892 Y25.282 E10.96841
G1 X58.645 Y25.563 E11.03635
G1 X60.013 Y26.331 E11.09639
G1 X61.003 Y27.077 E11.14383
G1 X61.961 Y28.074 E11.19675
G1 X62.688 Y29.359 E11.25325
G1 X63.026 Y30.865 E11.31232
G1 X63.197 Y32.858 E11.38887
G1 X63.14 Y33.383 E11.40908
G1 X62.537 Y35.167 E11.48115
G1 X61.594 Y36.518 E11.5442
G1 X60.849 Y37.13 E11.5811
G1 X60.964 Y37.895 E11.6107
G1 X60.987 Y38.685 E11.64095
G1 X61.21 Y39.709 E11.68106
G1 X61.208 Y40.685 E11.71841
G1 X61.361 Y41.544 E11.7518
G1 X61.407 Y42.181 E11.77624
G1 X61.658 Y43.095 E11.81251
G1 X61.661 Y44.039 E11.84864
G1 X61.795 Y44.995 E11.88559
G1 X61.85 Y45.981 E11.92338
G1 X62.156 Y47.495 E11.98249
G1 X62.216 Y48.737 E12.03008
G1 X61.624 Y50.463 E12.09991
G1 X60.92 Y51.307 E12.14197
G1 X61.822 Y51.732 E12.18013
G1 X62.282 Y52.169 E12.20441
G1 X63.077 Y52.255 E12.23501
G1 X63.782 Y52.42 E12.26272
G1 X64.553 Y52.489 E12.29235
G1 X65.057 Y52.516 E12.31166
G1 X65.92 Y52.29 E12.3458
G1 X67.354 Y52.244 E12.40071
G1 X67.772 Y52.361 E12.41732
G1 X67.603 Y51.105 E12.46582
G1 X68.069 Y48.722 E12.55875
G1 X69.096 Y46.787 E12.64258
G1 X70.744 Y45.239 E12.72911
G1 X72.631 Y44.373 E12.80857
G1 X74.588 Y44.058 E12.88443
G1 X75.843 Y44.055 E12.93246
G1 X78.22 Y44.791 E13.02768
G1 X79.209 Y45.37 E13.07154
G1 X80.045 Y46.161 E13.11559
G1 X80.886 Y47.459 E13.17478
G1 X81.227 Y48.559 E13.21885
G1 X82.051 Y50.185 E13.28861
G1 X82.271 Y51.267 E13.33087
G1 X82.331 Y52.409 E13.37463
G1 X82.52 Y53.367 E13.412
G1 X82.538 Y53.585 E13.42037
G1 X84.086 Y53.164 E13.48177
G1 X86.404 Y53.314 E13.57066
G1 X88.093 Y53.842 E13.63838
G1 X89.743 Y54.824 E13.71187
G1 X91.365 Y56.987 E13.81533
G1 X91.948 Y58.535 E13.87864
G1 X92.127 Y59.385 E13.91188
G1 X92.026 Y61.227 E13.98248
G1 X91.261 Y63.047 E14.05803
G1 X90.581 Y64.187 E14.10883
G1 X89.313 Y65.416 E14.17641
G1 X88.049 Y66.17 E14.23274
G1 X86.202 Y66.747 E14.30679
G1 X83.844 Y66.784 E14.39704
G1 X82.527 Y66.368 E14.4499
G1 X82.486 Y66.825 E14.46746
G1 X82.309 Y67.605 E14.49807
G1 X82.221 Y69.04 E14.55309
G1 X81.881 Y70.246 E14.60104
G1 X81.441 Y70.977 E14.63369
G1 X80.792 Y72.618 E14.70123
G1 X80.323 Y73.482 E14.73885
G1 X79.312 Y74.576 E14.79586
G1 X78.177 Y75.208 E14.84557
G1 X76.044 Y75.891 E14.93129
G1 X74.686 Y75.987 E14.98339
G1 X72.539 Y75.61 E15.06681
G1 X70.684 Y74.688 E15.14609
G1 X69.107 Y73.231 E15.22825
G1 X68.088 Y71.329 E15.31083
G1 X67.61 Y68.949 E15.40373
G1 X67.811 Y67.577 E15.4568
G1 X66.224 Y67.75 E15.51789
G1 X65.132 Y67.513 E15.56066
G1 X63.949 Y67.576 E15.60599
G1 X62.832 Y67.789 E15.64951
G1 X62.302 Y67.836 E15.66987
G1 X61.688 Y68.323 E15.69987
G1 X60.686 Y68.782 E15.74204
G1 X61.327 Y69.541 E15.78006
G1 X61.64 Y70.179 E15.80726
G1 X62.038 Y71.504 E15.86021
G1 X61.995 Y73.289 E15.92854
G1 X61.841 Y74.254 E15.96594
G1 X61.785 Y74.843 E15.98858
G1 X61.674 Y75.738 E16.02309
G1 X61.622 Y76.846 E16.06554
G1 X61.47 Y77.915 E16.10686
G1 X61.382 Y78.663 E16.13569
G1 X61.238 Y79.71 E16.17613
G1 X61.17 Y80.473 E16.20545
G1 X61.029 Y81.351 E16.23948
G1 X60.917 Y82.532 E16.28488
G1 X60.798 Y83.145 E16.30878
G1 X60.718 Y84.253 E16.35129
G1 X60.835 Y84.63 E16.3664
G1 X61.47 Y85.452 E16.40615
G1 X62.135 Y86.979 E16.46989
G1 X62.164 Y88.834 E16.54089
G1 X61.687 Y90.121 E16.59342
G1 X60.977 Y91.156 E16.64145
G1 X59.796 Y92.42 E16.70765
G1 X58.736 Y93.162 E16.75717
G1 X57.267 Y93.698 E16.81701
G1 X56.008 Y94.008 E16.86663
G1 X55.392 Y94.057 E16.89028
G1 X54.638 Y94.197 E16.91963
G1 X54.069 Y94.17 E16.94143
G1 X53.186 Y94.247 E16.97535
G1 X52.954 Y94.242 E16.98423
G1 X51.316 Y94.327 E17.047
G1 X50.796 Y94.293 E17.06695
G1 X49.736 Y94.368 E17.10761
G1 X49.101 Y94.336 E17.13194
G1 X48.525 Y94.319 E17.154
G1 X48.016 Y94.33 E17.17348
G1 X46.879 Y94.17 E17.21742
G1 X45.32 Y93.692 E17.27983
G1 X44.081 Y93.093 E17.33249
G1 X43.383 Y92.593 E17.36535
G1 X41.971 Y90.941 E17.44852
G1 X41.338 Y88.923 E17.52946
G1 X41.275 Y87.305 E17.59143
G1 X41.895 Y85.377 E17.66893
G1 X42.216 Y84.773 E17.69511
G1 X43.638 Y83.118 E17.77862
G1 X44.784 Y82.553 E17.82751
G1 X44.723 Y81.011 E17.88657
G1 X44.659 Y80.15 E17.91961
G1 X44.609 Y79.012 E17.96321
G1 X44.555 Y78.201 E17.99431
G1 X43.594 Y77.533 E18.0391
G1 X42.833 Y76.545 E18.08683
G1 X41.813 Y76.334 E18.12669
G1 X40.619 Y75.648 E18.17939
G1 X39.828 Y74.923 E18.22045
G1 X39.053 Y73.682 E18.27645
G1 X38.746 Y72.594 E18.31971
G1 X37.692 Y71.138 E18.3885
G1 X36.934 Y68.818 E18.4819
G1 X36.785 Y67.521 E18.53187
G1 X36.93 Y65.944 E18.59247
G1 X37.42 Y64.751 E18.64183
G1 X37.506 Y64.465 E18.65326
G1 X36.753 Y64.084 E18.68555
G1 X36.596 Y63.953 E18.69338
G1 X35.474 Y64.611 E18.74316
G1 X33.894 Y64.905 E18.80466
G1 X32.514 Y64.71 E18.858
G1 X31.178 Y64.139 E18.9136
G1 X30.076 Y63.038 E18.97322
G1 X29.719 Y62.539 E18.9967
G1 X29.128 Y61.047 E19.05811
G1 X29.054 Y59.523 E19.11651
G1 X29.417 Y57.99 E19.1768
G1 X30.249 Y56.622 E19.23807
G1 X31.276 Y55.788 E19.2887
G1 X32.496 Y55.24 E19.33989
G1 X33.898 Y55.065 E19.39396
G1 X35.004 Y55.218 E19.43669
G1 X36.257 Y55.747 E19.48874
G1 X36.677 Y56.084 E19.50934
G1 X36.995 Y55.862 E19.52419
G1 X36.8 Y55.133 E19.55307
G1 X36.753 Y54.16 E19.59035
G1 X36.938 Y52.667 E19.64792
G1 X37.291 Y51.415 E19.6977
G1 X38.091 Y50.149 E19.75501
G1 X38.046 Y49.773 E19.76951
G1 X38.015 Y47.823 E19.84414
G1 X38.322 Y46.273 E19.90461
G1 X39.173 Y44.774 E19.97058
G1 X40.16 Y43.842 E20.02253
G1 X41.407 Y43.143 E20.07724
G1 X42.345 Y42.79 E20.11559
G1 X43.319 Y42.711 E20.15299
G1 X43.536 Y42.602 E20.16229
G1 X44.296 Y41.954 E20.20051
G1 X44.557 Y41.774 E20.21264
G1 X44.632 Y40.642 E20.25606
G1 X44.679 Y39.601 E20.29594
G1 X44.749 Y38.627 E20.33331
G1 X44.8 Y37.464 E20.37786
G1 X43.577 Y36.836 E20.43047
G1 X41.976 Y34.95 E20.52515
G1 X41.338 Y32.902 E20.60724
G1 X41.275 Y31.303 E20.66848
G1 X41.873 Y29.371 E20.74588
G1 X42.015 Y29.15 E20.75593
G0 F1620 X42.389 Y28.566
G0 F4320 X42.684 Y28.755
G1 F1800 X43.588 Y27.74 E20.80795
G1 X44.246 Y27.197 E20.8406
G1 X45.942 Y26.452 E20.91149
G1 X47.364 Y26.053 E20.96801
G1 X48.274 Y26.032 E21.00285
G1 X49.22 Y25.982 E21.0391
G1 X50.488 Y26.015 E21.08764
G1 X51.028 Y26.101 E21.10857
G1 X52.008 Y26.049 E21.14613
G1 X52.911 Y26.132 E21.18083
G1 X53.482 Y26.109 E21.2027
G1 X53.949 Y26.151 E21.22064
G1 X54.592 Y26.013 E21.24581
G1 X56.148 Y25.629 E21.30715
G1 X56.837 Y25.628 E21.33352
G1 X58.527 Y25.899 E21.39902
G1 X59.802 Y26.611 E21.4549
G1 X60.792 Y27.357 E21.50234
G1 X61.678 Y28.285 E21.55145
G1 X62.357 Y29.485 E21.60421
G1 X62.684 Y30.942 E21.66136
G1 X62.848 Y32.887 E21.73606
G1 X62.808 Y33.271 E21.75083
G1 X62.22 Y35.009 E21.82105
G1 X61.334 Y36.279 E21.88031
G1 X60.567 Y36.909 E21.9183
G1 X60.497 Y37.149 E21.92786
G1 X60.614 Y37.905 E21.95714
G1 X60.638 Y38.728 E21.98865
G1 X60.86 Y39.747 E22.02856
G1 X60.858 Y40.713 E22.06553
G1 X61.012 Y41.569 E22.09882
G1 X61.06 Y42.239 E22.12452
G1 X61.308 Y43.141 E22.16032
G1 X61.311 Y44.067 E22.19576
G1 X61.448 Y45.044 E22.23352
G1 X61.503 Y46.03 E22.27131
G1 X61.806 Y47.512 E22.3292
G1 X61.863 Y48.688 E22.37426
G1 X61.314 Y50.288 E22.43899
G1 X60.361 Y51.431 E22.49595
G1 X61.622 Y52.025 E22.54929
G1 X62.127 Y52.505 E22.57595
G1 X62.997 Y52.596 E22.60943
G1 X63.727 Y52.767 E22.63812
G1 X64.532 Y52.839 E22.66905
G1 X65.093 Y52.869 E22.69055
G1 X65.972 Y52.639 E22.72533
G1 X67.365 Y52.594 E22.77866
G1 X68.084 Y52.833 E22.80766
G1 X68.125 Y52.363 E22.82571
G1 X67.958 Y51.117 E22.87383
G1 X68.403 Y48.838 E22.96269
G1 X69.377 Y47.003 E23.04219
G1 X70.943 Y45.533 E23.12439
G1 X72.732 Y44.712 E23.19972
G1 X74.644 Y44.404 E23.27384
G1 X75.792 Y44.405 E23.31777
G1 X78.076 Y45.112 E23.40927
G1 X79 Y45.653 E23.45025
G1 X79.773 Y46.384 E23.49096
G1 X80.566 Y47.61 E23.54684
G1 X80.901 Y48.69 E23.59012
G1 X81.717 Y50.299 E23.65916
G1 X81.921 Y51.285 E23.69769
G1 X81.982 Y52.45 E23.74234
G1 X82.171 Y53.396 E23.77926
G1 X82.224 Y54.033 E23.80372
G1 X84.123 Y53.517 E23.87903
G1 X86.339 Y53.66 E23.96401
G1 X87.948 Y54.163 E24.02853
G1 X89.505 Y55.09 E24.09787
G1 X91.056 Y57.158 E24.1968
G1 X91.605 Y58.607 E24.2561
G1 X91.775 Y59.416 E24.28774
G1 X91.68 Y61.146 E24.35405
G1 X90.96 Y62.868 E24.42548
G1 X90.304 Y63.968 E24.47449
G1 X89.099 Y65.136 E24.53871
G1 X87.904 Y65.849 E24.59197
G1 X86.147 Y66.398 E24.66241
G1 X83.896 Y66.433 E24.74857
G1 X82.425 Y65.968 E24.80761
G1 X82.212 Y65.965 E24.81576
G1 X82.137 Y66.793 E24.84758
G1 X81.962 Y67.553 E24.87743
G1 X81.874 Y68.979 E24.9321
G1 X81.557 Y70.105 E24.97687
G1 X81.129 Y70.816 E25.00863
