;FLAVOR:Marlin
;TIME:14705
;Filament used: 8.00753m
;Layer height: 0.13125
;MINX:0
;MINY:0
;MINZ:0.263
;MAXX:120
;MAXY:120
;MAXZ:4.979
;TARGET_MACHINE.NAME:Monoprice Select Mini V2
;Generated with Cura_SteamEngine 5.7.2
M140 S65
M105
M190 S65
M104 S205
M105
M109 S205
M82 ;absolute extrusion mode
G21;(metric values)
G90;(absolute positioning)
M82;(set extruder to absolute mode)
M107;(start with the fan off)
G28;(Home the printer)
G92 E0;(Reset the extruder to 0)
G0 Z5 E5 F500;(Move up and prime the nozzle)
G0 X-1 Z0;(Move outside the printable area)
G1 Y60 E8 F500;(Draw a priming/wiping line to the rear)
G1 X-1;(Move a little closer to the print area)
G1 Y10 E16 F500;(draw more priming/wiping)
G1 E15 F250;(Small retract)
G92 E0;(Zero the extruder)
G92 E0
G92 E0
G1 F2400 E-2.5
;LAYER_COUNT:37
;LAYER:0
M107
G0 F4320 X0.00 Y81.738 Z0.263
;TYPE:SKIRT
G1 F2400 E0
G1 F1800 X81.739 Y0.00 E4.42384
G0 F4320 X82.233 Y0.00
G1 F1800 X0.00 Y82.232 E8.87442
G0 F4320 X0.00 Y82.726
G1 F1800 X82.727 Y0.00 E13.35173
G0 F4320 X83.411 Y0.00
G1 F1800 X83.016 Y0.205 E13.36876
G1 X0.49 Y82.73 E17.8352
G0 F1620 X0.00 Y83.22
G0 F4320 X0.00 Y83.714
G1 F1800 X83.223 Y0.492 E22.33935
G1 X84.109 Y0.036 E22.37749
G0 F1620 X84.179 Y0.00
G1 F2400 E19.87749
G0 F4320 X89.205 Y0.00
G1 F2400 E22.37749
G1 F1800 X90.074 Y0.857 E22.4242
G1 X90.934 Y2.256 E22.48704
G1 X91.253 Y3.719 E22.54435
G1 X91.253 Y6.535 E22.65212
G1 X92.387 Y13.729 E22.93083
G1 X95.266 Y7.085 E23.20794
G1 X96.39 Y5.685 E23.27665
G1 X97.843 Y4.864 E23.34052
G1 X109.775 Y0.278 E23.82972
G0 F1620 X110.229 Y0.104
G0 X110.408 Y0.00
G0 F4320 X111.107 Y0.00
G1 F1800 X110.381 Y0.421 E23.86184
G1 X97.969 Y5.191 E24.37071
G1 X96.621 Y5.956 E24.43003
G1 X95.568 Y7.268 E24.49441
G1 X92.229 Y14.974 E24.81581
G1 X90.903 Y6.565 E25.1416
G1 X90.903 Y3.756 E25.2491
G1 X90.605 Y2.388 E25.30268
G1 X89.799 Y1.077 E25.36158
G1 X89.203 Y0.489 E25.39362
G0 F1620 X88.709 Y0.002
G0 F4320 X88.123 Y0.00
G1 F1800 X88.463 Y0.251 E25.40979
G1 X89.524 Y1.297 E25.46681
G1 X90.275 Y2.519 E25.5217
G1 X90.553 Y3.794 E25.57165
G1 X90.553 Y6.595 E25.67884
G1 X92.071 Y16.219 E26.0517
G1 X95.87 Y7.451 E26.4174
G1 X96.852 Y6.227 E26.47745
G1 X98.095 Y5.518 E26.53221
G1 X110.533 Y0.738 E27.04216
G1 X111.205 Y0.348 E27.07189
G0 F1620 X111.805 Y0.00
G0 F4320 X112.503 Y0.00
G1 F1800 X110.686 Y1.054 E27.15228
G1 X98.269 Y5.822 E27.66131
G1 X97.083 Y6.499 E27.71357
G1 X96.172 Y7.634 E27.76927
G1 X91.913 Y17.464 E28.17925
G1 X90.203 Y6.625 E28.59919
G1 X90.203 Y3.831 E28.70612
G1 X89.946 Y2.651 E28.75233
G1 X89.249 Y1.517 E28.80327
G1 X88.217 Y0.5 E28.85872
G1 X88.092 Y0.409 E28.86464
G0 F1620 X87.532 Y0.00
G0 F4320 X86.673 Y0.00
G1 F1800 X87.222 Y0.207 E28.8871
G1 X88.01 Y0.783 E28.92445
G1 X88.974 Y1.737 E28.97635
G1 X89.616 Y2.782 E29.02329
G1 X89.853 Y3.869 E29.06587
G1 X89.853 Y6.655 E29.17249
G1 X91.755 Y18.709 E29.6395
G1 X96.474 Y7.817 E30.09378
G1 X97.315 Y6.769 E30.1452
G1 X98.394 Y6.149 E30.19283
G1 X110.839 Y1.37 E30.703
G1 X112.601 Y0.348 E30.78096
G0 F1620 X113.201 Y0.00
G1 F2400 E28.28096
G0 F4320 X114.37 Y0.00
G1 F2400 E30.78096
G1 F1800 X113.403 Y0.288 E30.81957
G1 X110.992 Y1.686 E30.92623
G1 X98.519 Y6.476 E31.43756
G1 X97.546 Y7.04 E31.4806
G1 X96.776 Y8 E31.5277
G1 X91.597 Y19.954 E32.02626
G1 X89.503 Y6.685 E32.54035
G1 X89.503 Y3.906 E32.6467
G1 X89.287 Y2.914 E32.68556
G1 X88.699 Y1.957 E32.72854
G1 X87.764 Y1.032 E32.77888
G1 X87.055 Y0.518 E32.81239
G1 X86.231 Y0.207 E32.8461
G1 X85.356 Y0.086 E32.8799
G1 X84.285 Y0.335 E32.92198
G1 X83.43 Y0.779 E32.95885
G1 X0.49 Y83.718 E37.44769
G0 F1620 X0.00 Y84.208
G1 F2400 E34.94769
G0 F4320 X0.00 Y91.74
G1 F2400 E37.44769
G1 F1800 X9.061 Y94.651 E37.81191
G1 X10.153 Y94.825 E37.85423
G1 X10.851 Y94.77 E37.88102
G1 X12.397 Y94.361 E37.94223
G1 X13.514 Y93.572 E37.99456
G1 X16.551 Y90.576 E38.15782
G1 X16.626 Y90.619 E38.16113
G1 X15.639 Y91.65 E38.21575
G1 X15.15 Y92.871 E38.26609
G1 X10.748 Y113.299 E39.06581
G1 X10.961 Y115.056 E39.13355
G1 X11.657 Y116.604 E39.1985
G1 X11.805 Y116.793 E39.20769
G1 X13.116 Y117.99 E39.27563
G1 X14.301 Y118.5 E39.325
G1 X19.55 Y119.83 E39.53222
G0 F1620 X20.222 Y120
G1 F2400 E37.03222
G0 F4320 X21.645 Y120
G1 F2400 E39.53222
G1 F1800 X14.439 Y118.178 E39.81668
G1 X13.307 Y117.691 E39.86384
G1 X12.041 Y116.535 E39.92945
G1 X11.958 Y116.421 E39.93484
G1 X11.302 Y114.961 E39.9961
G1 X11.102 Y113.316 E40.05952
G1 X15.475 Y93.001 E40.85478
G1 X15.939 Y91.843 E40.90252
G1 X17.013 Y90.722 E40.96193
G1 X17.245 Y90.572 E40.9725
G1 X16.495 Y90.14 E41.00563
G1 X13.312 Y93.286 E41.1769
G1 X12.246 Y94.039 E41.22685
G1 X10.823 Y94.421 E41.28323
G1 X10.168 Y94.473 E41.30838
G1 X9.116 Y94.305 E41.34915
G1 X0.65 Y91.586 E41.68944
G0 F1620 X0.121 Y91.416
G0 X0.00 Y91.349
G1 F2400 E39.18944
G0 F4320 X25.064 Y120
G1 F2400 E41.68944
G1 F1800 X25.768 Y119.69 E41.71888
G1 X26.828 Y118.659 E41.77547
G1 X34.013 Y108.546 E42.25023
G1 X34.703 Y107.227 E42.3072
G1 X34.881 Y105.699 E42.36607
G1 X34.776 Y104.997 E42.39323
G1 X35.159 Y104.787 E42.40995
G1 X36.092 Y103.93 E42.45843
G1 X39.508 Y99.118 E42.68427
G1 X65.625 Y66.43 E44.28549
G1 X55.883 Y91.31 E45.30804
G1 X53.542 Y96.451 E45.52422
G1 X53.238 Y97.429 E45.56342
G1 X53.227 Y98.199 E45.59289
G1 X52.873 Y98.322 E45.60723
G1 X51.432 Y99.304 E45.67397
G1 X50.711 Y100.359 E45.72287
G1 X45.205 Y112.233 E46.22376
G1 X45.006 Y113.64 E46.27814
G1 X45.11 Y114.62 E46.31586
G1 X45.456 Y115.787 E46.36244
G1 X46.096 Y116.887 E46.41115
G1 X48.626 Y119.502 E46.55039
G0 F1620 X49.108 Y120
G0 F4320 X49.595 Y120
G1 F1800 X46.376 Y116.673 E46.72756
G1 X45.78 Y115.649 E46.7729
G1 X45.458 Y114.583 E46.81552
G1 X45.359 Y113.648 E46.8515
G1 X45.545 Y112.333 E46.90233
G1 X51 Y100.557 E47.399
G1 X51.685 Y99.555 E47.44545
G1 X53.07 Y98.611 E47.50959
G1 X53.573 Y98.462 E47.52967
G1 X53.587 Y97.486 E47.56702
G1 X53.861 Y96.596 E47.60266
G1 X56.202 Y91.455 E47.81885
G1 X66.792 Y64.409 E48.93041
G1 X39.223 Y98.915 E50.62068
G1 X35.829 Y103.696 E50.84506
G1 X34.922 Y104.529 E50.89219
G1 X34.392 Y104.799 E50.91495
G1 X34.528 Y105.703 E50.94994
G1 X34.362 Y107.123 E51.00465
G1 X33.728 Y108.343 E51.05727
G1 X26.584 Y118.408 E51.52962
G1 X25.568 Y119.396 E51.58386
G1 X24.832 Y119.721 E51.61465
G0 F1620 X24.197 Y120
G1 F2400 E49.11465
G0 F4320 X50.083 Y120
G1 F2400 E51.61465
G1 F1800 X46.658 Y116.461 E51.80312
G1 X46.102 Y115.505 E51.84545
G1 X45.806 Y114.546 E51.88386
G1 X45.712 Y113.656 E51.91811
G1 X45.885 Y112.433 E51.96538
G1 X51.289 Y100.755 E52.45782
G1 X51.938 Y99.806 E52.50182
G1 X53.267 Y98.9 E52.56338
G1 X53.919 Y98.737 E52.5891
G1 X53.936 Y97.542 E52.63484
G1 X54.18 Y96.741 E52.66688
G1 X56.521 Y91.6 E52.88306
G1 X67.959 Y62.388 E54.08365
G1 X38.938 Y98.712 E55.86295
G1 X35.566 Y103.462 E56.08588
G1 X34.72 Y104.239 E56.12984
G1 X34.009 Y104.601 E56.16038
G1 X34.175 Y105.707 E56.20318
G1 X34.021 Y107.019 E56.25373
G1 X33.442 Y108.141 E56.30205
G1 X26.34 Y118.157 E56.77194
G1 X25.368 Y119.102 E56.82383
G1 X24.073 Y119.673 E56.87799
G1 X23.303 Y119.824 E56.90802
G1 X22.262 Y119.795 E56.94787
G1 X14.577 Y117.856 E57.25119
G1 X13.498 Y117.392 E57.29614
G1 X12.277 Y116.277 E57.35942
G1 X11.642 Y114.865 E57.41867
G1 X11.456 Y113.333 E57.47773
G1 X15.8 Y93.131 E58.26853
G1 X16.239 Y92.036 E58.31368
G1 X17.266 Y90.964 E58.3705
G1 X17.942 Y90.57 E58.40044
G1 X16.438 Y89.703 E58.46688
G1 X13.11 Y93 E58.64616
G1 X12.095 Y93.717 E58.69372
G1 X10.732 Y94.083 E58.74773
G1 X10.184 Y94.121 E58.76875
G1 X9.171 Y93.959 E58.80801
G1 X0.637 Y91.214 E59.15108
G0 F1620 X0.228 Y91.083
G0 X0.00 Y90.949
G0 F4320 X0.00 Y90.544
G1 F1800 X0.335 Y90.75 E59.16613
G1 X9.226 Y93.613 E59.5236
G1 X10.204 Y93.769 E59.5615
G1 X10.641 Y93.745 E59.57825
G1 X11.944 Y93.395 E59.62988
G1 X12.908 Y92.714 E59.67505
G1 X16.381 Y89.266 E59.86234
G1 X18.639 Y90.568 E59.96209
G1 X17.486 Y91.24 E60.01316
G1 X16.539 Y92.229 E60.06556
G1 X16.125 Y93.261 E60.10812
G1 X11.81 Y113.35 E60.89446
G1 X11.983 Y114.77 E60.9492
G1 X12.565 Y116.066 E61.00357
G1 X13.693 Y117.095 E61.06201
G1 X14.715 Y117.535 E61.10459
G1 X22.307 Y119.446 E61.4042
G1 X23.276 Y119.473 E61.44129
G1 X23.967 Y119.337 E61.46825
G1 X25.168 Y118.808 E61.51847
G1 X26.096 Y117.906 E61.568
G1 X33.156 Y107.939 E62.03543
G1 X33.68 Y106.917 E62.07938
G1 X33.822 Y105.71 E62.12589
G1 X33.667 Y104.666 E62.16628
G1 X33.58 Y104.426 E62.17605
G1 X34.518 Y103.949 E62.21633
G1 X35.303 Y103.228 E62.25712
G1 X38.653 Y98.509 E62.47859
G1 X69.126 Y60.367 E64.34694
G1 X56.847 Y91.728 E65.63584
G1 X54.515 Y96.843 E65.85098
G1 X54.285 Y97.597 E65.88114
G1 X54.265 Y98.696 E65.92321
G1 X54.327 Y98.997 E65.93497
G1 X53.411 Y99.225 E65.97109
G1 X52.191 Y100.057 E66.02761
G1 X51.578 Y100.953 E66.06915
G1 X46.225 Y112.533 E66.55738
G1 X46.065 Y113.665 E66.60113
G1 X46.15 Y114.476 E66.63234
G1 X46.424 Y115.361 E66.66779
G1 X46.94 Y116.249 E66.7071
G1 X50.088 Y119.502 E66.88034
G0 F1620 X50.57 Y120
G0 F4320 X51.057 Y120
G1 F1800 X47.222 Y116.037 E67.09139
G1 X46.746 Y115.217 E67.12767
G1 X46.494 Y114.406 E67.16017
G1 X46.418 Y113.674 E67.18834
G1 X46.565 Y112.633 E67.22857
G1 X51.867 Y101.151 E67.71257
G1 X52.444 Y100.308 E67.75167
G1 X53.555 Y99.55 E67.80314
G1 X54.751 Y99.253 E67.8503
G1 X54.615 Y98.702 E67.87202
G1 X54.634 Y97.653 E67.91217
G1 X54.85 Y96.945 E67.9405
G1 X57.173 Y91.856 E68.15459
G1 X70.293 Y58.346 E69.5318
G1 X38.368 Y98.306 E71.48919
G1 X35.04 Y102.994 E71.70921
G1 X34.316 Y103.659 E71.74683
G1 X33.319 Y104.166 E71.78964
G1 X33.115 Y104.213 E71.79765
G1 X33.321 Y104.717 E71.81849
G1 X33.469 Y105.713 E71.85702
G1 X33.339 Y106.814 E71.89945
G1 X32.87 Y107.737 E71.93907
G1 X25.81 Y117.704 E72.40651
G1 X24.968 Y118.514 E72.45122
G1 X23.861 Y119.002 E72.49752
G1 X23.25 Y119.122 E72.52135
G1 X22.352 Y119.097 E72.55573
G1 X14.853 Y117.213 E72.85163
G1 X13.886 Y116.797 E72.89192
G1 X12.854 Y115.855 E72.94539
G1 X12.323 Y114.674 E72.99495
G1 X12.164 Y113.367 E73.04533
G1 X16.467 Y93.335 E73.82945
G1 X16.838 Y92.423 E73.86712
G1 X17.706 Y91.516 E73.91517
G1 X18.715 Y90.928 E73.95986
G1 X19.711 Y90.782 E73.99839
G1 X16.324 Y88.829 E74.14801
G1 X12.706 Y92.428 E74.34331
G1 X11.793 Y93.073 E74.38609
G1 X10.55 Y93.407 E74.43535
G1 X10.259 Y93.423 E74.4465
G1 X9.281 Y93.267 E74.4844
G1 X0.603 Y90.469 E74.83335
G0 F1620 X0.484 Y90.431
G0 X0.00 Y90.133
G0 F4320 X0.00 Y89.723
G1 F1800 X0.63 Y90.11 E74.86164
G1 X9.336 Y92.921 E75.21176
G1 X10.314 Y93.077 E75.24966
G1 X10.459 Y93.069 E75.25521
G1 X11.642 Y92.751 E75.30209
G1 X12.504 Y92.142 E75.34249
G1 X16.127 Y88.532 E75.53822
G1 X16.261 Y88.465 E75.54395
G1 X16.458 Y88.496 E75.55158
G1 X21.119 Y91.192 E75.75765
G1 X21.277 Y91.409 E75.76792
G1 X20.807 Y91.208 E75.78749
G1 X20.038 Y91.087 E75.81728
G1 X18.832 Y91.264 E75.86392
G1 X17.926 Y91.792 E75.90406
G1 X17.136 Y92.618 E75.9478
G1 X16.809 Y93.409 E75.98055
G1 X12.518 Y113.384 E76.76243
G1 X12.664 Y114.579 E76.80851
G1 X13.142 Y115.644 E76.85318
G1 X14.079 Y116.499 E76.90173
G1 X14.991 Y116.891 E76.93972
G1 X22.397 Y118.748 E77.23192
G1 X23.223 Y118.771 E77.26354
G1 X23.755 Y118.666 E77.28429
G1 X24.771 Y118.219 E77.32677
G1 X25.524 Y117.502 E77.36656
G1 X32.584 Y107.535 E77.834
G1 X32.998 Y106.712 E77.86925
G1 X33.116 Y105.716 E77.90764
G1 X32.975 Y104.769 E77.94428
G1 X32.61 Y103.925 E77.97947
G1 X33.16 Y103.854 E78.00069
G1 X34.114 Y103.369 E78.04165
G1 X34.777 Y102.76 E78.0761
G1 X38.083 Y98.103 E78.29467
G1 X71.46 Y56.325 E80.3411
G1 X57.496 Y91.991 E81.80692
G1 X55.185 Y97.047 E82.01967
G1 X54.983 Y97.709 E82.04616
G1 X54.965 Y98.708 E82.08439
G1 X55.211 Y99.609 E82.12014
G1 X54.881 Y99.582 E82.13281
G1 X53.699 Y99.875 E82.17941
G1 X52.697 Y100.559 E82.22584
G1 X52.156 Y101.349 E82.26248
G1 X46.905 Y112.733 E82.74226
G1 X46.771 Y113.683 E82.77898
G1 X46.838 Y114.336 E82.8041
G1 X47.068 Y115.073 E82.83365
G1 X47.504 Y115.825 E82.86691
G1 X51.062 Y119.502 E83.06273
G0 F1620 X51.544 Y120
G0 F4320 X52.031 Y120
G1 F1800 X47.785 Y115.612 E83.2964
G1 X47.391 Y114.932 E83.32648
G1 X47.182 Y114.264 E83.35326
G1 X47.124 Y113.693 E83.37523
G1 X47.245 Y112.833 E83.40846
G1 X52.474 Y101.496 E83.88626
G1 X52.949 Y100.81 E83.91819
G1 X53.843 Y100.2 E83.95961
G1 X54.965 Y99.922 E84.00385
G1 X55.928 Y100.084 E84.04122
G1 X55.562 Y99.566 E84.06549
G1 X55.316 Y98.663 E84.10131
G1 X55.332 Y97.765 E84.13568
G1 X55.52 Y97.149 E84.16033
G1 X57.821 Y92.123 E84.37187
G1 X72.627 Y54.304 E85.92617
G1 X37.798 Y97.9 E88.06164
G1 X34.514 Y102.526 E88.27875
G1 X33.912 Y103.079 E88.31003
G1 X33.001 Y103.542 E88.34914
G1 X32.018 Y103.622 E88.38688
G1 X31.508 Y103.519 E88.4068
G1 X31.587 Y103.367 E88.41335
G1 X32.263 Y104.004 E88.4489
G1 X32.636 Y104.866 E88.48484
G1 X32.763 Y105.719 E88.51785
G1 X32.657 Y106.612 E88.55226
G1 X32.298 Y107.333 E88.58309
G1 X25.258 Y117.272 E89.0492
G1 X24.573 Y117.924 E89.08539
G1 X23.649 Y118.33 E89.12402
G1 X23.196 Y118.42 E89.14169
G1 X22.447 Y118.399 E89.17037
G1 X15.129 Y116.569 E89.45905
G1 X14.27 Y116.2 E89.49483
G1 X13.432 Y115.435 E89.53826
G1 X13.004 Y114.483 E89.5782
G1 X12.872 Y113.4 E89.61995
G1 X17.132 Y93.543 E90.39717
G1 X17.434 Y92.813 E90.4274
G1 X18.146 Y92.068 E90.46684
G1 X18.949 Y91.6 E90.50241
G1 X20.035 Y91.441 E90.54442
G1 X20.753 Y91.554 E90.57223
G1 X21.687 Y91.98 E90.61152
G1 X21.895 Y92.123 E90.62118
G1 X22.246 Y92.524 E90.64157
G1 X22.101 Y92.609 E90.64801
G1 X21.644 Y91.354 E90.69912
G1 X21.505 Y91.09 E90.71054
G1 X21.335 Y90.913 E90.71993
G1 X16.583 Y88.164 E90.93003
G1 X16.31 Y88.107 E90.9407
G1 X16.157 Y88.126 E90.9466
G1 X15.921 Y88.243 E90.95668
G1 X12.302 Y91.856 E91.15238
G1 X11.491 Y92.429 E91.19039
G1 X10.368 Y92.731 E91.23489
G1 X9.444 Y92.588 E91.27067
G1 X0.776 Y89.789 E91.61926
G1 X0.591 Y89.675 E91.62758
G0 F1620 X0.00 Y89.312
G1 F2400 E89.12758
G0 F4320 X17.456 Y93.677
G1 F2400 E91.62758
G1 F1800 X17.733 Y93.006 E91.65536
G1 X18.366 Y92.344 E91.69041
G1 X19.066 Y91.936 E91.72142
G1 X20.032 Y91.795 E91.75878
G1 X20.654 Y91.893 E91.78288
G1 X21.542 Y92.298 E91.82023
G1 X21.66 Y92.386 E91.82586
G1 X22.164 Y92.963 E91.85518
G1 X22.407 Y93.447 E91.87591
G1 X23.959 Y97.724 E92.05003
G1 X24.156 Y98.175 E92.06887
G1 X24.551 Y98.761 E92.09591
G1 X25.168 Y99.318 E92.12772
G1 X30.388 Y103.032 E92.3729
G1 X31.322 Y103.599 E92.41471
G1 X31.971 Y104.21 E92.44882
G1 X32.297 Y104.963 E92.48023
G1 X32.41 Y105.722 E92.50959
G1 X32.316 Y106.512 E92.54004
G1 X32.012 Y107.131 E92.56643
G1 X24.992 Y117.042 E93.03123
G1 X24.375 Y117.629 E93.06382
G1 X23.508 Y118.01 E93.10007
G1 X23.206 Y118.07 E93.11185
G1 X22.496 Y118.05 E93.13903
G1 X15.214 Y116.229 E93.42629
G1 X14.461 Y115.901 E93.45773
G1 X13.721 Y115.225 E93.49608
G1 X13.345 Y114.388 E93.5312
G1 X13.226 Y113.416 E93.56868
G1 X17.311 Y94.355 E94.3147
G0 F1620 X17.456 Y93.677
G1 F2400 E91.8147
G0 F4320 X61.581 Y120
G1 F2400 E94.3147
G1 F1800 X73.524 Y109.232 E94.93011
G1 X74.358 Y108.058 E94.98522
G1 X74.777 Y106.781 E95.03665
G1 X74.81 Y106.8 E95.03811
G1 X73.681 Y111.01 E95.20492
G1 X73.632 Y112.587 E95.2653
G1 X74.249 Y114.32 E95.3357
G1 X75.153 Y115.444 E95.3909
G1 X79.662 Y119.534 E95.62387
G0 F1620 X80.175 Y120
G0 F4320 X80.695 Y120
G1 F1800 X75.426 Y115.225 E95.896
G1 X74.559 Y114.147 E95.94894
G1 X73.984 Y112.532 E96.01455
G1 X74.03 Y111.061 E96.07087
G1 X75.218 Y106.631 E96.2464
G1 X74.458 Y106.193 E96.27997
G1 X74.417 Y106.754 E96.3015
G1 X74.041 Y107.9 E96.34765
G1 X73.261 Y108.998 E96.3992
G1 X61.574 Y119.536 E97.00143
G0 F1620 X61.059 Y120
G0 F4320 X60.537 Y120
G1 F1800 X72.998 Y108.764 E97.64355
G1 X73.724 Y107.742 E97.69153
G1 X74.071 Y106.684 E97.73414
