;FLAVOR:Marlin
;TIME:13665
;Filament used: 6.00571m
;Layer height: 0.13125
;MINX:19.925
;MINY:19.925
;MINZ:0.263
;MAXX:100.075
;MAXY:100.075
;MAXZ:4.979
;TARGET_MACHINE.NAME:Monoprice Select Mini V2
;POSTPROCESSED
;  [PauseAtHeight]
;Generated with Cura_SteamEngine 5.7.2
M140 S65
M105
M190 S65
M104 S205
M105
M109 S205
M82 ;absolute extrusion mode
G21;(metric values)
G90;(absolute positioning)
M82;(set extruder to absolute mode)
M107;(start with the fan off)
G28;(Home the printer)
G92 E0;(Reset the extruder to 0)
G0 Z5 E5 F500;(Move up and prime the nozzle)
G0 X-1 Z0;(Move outside the printable area)
G1 Y60 E8 F500;(Draw a priming/wiping line to the rear)
G1 X-1;(Move a little closer to the print area)
G1 Y10 E16 F500;(draw more priming/wiping)
G1 E15 F250;(Small retract)
G92 E0;(Zero the extruder)
G92 E0
G92 E0
G1 F2400 E-2.5
;LAYER_COUNT:37
;LAYER:0
M107
G0 F4320 X22.959 Y22.398 Z0.263
;TYPE:SKIRT
G1 F2400 E0
G1 F1800 X24.135 Y21.482 E0.05705
G1 X24.768 Y21.114 E0.08507
G1 X26.352 Y20.461 E0.15064
G1 X27.681 Y20.129 E0.20306
G1 X28.984 Y19.96 E0.25334
G1 X29.782 Y19.925 E0.28391
G1 X90.23 Y19.925 E2.59725
G1 X91.063 Y19.963 E2.62917
G1 X92.851 Y20.239 E2.6984
G1 X93.948 Y20.555 E2.74209
G1 X94.902 Y20.957 E2.78171
G1 X96.603 Y22.015 E2.85837
G1 X97.307 Y22.641 E2.89443
G1 X98.512 Y24.129 E2.9677
G1 X98.879 Y24.76 E2.99564
G1 X99.605 Y26.544 E3.06935
G1 X99.829 Y27.442 E3.10477
G1 X100.04 Y28.982 E3.16425
G1 X100.075 Y29.782 E3.1949
G1 X100.075 Y90.23 E5.50824
G1 X100.037 Y91.063 E5.54015
G1 X99.762 Y92.849 E5.60931
G1 X99.45 Y93.933 E5.65248
G1 X99.009 Y94.981 E5.69599
G1 X98.071 Y96.486 E5.76386
G1 X97.397 Y97.261 E5.80316
G1 X95.891 Y98.488 E5.87751
G1 X94.683 Y99.154 E5.9303
G1 X94.003 Y99.428 E5.95835
G1 X92.196 Y99.892 E6.02975
G1 X91.016 Y100.04 E6.07526
G1 X90.218 Y100.075 E6.10583
G1 X29.77 Y100.075 E8.41917
G1 X28.937 Y100.037 E8.45109
G1 X27.161 Y99.765 E8.51985
G1 X26.05 Y99.446 E8.56408
G1 X25.134 Y99.068 E8.602
G1 X23.704 Y98.208 E8.66586
G1 X22.433 Y97.078 E8.73095
G1 X21.615 Y96.047 E8.78132
G1 X20.857 Y94.72 E8.8398
G1 X20.613 Y94.129 E8.86427
G1 X20.116 Y92.243 E8.93891
G1 X19.96 Y91.016 E8.98625
G1 X19.925 Y90.218 E9.01682
G1 X19.925 Y29.77 E11.33016
G1 X19.963 Y28.937 E11.36207
G1 X20.229 Y27.193 E11.42958
G1 X20.561 Y26.043 E11.47539
G1 X21.121 Y24.766 E11.52876
G1 X21.841 Y23.636 E11.58003
G1 X22.494 Y22.913 E11.61732
G0 F1620 X22.959 Y22.398
G0 F4320 X23.219 Y22.633
G1 F1800 X24.311 Y21.785 E11.67023
G1 X24.944 Y21.417 E11.69825
G1 X26.437 Y20.801 E11.76006
G1 X27.766 Y20.469 E11.81248
G1 X28.999 Y20.31 E11.86006
G1 X29.797 Y20.275 E11.89063
G1 X90.214 Y20.275 E14.20278
G1 X91.047 Y20.313 E14.2347
G1 X92.755 Y20.576 E14.30083
G1 X93.812 Y20.878 E14.3429
G1 X94.766 Y21.28 E14.38252
G1 X96.37 Y22.277 E14.4548
G1 X97.074 Y22.903 E14.49085
G1 X98.209 Y24.305 E14.55988
G1 X98.576 Y24.936 E14.58782
G1 X99.265 Y26.629 E14.65777
G1 X99.489 Y27.527 E14.69319
G1 X99.69 Y28.997 E14.74997
G1 X99.725 Y29.797 E14.78061
G1 X99.725 Y90.214 E17.09277
G1 X99.687 Y91.047 E17.12468
G1 X99.425 Y92.753 E17.19074
G1 X99.127 Y93.797 E17.23228
G1 X98.686 Y94.845 E17.2758
G1 X97.807 Y96.256 E17.33942
G1 X97.133 Y97.031 E17.37872
G1 X95.722 Y98.182 E17.44841
G1 X94.552 Y98.829 E17.49958
G1 X93.872 Y99.103 E17.52763
G1 X92.152 Y99.545 E17.5956
G1 X91.001 Y99.69 E17.63999
G1 X90.203 Y99.725 E17.67056
G1 X29.786 Y99.725 E19.98272
G1 X28.953 Y99.687 E20.01463
G1 X27.257 Y99.428 E20.08029
G1 X26.184 Y99.122 E20.12299
G1 X25.268 Y98.744 E20.16091
G1 X23.936 Y97.946 E20.22033
G1 X22.707 Y96.86 E20.2831
G1 X21.889 Y95.829 E20.33347
G1 X21.181 Y94.586 E20.38821
G1 X20.937 Y93.995 E20.41268
G1 X20.463 Y92.199 E20.48377
G1 X20.31 Y91.001 E20.52999
G1 X20.275 Y90.203 E20.56056
G1 X20.275 Y29.786 E22.87271
G1 X20.313 Y28.953 E22.90462
G1 X20.566 Y27.289 E22.96904
G1 X20.882 Y26.184 E23.01302
G1 X21.442 Y24.907 E23.06638
G1 X22.101 Y23.871 E23.11337
G1 X22.754 Y23.148 E23.15066
G0 F1620 X23.219 Y22.633
G0 F4320 X23.479 Y22.868
G1 F1800 X24.487 Y22.088 E23.19943
G1 X25.12 Y21.72 E23.22745
G1 X26.522 Y21.141 E23.2855
G1 X27.851 Y20.809 E23.33793
G1 X29.014 Y20.66 E23.3828
G1 X29.812 Y20.625 E23.41337
G1 X90.198 Y20.625 E25.72434
G1 X91.031 Y20.663 E25.75625
G1 X92.659 Y20.913 E25.81928
G1 X93.716 Y21.215 E25.86135
G1 X94.629 Y21.602 E25.8993
G1 X96.137 Y22.539 E25.96725
G1 X96.841 Y23.165 E26.0033
G1 X97.906 Y24.481 E26.06809
G1 X98.273 Y25.112 E26.09602
G1 X98.925 Y26.714 E26.16222
G1 X99.149 Y27.612 E26.19764
G1 X99.34 Y29.012 E26.25171
G1 X99.375 Y29.812 E26.28235
G1 X99.375 Y90.198 E28.59332
G1 X99.337 Y91.031 E28.62524
G1 X99.088 Y92.658 E28.68823
G1 X98.804 Y93.661 E28.72812
G1 X98.363 Y94.709 E28.77163
G1 X97.543 Y96.026 E28.83101
G1 X96.869 Y96.801 E28.87031
G1 X95.552 Y97.876 E28.93537
G1 X94.421 Y98.504 E28.98488
G1 X93.741 Y98.778 E29.01294
G1 X92.108 Y99.198 E29.07747
G1 X90.986 Y99.34 E29.12075
G1 X90.188 Y99.375 E29.15132
G1 X29.802 Y99.375 E31.46228
G1 X28.969 Y99.337 E31.4942
G1 X27.352 Y99.091 E31.55679
G1 X26.318 Y98.798 E31.59792
G1 X25.402 Y98.42 E31.63584
G1 X24.117 Y97.646 E31.69325
G1 X22.981 Y96.642 E31.75127
G1 X22.163 Y95.611 E31.80164
G1 X21.505 Y94.452 E31.85264
G1 X21.261 Y93.861 E31.87711
G1 X20.81 Y92.154 E31.94468
G1 X20.66 Y90.986 E31.98975
G1 X20.625 Y90.188 E32.02032
G1 X20.625 Y29.802 E34.33129
G1 X20.663 Y28.969 E34.3632
G1 X20.912 Y27.342 E34.42619
G1 X21.203 Y26.325 E34.46667
G1 X21.763 Y25.048 E34.52003
G1 X22.361 Y24.106 E34.56273
G1 X23.014 Y23.383 E34.60002
G0 F1620 X23.479 Y22.868
G0 F4320 X23.694 Y23.144
G1 F1800 X24.663 Y22.391 E34.64698
G1 X25.296 Y22.023 E34.675
G1 X26.607 Y21.481 E34.72929
G1 X27.936 Y21.149 E34.78172
G1 X29.029 Y21.01 E34.82388
G1 X29.827 Y20.975 E34.85445
G1 X90.182 Y20.975 E37.16423
G1 X91.015 Y21.013 E37.19615
G1 X92.564 Y21.25 E37.25612
G1 X93.581 Y21.538 E37.29657
G1 X94.445 Y21.9 E37.33242
G1 X95.904 Y22.801 E37.39804
G1 X96.608 Y23.427 E37.4341
G1 X97.603 Y24.657 E37.49464
G1 X97.97 Y25.288 E37.52258
G1 X98.585 Y26.799 E37.58501
G1 X98.809 Y27.697 E37.62043
G1 X98.99 Y29.027 E37.6718
G1 X99.025 Y29.827 E37.70244
G1 X99.025 Y90.182 E40.01222
G1 X98.987 Y91.015 E40.04414
G1 X98.751 Y92.563 E40.10406
G1 X98.481 Y93.525 E40.1423
G1 X98.04 Y94.573 E40.18581
G1 X97.279 Y95.796 E40.24094
G1 X96.605 Y96.571 E40.28025
G1 X95.381 Y97.57 E40.34071
G1 X94.29 Y98.179 E40.38853
G1 X93.61 Y98.453 E40.41658
G1 X92.064 Y98.851 E40.47768
G1 X90.971 Y98.99 E40.51984
G1 X90.173 Y99.025 E40.55041
G1 X29.818 Y99.025 E42.86019
G1 X28.985 Y98.987 E42.89211
G1 X27.447 Y98.754 E42.95164
G1 X26.452 Y98.474 E42.9912
G1 X25.536 Y98.096 E43.02912
G1 X24.349 Y97.384 E43.08209
G1 X23.213 Y96.38 E43.14011
G1 X22.467 Y95.438 E43.1861
G1 X21.829 Y94.318 E43.23542
G1 X21.585 Y93.727 E43.25989
G1 X21.157 Y92.109 E43.32394
G1 X21.01 Y90.971 E43.36786
G1 X20.975 Y90.173 E43.39843
G1 X20.975 Y29.818 E45.70821
G1 X21.013 Y28.985 E45.74012
G1 X21.249 Y27.437 E45.80005
G1 X21.524 Y26.466 E45.83867
G1 X22.084 Y25.189 E45.89203
G1 X22.656 Y24.295 E45.93265
G1 X23.23 Y23.659 E45.96544
G0 F1620 X23.694 Y23.144
G0 F4320 X23.909 Y23.42
G1 F1800 X24.839 Y22.694 E46.01059
G1 X25.472 Y22.326 E46.03861
G1 X26.692 Y21.82 E46.08915
G1 X27.98 Y21.496 E46.13998
G1 X29.044 Y21.36 E46.18103
G1 X29.842 Y21.325 E46.2116
G1 X90.166 Y21.325 E48.5202
G1 X90.999 Y21.363 E48.55211
G1 X92.469 Y21.587 E48.60902
G1 X93.486 Y21.875 E48.64947
G1 X94.262 Y22.198 E48.68163
G1 X95.671 Y23.063 E48.74491
G1 X96.375 Y23.689 E48.78096
G1 X97.3 Y24.833 E48.83726
G1 X97.667 Y25.464 E48.8652
G1 X98.245 Y26.884 E48.92387
G1 X98.469 Y27.782 E48.95929
G1 X98.64 Y29.042 E49.00795
G1 X98.675 Y29.842 E49.0386
G1 X98.675 Y90.166 E51.34719
G1 X98.637 Y90.999 E51.37911
G1 X98.414 Y92.469 E51.43601
G1 X98.158 Y93.389 E51.47255
G1 X97.717 Y94.437 E51.51606
G1 X97.015 Y95.566 E51.56694
G1 X96.341 Y96.341 E51.60625
G1 X95.21 Y97.265 E51.66214
G1 X94.159 Y97.854 E51.70825
G1 X93.479 Y98.128 E51.7363
G1 X92.02 Y98.504 E51.79397
G1 X90.956 Y98.64 E51.83502
G1 X90.158 Y98.675 E51.86558
G1 X29.834 Y98.675 E54.17418
G1 X29.001 Y98.637 E54.20609
G1 X27.541 Y98.417 E54.2626
G1 X26.586 Y98.15 E54.30055
G1 X25.67 Y97.772 E54.33847
G1 X24.53 Y97.084 E54.38943
G1 X23.487 Y96.162 E54.4427
G1 X22.771 Y95.264 E54.48666
G1 X22.153 Y94.184 E54.53428
G1 X21.909 Y93.593 E54.55874
G1 X21.504 Y92.064 E54.61928
G1 X21.36 Y90.956 E54.66204
G1 X21.325 Y90.158 E54.69261
G1 X21.325 Y29.834 E57.0012
G1 X21.363 Y29.001 E57.03311
G1 X21.586 Y27.531 E57.09001
G1 X21.845 Y26.606 E57.12678
G1 X22.379 Y25.378 E57.17802
G1 X22.951 Y24.484 E57.21864
G1 X23.445 Y23.935 E57.2469
G0 F1620 X23.909 Y23.42
G0 F4320 X24.125 Y23.695
G1 F1800 X25.015 Y22.997 E57.29019
G1 X25.648 Y22.629 E57.31821
G1 X26.825 Y22.144 E57.36693
G1 X28.025 Y21.843 E57.41427
G1 X29.059 Y21.71 E57.45417
G1 X29.857 Y21.675 E57.48474
G1 X90.15 Y21.675 E59.79215
G1 X90.983 Y21.713 E59.82406
G1 X92.374 Y21.924 E59.8779
G1 X93.353 Y22.199 E59.91682
G1 X94.08 Y22.497 E59.94689
G1 X95.438 Y23.325 E60.00776
G1 X96.142 Y23.951 E60.04381
G1 X96.997 Y25.009 E60.09587
G1 X97.364 Y25.64 E60.12381
G1 X97.905 Y26.969 E60.17872
G1 X98.129 Y27.867 E60.21414
G1 X98.29 Y29.057 E60.26009
G1 X98.325 Y29.857 E60.29074
G1 X98.325 Y90.15 E62.59815
G1 X98.287 Y90.983 E62.63006
G1 X98.077 Y92.376 E62.68397
G1 X97.835 Y93.253 E62.71879
G1 X97.394 Y94.301 E62.7623
G1 X96.751 Y95.336 E62.80893
G1 X96.077 Y96.111 E62.84824
G1 X95.038 Y96.96 E62.89959
G1 X94.028 Y97.529 E62.94395
G1 X93.348 Y97.803 E62.97201
G1 X91.975 Y98.157 E63.02627
G1 X90.941 Y98.29 E63.06617
G1 X90.143 Y98.325 E63.09674
G1 X29.85 Y98.325 E65.40415
G1 X29.017 Y98.287 E65.43606
G1 X27.635 Y98.08 E65.48954
G1 X26.72 Y97.826 E65.52588
G1 X25.804 Y97.448 E65.56381
G1 X24.761 Y96.821 E65.61038
G1 X23.761 Y95.944 E65.66128
G1 X23.045 Y95.046 E65.70523
G1 X22.477 Y94.05 E65.74911
G1 X22.233 Y93.459 E65.77358
G1 X21.843 Y91.975 E65.8323
G1 X21.71 Y90.941 E65.8722
G1 X21.675 Y90.143 E65.90277
G1 X21.675 Y29.85 E68.21018
G1 X21.713 Y29.017 E68.24209
G1 X21.923 Y27.624 E68.296
G1 X22.166 Y26.745 E68.3309
G1 X22.675 Y25.565 E68.38008
G1 X23.212 Y24.717 E68.4185
G1 X23.663 Y24.212 E68.44441
G0 F1620 X24.125 Y23.695
G0 F4320 X24.342 Y23.97
G1 F1800 X25.191 Y23.3 E68.4858
G1 X25.824 Y22.932 E68.51382
G1 X26.911 Y22.483 E68.55883
G1 X28.07 Y22.19 E68.60458
G1 X29.074 Y22.06 E68.64332
G1 X29.872 Y22.025 E68.67389
G1 X90.134 Y22.025 E70.98011
G1 X90.967 Y22.063 E71.01203
G1 X92.28 Y22.261 E71.06284
G1 X93.22 Y22.523 E71.10019
G1 X93.947 Y22.821 E71.13026
G1 X95.205 Y23.587 E71.18662
G1 X95.909 Y24.213 E71.22268
G1 X96.694 Y25.185 E71.27049
G1 X97.061 Y25.816 E71.29843
G1 X97.565 Y27.054 E71.34958
G1 X97.789 Y27.952 E71.385
G1 X97.94 Y29.072 E71.42825
G1 X97.975 Y29.872 E71.4589
G1 X97.975 Y90.134 E73.76512
G1 X97.937 Y90.967 E73.79703
G1 X97.739 Y92.284 E73.848
G1 X97.512 Y93.117 E73.88104
G1 X97.071 Y94.165 E73.92455
G1 X96.487 Y95.106 E73.96694
G1 X95.813 Y95.881 E74.00624
G1 X94.818 Y96.688 E74.05527
G1 X93.897 Y97.204 E74.09567
G1 X93.217 Y97.478 E74.12373
G1 X91.93 Y97.81 E74.1746
G1 X90.926 Y97.94 E74.21334
G1 X90.128 Y97.975 E74.24391
G1 X29.866 Y97.975 E76.55013
G1 X29.033 Y97.937 E76.58204
G1 X27.728 Y97.743 E76.63254
G1 X26.854 Y97.502 E76.66723
G1 X25.938 Y97.124 E76.70515
G1 X24.991 Y96.557 E76.7474
G1 X24.034 Y95.725 E76.79593
G1 X23.349 Y94.872 E76.83779
G1 X22.801 Y93.916 E76.87996
G1 X22.557 Y93.325 E76.90443
G1 X22.19 Y91.93 E76.95964
G1 X22.06 Y90.926 E76.99838
G1 X22.025 Y90.128 E77.02895
G1 X22.025 Y29.866 E79.33517
G1 X22.063 Y29.033 E79.36708
G1 X22.261 Y27.716 E79.41805
G1 X22.488 Y26.883 E79.45109
G1 X22.972 Y25.751 E79.49821
G1 X23.474 Y24.949 E79.53442
G1 X23.882 Y24.489 E79.55795
G0 F1620 X24.342 Y23.97
G0 F4320 X24.56 Y24.244
G1 F1800 X25.367 Y23.603 E79.59739
G1 X26 Y23.235 E79.62541
G1 X26.998 Y22.822 E79.66674
G1 X28.115 Y22.537 E79.71086
G1 X29.089 Y22.41 E79.74845
G1 X29.887 Y22.375 E79.77902
G1 X90.118 Y22.375 E82.08406
G1 X90.951 Y22.413 E82.11597
G1 X92.187 Y22.598 E82.1638
G1 X93.087 Y22.847 E82.19954
G1 X93.814 Y23.145 E82.2296
G1 X94.972 Y23.849 E82.28147
G1 X95.676 Y24.475 E82.31752
G1 X96.391 Y25.361 E82.36109
G1 X96.758 Y25.992 E82.38903
G1 X97.225 Y27.139 E82.43642
G1 X97.449 Y28.037 E82.47184
G1 X97.59 Y29.087 E82.51239
G1 X97.625 Y29.887 E82.54303
G1 X97.625 Y90.118 E84.84807
G1 X97.587 Y90.951 E84.87998
G1 X97.401 Y92.192 E84.928
G1 X97.174 Y93.025 E84.96104
G1 X96.749 Y94.028 E85.00273
G1 X96.223 Y94.876 E85.04092
G1 X95.549 Y95.651 E85.08023
G1 X94.646 Y96.383 E85.12471
G1 X93.766 Y96.879 E85.16337
G1 X93.086 Y97.153 E85.19143
G1 X91.885 Y97.463 E85.2389
G1 X90.911 Y97.59 E85.27649
G1 X90.113 Y97.625 E85.30706
G1 X29.882 Y97.625 E87.61209
G1 X29.049 Y97.587 E87.64401
G1 X27.82 Y97.405 E87.69155
G1 X26.988 Y97.178 E87.72456
G1 X26.072 Y96.8 E87.76248
G1 X25.172 Y96.257 E87.80271
G1 X24.306 Y95.505 E87.8466
G1 X23.652 Y94.697 E87.88638
G1 X23.125 Y93.782 E87.92679
G1 X22.881 Y93.191 E87.95126
G1 X22.537 Y91.885 E88.00295
G1 X22.41 Y90.911 E88.04054
G1 X22.375 Y90.113 E88.07111
G1 X22.375 Y29.882 E90.37614
G1 X22.413 Y29.049 E90.40805
G1 X22.599 Y27.808 E90.45608
G1 X22.826 Y26.975 E90.48912
G1 X23.27 Y25.935 E90.5324
G1 X23.737 Y25.18 E90.56637
G1 X24.102 Y24.765 E90.58752
G0 F1620 X24.56 Y24.244
G0 F4320 X24.779 Y24.517
G1 F1800 X25.543 Y23.906 E90.62496
G1 X26.176 Y23.538 E90.65298
G1 X27.131 Y23.146 E90.69249
G1 X28.161 Y22.884 E90.73316
G1 X29.104 Y22.76 E90.76956
G1 X29.902 Y22.725 E90.80013
G1 X90.102 Y22.725 E93.10398
G1 X90.935 Y22.763 E93.13589
G1 X92.094 Y22.935 E93.18073
G1 X92.956 Y23.172 E93.21494
G1 X93.633 Y23.445 E93.24288
G1 X94.739 Y24.111 E93.29229
G1 X95.443 Y24.737 E93.32834
G1 X96.089 Y25.538 E93.36772
G1 X96.434 Y26.125 E93.39378
G1 X96.885 Y27.224 E93.43924
G1 X97.109 Y28.122 E93.47466
G1 X97.24 Y29.102 E93.5125
G1 X97.275 Y29.902 E93.54315
G1 X97.275 Y90.102 E95.847
G1 X97.237 Y90.935 E95.87891
G1 X97.063 Y92.1 E95.92399
G1 X96.836 Y92.933 E95.95703
G1 X96.427 Y93.891 E95.99689
G1 X95.959 Y94.646 E96.03089
G1 X95.285 Y95.421 E96.07019
G1 X94.473 Y96.079 E96.11019
G1 X93.635 Y96.554 E96.14705
G1 X92.955 Y96.828 E96.17511
G1 X91.839 Y97.116 E96.21922
G1 X90.896 Y97.24 E96.25562
G1 X90.098 Y97.275 E96.28619
G1 X29.898 Y97.275 E98.59004
G1 X29.065 Y97.237 E98.62195
G1 X27.911 Y97.067 E98.66659
G1 X27.122 Y96.854 E98.69787
G1 X26.206 Y96.476 E98.73579
G1 X25.354 Y95.958 E98.77395
G1 X24.537 Y95.242 E98.81552
G1 X23.955 Y94.521 E98.85098
G1 X23.449 Y93.648 E98.8896
G1 X23.205 Y93.057 E98.91407
G1 X22.884 Y91.839 E98.96227
G1 X22.76 Y90.896 E98.99867
G1 X22.725 Y90.098 E99.02924
G1 X22.725 Y29.898 E101.33309
G1 X22.763 Y29.065 E101.365
G1 X22.937 Y27.9 E101.41008
G1 X23.164 Y27.067 E101.44312
G1 X23.569 Y26.117 E101.48265
G1 X24.001 Y25.41 E101.51435
G1 X24.323 Y25.04 E101.53313
G0 F1620 X24.779 Y24.517
G0 F4320 X24.998 Y24.79
G1 F1800 X25.721 Y24.208 E101.56865
G1 X26.309 Y23.862 E101.59476
G1 X27.264 Y23.47 E101.63426
G1 X28.207 Y23.231 E101.67149
G1 X29.119 Y23.11 E101.7067
G1 X29.917 Y23.075 E101.73727
G1 X90.086 Y23.075 E104.03993
G1 X90.919 Y23.113 E104.07184
G1 X92.002 Y23.273 E104.11374
G1 X92.825 Y23.497 E104.14638
G1 X93.502 Y23.77 E104.17432
G1 X94.506 Y24.373 E104.21914
G1 X95.21 Y24.999 E104.25519
G1 X95.788 Y25.717 E104.29047
G1 X96.111 Y26.259 E104.31461
G1 X96.545 Y27.309 E104.35809
G1 X96.769 Y28.207 E104.39351
G1 X96.89 Y29.117 E104.42865
G1 X96.925 Y29.917 E104.45929
G1 X96.925 Y90.086 E106.76196
G1 X96.887 Y90.919 E106.79387
