;FLAVOR:Marlin
;TIME:1169
;Filament used: 0.485831m
;Layer height: 0.13125
;MINX:39.319
;MINY:32.133
;MINZ:0.163
;MAXX:85.817
;MAXY:87.862
;MAXZ:12.446
;TARGET_MACHINE.NAME:Monoprice Select Mini V2
;Generated with Cura_SteamEngine 5.7.2
M140 S65
M105
M190 S65
M104 S205
M105
M109 S205
M82 ;absolute extrusion mode
G21;(metric values)
G90;(absolute positioning)
M82;(set extruder to absolute mode)
M107;(start with the fan off)
G28;(Home the printer)
G92 E0;(Reset the extruder to 0)
G0 Z5 E5 F500;(Move up and prime the nozzle)
G0 X-1 Z0;(Move outside the printable area)
G1 Y60 E8 F500;(Draw a priming/wiping line to the rear)
G1 X-1;(Move a little closer to the print area)
G1 Y10 E16 F500;(draw more priming/wiping)
G1 E15 F250;(Small retract)
G92 E0;(Zero the extruder)
G92 E0
G92 E0
G1 F2400 E-2.5
;LAYER_COUNT:94
;LAYER:0
M107
G0 F4320 X45.164 Y35.342 Z0.263
;TYPE:SKIRT
G1 F2400 E0
G1 F1800 X46.436 Y33.984 E0.07121
G1 X47.199 Y33.401 E0.10796
G1 X48.719 Y32.761 E0.17107
G1 X50.591 Y32.246 E0.24538
G1 X51.428 Y32.263 E0.27741
G1 X52.439 Y32.133 E0.31642
G1 X53.785 Y32.366 E0.3687
G1 X54.577 Y32.326 E0.39905
G1 X55.353 Y32.387 E0.42884
G1 X56.332 Y32.197 E0.467
G1 X57.869 Y32.264 E0.52588
G1 X59.805 Y32.997 E0.6051
G1 X61.486 Y33.921 E0.67851
G1 X62.746 Y35.445 E0.75419
G1 X63.06 Y36.009 E0.77889
G1 X63.478 Y37.556 E0.84022
G1 X63.69 Y39.347 E0.90924
G1 X63.336 Y41.255 E0.98351
G1 X62.648 Y42.458 E1.03654
G1 X62.441 Y42.74 E1.04993
G1 X62.511 Y43.863 E1.09299
G1 X62.638 Y44.085 E1.10278
G1 X63.013 Y44.953 E1.13896
G1 X63.193 Y46.012 E1.18007
G1 X63.173 Y46.515 E1.19934
G1 X63.436 Y47.325 E1.23193
G1 X63.418 Y48.556 E1.27904
G1 X63.371 Y48.855 E1.29063
G1 X63.425 Y49.365 E1.31025
G1 X63.358 Y50.627 E1.35862
G1 X62.851 Y51.908 E1.41134
G1 X62.52 Y52.388 E1.43366
G1 X63.655 Y52.624 E1.47802
G1 X63.979 Y52.635 E1.49043
G1 X64.386 Y50.787 E1.56285
G1 X65.336 Y48.947 E1.64209
G1 X67.076 Y47.276 E1.73442
G1 X69.074 Y46.391 E1.81805
G1 X71.146 Y46.039 E1.89848
G1 X72.538 Y46.201 E1.95211
G1 X74.238 Y46.624 E2.01915
G1 X75.805 Y47.462 E2.08716
G1 X77.105 Y48.977 E2.16356
G1 X77.377 Y49.469 E2.18507
G1 X77.971 Y51.364 E2.26107
G1 X78.096 Y51.901 E2.28217
G1 X78.548 Y53.01 E2.328
G1 X79.047 Y52.967 E2.34717
G1 X81.721 Y53.634 E2.45264
G1 X83.591 Y54.868 E2.53838
G1 X84.553 Y55.831 E2.59048
G1 X85.557 Y57.515 E2.66551
G1 X85.817 Y59.405 E2.73852
G1 X85.803 Y61.089 E2.80297
G1 X85.553 Y62.52 E2.85856
G1 X84.433 Y64.372 E2.94139
G1 X83.464 Y65.203 E2.99024
G1 X81.901 Y66.172 E3.06062
G1 X80.873 Y66.573 E3.10285
G1 X79.119 Y67.005 E3.17198
G1 X78.568 Y66.979 E3.19309
G1 X78.146 Y67.968 E3.23424
G1 X77.992 Y68.615 E3.25969
G1 X77.555 Y70.151 E3.32081
G1 X76.091 Y71.984 E3.41059
G1 X74.808 Y73.027 E3.47386
G1 X74.308 Y73.287 E3.49543
G1 X72.17 Y73.895 E3.5805
G1 X70.794 Y73.924 E3.63317
G1 X68.998 Y73.577 E3.70317
G1 X67.068 Y72.712 E3.78411
G1 X65.329 Y71.054 E3.87606
G1 X64.363 Y69.114 E3.959
G1 X63.976 Y67.38 E4.02699
G1 X63.569 Y67.412 E4.04262
G1 X62.936 Y67.51 E4.06713
G1 X62.149 Y67.795 E4.09916
G1 X62.686 Y68.555 E4.13478
G1 X63.073 Y70.033 E4.19325
G1 X63.116 Y71.418 E4.24628
G1 X62.958 Y72.294 E4.28034
G1 X62.852 Y73.606 E4.33072
G1 X62.705 Y74.369 E4.36045
G1 X62.688 Y75.265 E4.39475
G1 X62.52 Y76.044 E4.42525
G1 X62.438 Y77.218 E4.47029
G1 X62.866 Y77.785 E4.49747
G1 X63.509 Y79.182 E4.55633
G1 X63.718 Y81.034 E4.62765
G1 X63.236 Y83.571 E4.72648
G1 X62.217 Y85.296 E4.80315
G1 X61.849 Y85.689 E4.82376
G1 X60.596 Y86.579 E4.88258
G1 X59.326 Y87.215 E4.93693
G1 X58.032 Y87.669 E4.98941
G1 X56.495 Y87.862 E5.0487
G1 X55.229 Y87.636 E5.09791
G1 X54.161 Y87.697 E5.13885
G1 X53.648 Y87.654 E5.15855
G1 X52.473 Y87.848 E5.20413
G1 X51.568 Y87.751 E5.23896
G1 X51.041 Y87.757 E5.25913
G1 X50.059 Y87.613 E5.29711
G1 X48.595 Y87.197 E5.35536
G1 X47.282 Y86.633 E5.41005
G1 X46.246 Y85.896 E5.4587
G1 X44.842 Y84.267 E5.541
G1 X44.171 Y82.196 E5.62432
G1 X44.087 Y80.409 E5.69278
G1 X44.734 Y78.501 E5.76988
G1 X45.184 Y77.658 E5.80646
G1 X46.345 Y76.363 E5.87302
G1 X46.731 Y76.085 E5.89122
G1 X46.649 Y74.626 E5.94714
G1 X46.346 Y74.401 E5.96159
G1 X46.058 Y74.08 E5.97809
G1 X45.186 Y73.896 E6.0122
G1 X43.657 Y72.809 E6.08399
G1 X42.862 Y71.677 E6.13693
G1 X42.368 Y70.511 E6.18539
G1 X42.207 Y69.183 E6.23659
G1 X42.211 Y68.374 E6.26755
G1 X42.171 Y68.174 E6.27535
G1 X41.72 Y67.111 E6.31954
G1 X41.482 Y65.968 E6.36423
G1 X41.55 Y64.51 E6.42008
G1 X41.594 Y64.339 E6.42684
G1 X41.453 Y64.25 E6.43322
G1 X40.283 Y63.148 E6.49473
G1 X39.56 Y61.601 E6.56008
G1 X39.319 Y60.101 E6.61822
G1 X39.534 Y58.313 E6.68714
G1 X40.186 Y57.127 E6.73894
G1 X40.927 Y56.17 E6.78526
G1 X41.646 Y55.675 E6.81866
G1 X41.44 Y54.888 E6.8498
G1 X41.593 Y53.059 E6.92004
G1 X42.069 Y52.05 E6.96273
G1 X42.188 Y51.612 E6.9801
G1 X42.217 Y50.255 E7.03205
G1 X42.589 Y48.832 E7.08834
G1 X43.446 Y47.47 E7.14992
G1 X44.396 Y46.657 E7.19777
G1 X45.557 Y46.031 E7.24825
G1 X46.073 Y45.887 E7.26875
G1 X46.386 Y45.548 E7.28641
G1 X46.662 Y45.351 E7.29939
G1 X46.686 Y44.757 E7.32214
G1 X46.747 Y43.93 E7.35387
G1 X46.302 Y43.601 E7.37505
G1 X45.06 Y42.182 E7.44722
G1 X44.677 Y41.44 E7.47918
G1 X44.203 Y39.943 E7.53927
G1 X44.089 Y38.07 E7.61108
G1 X44.785 Y36.03 E7.69357
G1 X44.829 Y35.95 E7.69706
G0 F1620 X45.164 Y35.342
G0 F4320 X45.45 Y35.549
G1 F1800 X46.649 Y34.262 E7.76438
G1 X47.375 Y33.707 E7.79935
G1 X48.855 Y33.084 E7.86081
G1 X50.636 Y32.597 E7.93147
G1 X51.445 Y32.613 E7.96243
G1 X52.43 Y32.487 E8.00044
G1 X53.765 Y32.718 E8.05229
G1 X54.595 Y32.676 E8.08409
G1 X55.373 Y32.74 E8.11397
G1 X56.359 Y32.549 E8.1524
G1 X57.801 Y32.612 E8.20764
G1 X59.636 Y33.304 E8.28269
G1 X61.259 Y34.196 E8.35357
G1 X62.476 Y35.668 E8.42666
G1 X62.733 Y36.142 E8.44729
G1 X63.13 Y37.597 E8.50501
G1 X63.336 Y39.337 E8.57207
G1 X63.003 Y41.132 E8.64193
G1 X62.344 Y42.284 E8.69273
G1 X62.084 Y42.635 E8.70944
G1 X62.167 Y43.967 E8.76052
G1 X62.317 Y44.224 E8.7719
G1 X62.675 Y45.052 E8.80643
G1 X62.842 Y46.033 E8.84451
G1 X62.82 Y46.563 E8.86481
G1 X63.085 Y47.378 E8.89761
G1 X63.072 Y48.502 E8.94063
G1 X63.018 Y48.848 E8.95403
G1 X63.075 Y49.346 E8.97321
G1 X63.011 Y50.554 E9.01951
G1 X62.541 Y51.741 E9.06836
G1 X61.981 Y52.554 E9.10614
G1 X62.622 Y52.767 E9.13199
G1 X63.612 Y52.973 E9.17069
G1 X64.34 Y52.999 E9.19857
G1 X64.348 Y52.586 E9.21438
G1 X64.718 Y50.907 E9.28018
G1 X65.622 Y49.157 E9.35556
G1 X67.272 Y47.572 E9.44312
G1 X69.177 Y46.728 E9.52285
G1 X71.154 Y46.393 E9.59959
G1 X72.453 Y46.541 E9.64963
G1 X74.112 Y46.954 E9.71506
G1 X75.582 Y47.74 E9.77885
G1 X76.839 Y49.205 E9.85272
G1 X77.043 Y49.574 E9.86886
G1 X77.63 Y51.444 E9.94387
G1 X77.761 Y52.005 E9.96591
G1 X78.223 Y53.137 E10.0127
G1 X78.262 Y53.403 E10.02299
G1 X78.962 Y53.307 E10.05003
G1 X81.579 Y53.96 E10.15326
G1 X83.369 Y55.141 E10.23533
G1 X84.274 Y56.047 E10.28433
G1 X85.22 Y57.633 E10.35501
G1 X85.467 Y59.403 E10.4234
G1 X85.458 Y61.029 E10.48563
G1 X85.219 Y62.397 E10.53878
G1 X84.164 Y64.141 E10.61678
G1 X83.236 Y64.937 E10.66357
G1 X81.773 Y65.846 E10.72949
G1 X80.789 Y66.233 E10.76995
G1 X79.085 Y66.653 E10.83711
G1 X78.276 Y66.615 E10.86811
G1 X78.238 Y66.872 E10.87805
G1 X77.811 Y67.863 E10.91935
G1 X77.655 Y68.519 E10.94515
G1 X77.237 Y69.988 E11.0036
G1 X75.842 Y71.735 E11.08916
G1 X74.587 Y72.755 E11.15105
G1 X74.212 Y72.95 E11.16723
G1 X72.116 Y73.546 E11.25062
G1 X70.825 Y73.573 E11.30004
G1 X69.101 Y73.24 E11.36723
G1 X67.267 Y72.418 E11.44415
G1 X65.614 Y70.842 E11.53155
G1 X64.696 Y68.999 E11.61035
G1 X64.347 Y67.434 E11.67171
G1 X64.342 Y66.999 E11.68836
G1 X63.529 Y67.064 E11.71958
G1 X62.85 Y67.169 E11.74587
G1 X61.868 Y67.525 E11.78584
G1 X61.559 Y67.568 E11.79778
G1 X62.363 Y68.704 E11.85104
G1 X62.724 Y70.085 E11.90567
G1 X62.765 Y71.395 E11.95583
G1 X62.61 Y72.255 E11.98927
G1 X62.503 Y73.578 E12.04007
G1 X62.355 Y74.335 E12.06959
G1 X62.339 Y75.225 E12.10365
G1 X62.173 Y75.994 E12.13376
G1 X62.094 Y77.128 E12.17726
G1 X62.121 Y77.38 E12.18696
G1 X62.564 Y77.965 E12.21505
G1 X63.167 Y79.276 E12.27027
G1 X63.364 Y81.021 E12.33748
G1 X62.903 Y83.447 E12.43198
G1 X61.934 Y85.087 E12.50488
G1 X61.646 Y85.404 E12.52127
G1 X60.439 Y86.266 E12.57803
G1 X59.169 Y86.902 E12.63239
G1 X57.953 Y87.326 E12.68167
G1 X56.507 Y87.508 E12.73745
G1 X55.253 Y87.284 E12.7862
G1 X54.19 Y87.348 E12.82695
G1 X53.636 Y87.302 E12.84823
G1 X52.464 Y87.495 E12.89368
G1 X51.583 Y87.4 E12.9276
G1 X51.091 Y87.411 E12.94643
G1 X50.155 Y87.276 E12.98262
G1 X48.691 Y86.86 E13.04087
G1 X47.456 Y86.328 E13.09233
G1 X46.484 Y85.636 E13.13799
G1 X45.153 Y84.092 E13.216
G1 X44.519 Y82.134 E13.29477
G1 X44.44 Y80.459 E13.35894
G1 X45.043 Y78.666 E13.43133
G1 X45.473 Y77.861 E13.46626
G1 X46.606 Y76.597 E13.53122
G1 X47.091 Y76.262 E13.55378
G1 X46.988 Y74.437 E13.62373
G1 X46.607 Y74.168 E13.64158
G1 X46.242 Y73.76 E13.66253
G1 X45.328 Y73.568 E13.69828
G1 X43.91 Y72.56 E13.76486
G1 X43.169 Y71.504 E13.81423
G1 X42.709 Y70.419 E13.85933
G1 X42.557 Y69.185 E13.90691
G1 X42.561 Y68.342 E13.93917
G1 X42.507 Y68.071 E13.94975
G1 X42.063 Y67.04 E13.99271
G1 X41.834 Y65.94 E14.03571
G1 X41.9 Y64.526 E14.08988
G1 X42.023 Y64.173 E14.10418
G1 X41.693 Y63.995 E14.11853
G1 X40.571 Y62.938 E14.17753
G1 X39.898 Y61.499 E14.23832
G1 X39.673 Y60.095 E14.29274
G1 X39.874 Y58.422 E14.35722
G1 X40.493 Y57.296 E14.4064
G1 X41.171 Y56.426 E14.44861
G1 X42.047 Y55.823 E14.48931
G1 X41.794 Y54.857 E14.52752
G1 X41.937 Y53.151 E14.59304
G1 X42.399 Y52.172 E14.63447
G1 X42.537 Y51.665 E14.65458
G1 X42.566 Y50.305 E14.70664
G1 X42.915 Y48.97 E14.75944
G1 X43.713 Y47.701 E14.81681
G1 X44.594 Y46.948 E14.86117
G1 X45.723 Y46.339 E14.91026
G1 X46.26 Y46.2 E14.93149
G1 X46.643 Y45.786 E14.95307
G1 X47.005 Y45.543 E14.96976
G1 X47.035 Y44.783 E14.99886
G1 X47.11 Y43.759 E15.03816
G1 X46.565 Y43.37 E15.06378
G1 X45.352 Y41.984 E15.13427
G1 X45.011 Y41.334 E15.16236
G1 X44.549 Y39.875 E15.22093
G1 X44.442 Y38.12 E15.28822
G1 X45.092 Y36.199 E15.36583
G1 X45.116 Y36.156 E15.36771
G0 F1620 X45.45 Y35.549
G0 F4320 X45.736 Y35.755
G1 F1800 X46.862 Y34.54 E15.43111
G1 X47.551 Y34.013 E15.4643
G1 X48.991 Y33.407 E15.52409
G1 X50.68 Y32.948 E15.59108
G1 X51.463 Y32.964 E15.62105
G1 X52.421 Y32.841 E15.65801
G1 X53.745 Y33.07 E15.70943
G1 X54.613 Y33.026 E15.74269
G1 X55.392 Y33.093 E15.77262
G1 X56.385 Y32.901 E15.81132
G1 X57.73 Y32.96 E15.86285
G1 X59.467 Y33.611 E15.93384
G1 X61.032 Y34.471 E16.00218
G1 X62.206 Y35.891 E16.07269
G1 X62.396 Y36.235 E16.08773
G1 X62.782 Y37.638 E16.14341
G1 X62.982 Y39.327 E16.2085
G1 X62.67 Y41.01 E16.27401
G1 X62.063 Y42.075 E16.32092
G1 X61.727 Y42.528 E16.34251
G1 X61.812 Y43.9 E16.39511
G1 X61.858 Y44.133 E16.4042
G1 X61.996 Y44.363 E16.41447
G1 X62.337 Y45.151 E16.44733
G1 X62.497 Y46.092 E16.48386
G1 X62.467 Y46.61 E16.50371
G1 X62.734 Y47.432 E16.53679
G1 X62.722 Y48.498 E16.57759
G1 X62.665 Y48.84 E16.59086
G1 X62.725 Y49.328 E16.60967
G1 X62.664 Y50.481 E16.65386
G1 X62.231 Y51.574 E16.69885
G1 X61.577 Y52.523 E16.74296
G1 X61.243 Y52.793 E16.75939
G1 X61.823 Y52.87 E16.78179
G1 X62.532 Y53.106 E16.81038
G1 X63.569 Y53.322 E16.85092
G1 X64.689 Y53.362 E16.89381
G1 X64.69 Y52.661 E16.92064
G1 X65.05 Y51.027 E16.98467
G1 X65.907 Y49.369 E17.0561
G1 X67.47 Y47.867 E17.13905
G1 X69.28 Y47.065 E17.21482
G1 X71.162 Y46.746 E17.28787
G1 X72.368 Y46.881 E17.33431
G1 X73.986 Y47.284 E17.39812
G1 X75.359 Y48.018 E17.45771
G1 X76.573 Y49.433 E17.52906
G1 X76.709 Y49.679 E17.53981
G1 X77.289 Y51.524 E17.61383
G1 X77.426 Y52.109 E17.63682
G1 X77.899 Y53.269 E17.68476
G1 X77.945 Y53.8 E17.70516
G1 X78.942 Y53.663 E17.74368
G1 X81.437 Y54.286 E17.84209
G1 X83.147 Y55.414 E17.92049
G1 X83.995 Y56.263 E17.96641
G1 X84.883 Y57.751 E18.03273
G1 X85.117 Y59.402 E18.09654
G1 X85.113 Y60.969 E18.15651
G1 X84.885 Y62.274 E18.20721
G1 X83.895 Y63.91 E18.28039
G1 X83.008 Y64.671 E18.32512
G1 X81.645 Y65.52 E18.38657
G1 X80.661 Y65.907 E18.42703
G1 X79.052 Y66.301 E18.49043
G1 X77.952 Y66.249 E18.53257
G1 X77.917 Y66.734 E18.55118
G1 X77.476 Y67.758 E18.59385
G1 X77.318 Y68.423 E18.62001
G1 X76.919 Y69.825 E18.67579
G1 X75.593 Y71.486 E18.75713
G1 X74.366 Y72.483 E18.81764
G1 X74.116 Y72.613 E18.82842
G1 X72.062 Y73.197 E18.91014
G1 X70.856 Y73.222 E18.95631
G1 X69.204 Y72.903 E19.0207
G1 X67.466 Y72.124 E19.09358
G1 X65.899 Y70.63 E19.17644
G1 X65.029 Y68.884 E19.2511
G1 X64.689 Y67.358 E19.31093
G1 X64.695 Y66.619 E19.33921
G1 X63.489 Y66.716 E19.38551
G1 X62.764 Y66.828 E19.41359
G1 X61.785 Y67.183 E19.45344
G1 X60.954 Y67.298 E19.48555
G1 X60.733 Y67.288 E19.49401
G1 X61.144 Y67.587 E19.51346
G1 X62.04 Y68.854 E19.57285
G1 X62.375 Y70.136 E19.62356
G1 X62.414 Y71.372 E19.67089
G1 X62.262 Y72.216 E19.70371
G1 X62.159 Y73.511 E19.75342
G1 X62.006 Y74.296 E19.78403
G1 X61.99 Y75.185 E19.81806
G1 X61.826 Y75.944 E19.84777
G1 X61.743 Y77.135 E19.89346
G1 X61.783 Y77.513 E19.90801
G1 X62.262 Y78.145 E19.93836
G1 X62.825 Y79.37 E19.98995
G1 X63.01 Y81.008 E20.05304
G1 X62.57 Y83.323 E20.14322
G1 X61.633 Y84.909 E20.21372
G1 X61.442 Y85.12 E20.22461
G1 X60.282 Y85.953 E20.27926
G1 X59.012 Y86.589 E20.33362
G1 X57.871 Y86.984 E20.37983
G1 X56.519 Y87.154 E20.43198
G1 X55.276 Y86.932 E20.4803
G1 X54.219 Y86.999 E20.52083
G1 X53.624 Y86.95 E20.54368
G1 X52.456 Y87.142 E20.58898
G1 X51.595 Y87.049 E20.62212
G1 X51.14 Y87.064 E20.63954
G1 X50.251 Y86.939 E20.6739
G1 X48.787 Y86.523 E20.73214
G1 X47.629 Y86.022 E20.78043
G1 X46.72 Y85.375 E20.82313
G1 X45.465 Y83.918 E20.89672
G1 X44.867 Y82.072 E20.97098
G1 X44.793 Y80.508 E21.0309
G1 X45.375 Y78.778 E21.10076
G1 X45.762 Y78.064 E21.13184
G1 X46.841 Y76.86 E21.19371
G1 X47.451 Y76.439 E21.22208
G1 X47.404 Y75.507 E21.25779
G1 X47.326 Y74.243 E21.30625
G1 X46.868 Y73.934 E21.3274
G1 X46.426 Y73.441 E21.35274
G1 X45.47 Y73.24 E21.39012
G1 X44.163 Y72.311 E21.45149
G1 X43.476 Y71.331 E21.49729
G1 X43.05 Y70.327 E21.53903
G1 X42.907 Y69.187 E21.583
G1 X42.911 Y68.31 E21.61656
G1 X42.842 Y67.964 E21.63007
G1 X42.399 Y66.934 E21.67297
G1 X42.186 Y65.912 E21.71293
G1 X42.25 Y64.542 E21.76541
G1 X42.47 Y64.003 E21.78769
G1 X41.933 Y63.74 E21.81058
G1 X40.859 Y62.728 E21.86705
G1 X40.236 Y61.397 E21.92329
G1 X40.027 Y60.089 E21.97398
G1 X40.214 Y58.531 E22.03404
G1 X40.8 Y57.465 E22.08059
G1 X41.414 Y56.683 E22.11864
G1 X42.281 Y56.086 E22.15893
G1 X42.456 Y56.005 E22.1663
G1 X42.148 Y54.826 E22.21294
G1 X42.281 Y53.243 E22.27373
G1 X42.729 Y52.293 E22.31393
G1 X42.886 Y51.716 E22.33682
G1 X42.915 Y50.355 E22.38891
G1 X43.241 Y49.108 E22.43824
G1 X43.98 Y47.932 E22.49139
G1 X44.792 Y47.239 E22.53225
G1 X45.889 Y46.647 E22.57995
G1 X46.447 Y46.516 E22.60189
G1 X46.838 Y46.077 E22.62438
G1 X47.348 Y45.735 E22.64788
G1 X47.384 Y44.808 E22.68339
G1 X47.473 Y43.588 E22.7302
G1 X46.8 Y43.108 E22.76184
G1 X45.645 Y41.788 E22.82896
G1 X45.345 Y41.228 E22.85327
G1 X44.895 Y39.807 E22.91032
G1 X44.795 Y38.168 E22.97316
G1 X45.399 Y36.368 E23.04582
G1 X45.402 Y36.362 E23.04608
G0 F1620 X45.736 Y35.755
G0 F4320 X46.024 Y35.959
G1 F1800 X47.075 Y34.818 E23.10544
G1 X47.73 Y34.317 E23.137
G1 X49.083 Y33.745 E23.19322
G1 X50.724 Y33.299 E23.2583
G1 X51.481 Y33.315 E23.28727
G1 X52.412 Y33.195 E23.3232
G1 X53.517 Y33.386 E23.36611
G1 X53.974 Y33.408 E23.38362
G1 X54.583 Y33.375 E23.40696
G1 X55.411 Y33.446 E23.43877
G1 X56.411 Y33.253 E23.47774
G1 X57.659 Y33.308 E23.52555
G1 X59.344 Y33.939 E23.59441
G1 X60.804 Y34.744 E23.65821
G1 X61.936 Y36.114 E23.72623
G1 X62.07 Y36.369 E23.73725
G1 X62.434 Y37.679 E23.78928
G1 X62.628 Y39.317 E23.85241
G1 X62.337 Y40.888 E23.91355
