; HEADER_BLOCK_START
; BambuStudio 01.09.01.67
; estimated printing time (normal mode) = 17m 53s
; total layer number: 112
; filament_density: 1.24,1.24
; filament_diameter: 1.75,1.75
; max_z_height: 22.40
; HEADER_BLOCK_END

; CONFIG_BLOCK_START
; accel_to_decel_enable = 0
; accel_to_decel_factor = 50%
; activate_air_filtration = 0,0
; additional_cooling_fan_speed = 70,70
; auxiliary_fan = 0
; bed_custom_model = 
; bed_custom_texture = 
; bed_exclude_area = 0x0
; before_layer_change_gcode = ;BEFORE_LAYER_CHANGE\n;[layer_z]\nG92 E0\n
; best_object_pos = 0.5,0.5
; bottom_shell_layers = 3
; bottom_shell_thickness = 0
; bottom_surface_pattern = monotonic
; bridge_angle = 0
; bridge_flow = 1
; bridge_no_support = 0
; bridge_speed = 50
; brim_object_gap = 0.1
; brim_type = auto_brim
; brim_width = 5
; chamber_temperatures = 0,0
; change_filament_gcode = 
; close_fan_the_first_x_layers = 1,1
; complete_print_exhaust_fan_speed = 70,70
; cool_plate_temp = 35,35
; cool_plate_temp_initial_layer = 35,35
; curr_bed_type = High Temp Plate
; default_acceleration = 10000
; default_filament_colour = ;
; default_filament_profile = "Generic PLA @Prusa"
; default_jerk = 0
; default_print_profile = 0.20mm Standard @MINI
; deretraction_speed = 30
; detect_narrow_internal_solid_infill = 1
; detect_overhang_wall = 1
; detect_thin_wall = 0
; draft_shield = disabled
; during_print_exhaust_fan_speed = 70,70
; elefant_foot_compensation = 0.15
; enable_arc_fitting = 1
; enable_long_retraction_when_cut = 0
; enable_overhang_bridge_fan = 1,1
; enable_overhang_speed = 1
; enable_pressure_advance = 0,0
; enable_prime_tower = 0
; enable_support = 0
; enforce_support_layers = 0
; eng_plate_temp = 0,0
; eng_plate_temp_initial_layer = 0,0
; ensure_vertical_shell_thickness = 1
; exclude_object = 1
; extruder_clearance_height_to_lid = 140
; extruder_clearance_height_to_rod = 36
; extruder_clearance_max_radius = 68
; extruder_clearance_radius = 65
; extruder_colour = #018001
; extruder_offset = 0x0
; extruder_type = Bowden
; fan_cooling_layer_time = 100,100
; fan_max_speed = 100,100
; fan_min_speed = 100,100
; filament_colour = #00AE42;#FFFF00
; filament_cost = 20,20
; filament_density = 1.24,1.24
; filament_diameter = 1.75,1.75
; filament_end_gcode = "; filament end gcode \nM106 P3 S0\n";"; filament end gcode \nM106 P3 S0\n"
; filament_flow_ratio = 1,1
; filament_ids = P510eff9;P510eff9
; filament_is_support = 0,0
; filament_max_volumetric_speed = 12,12
; filament_minimal_purge_on_wipe_tower = 15,15
; filament_notes = 
; filament_settings_id = "Generic PLA template @MonopriceMP Select Mini 3D Printer V2 34620 0.4 nozzle";"Generic PLA template @MonopriceMP Select Mini 3D Printer V2 34620 0.4 nozzle"
; filament_soluble = 0,0
; filament_start_gcode = "; filament start gcode\n{if  (bed_temperature[current_extruder] >45)||(bed_temperature_initial_layer[current_extruder] >45)}M106 P3 S255\n{elsif(bed_temperature[current_extruder] >35)||(bed_temperature_initial_layer[current_extruder] >35)}M106 P3 S180\n{endif}\n\n{if activate_air_filtration[current_extruder] && support_air_filtration}\nM106 P3 S{during_print_exhaust_fan_speed_num[current_extruder]} \n{endif}";"; filament start gcode\n{if  (bed_temperature[current_extruder] >45)||(bed_temperature_initial_layer[current_extruder] >45)}M106 P3 S255\n{elsif(bed_temperature[current_extruder] >35)||(bed_temperature_initial_layer[current_extruder] >35)}M106 P3 S180\n{endif}\n\n{if activate_air_filtration[current_extruder] && support_air_filtration}\nM106 P3 S{during_print_exhaust_fan_speed_num[current_extruder]} \n{endif}"
; filament_type = PLA;PLA
; filament_vendor = Generic;Generic
; filename_format = {input_filename_base}_{filament_type[0]}_{print_time}.gcode
; filter_out_gap_fill = 0
; first_layer_print_sequence = 0
; flush_into_infill = 0
; flush_into_objects = 0
; flush_into_support = 1
; flush_multiplier = 1
; flush_volumes_matrix = 0,600,293,0
; flush_volumes_vector = 140,140,140,140
; full_fan_speed_layer = 0,0
; fuzzy_skin = none
; fuzzy_skin_point_distance = 0.8
; fuzzy_skin_thickness = 0.3
; gap_infill_speed = 250
; gcode_add_line_number = 0
; gcode_flavor = marlin
; has_scarf_joint_seam = 0
; head_wrap_detect_zone = 
; host_type = octoprint
; hot_plate_temp = 55,55
; hot_plate_temp_initial_layer = 55,55
; independent_support_layer_height = 1
; infill_combination = 0
; infill_direction = 45
; infill_jerk = 9
; infill_wall_overlap = 15%
; initial_layer_acceleration = 500
; initial_layer_flow_ratio = 1
; initial_layer_infill_speed = 105
; initial_layer_jerk = 9
; initial_layer_line_width = 0.4
; initial_layer_print_height = 0.2
; initial_layer_speed = 50
; inner_wall_acceleration = 0
; inner_wall_jerk = 9
; inner_wall_line_width = 0.4
; inner_wall_speed = 300
; interface_shells = 0
; internal_bridge_support_thickness = 0.8
; internal_solid_infill_line_width = 0.4
; internal_solid_infill_pattern = zig-zag
; internal_solid_infill_speed = 250
; ironing_direction = 45
; ironing_flow = 10%
; ironing_pattern = zig-zag
; ironing_spacing = 0.15
; ironing_speed = 30
; ironing_type = no ironing
; is_infill_first = 0
; layer_change_gcode = ;AFTER_LAYER_CHANGE\n;[layer_z]
; layer_height = 0.2
; line_width = 0.4
; long_retractions_when_cut = 0
; machine_end_gcode = G1 E-1 F2100 ; retract\n{if max_layer_z < 180}G1 Z{min(max_layer_z+2, 180)} F720 ; Move print head up{endif}\nG1 X178 Y178 F4200 ; park print head\n{if max_layer_z < 180}G1 Z{min(max_layer_z+30, 180)} F720 ; Move print head further up{endif}\nG4 ; wait\nM104 S0 ; turn off temperature\nM140 S0 ; turn off heatbed\nM107 ; turn off fan\nM221 S100 ; reset flow\nM900 K0 ; reset LA\nM84 ; disable motors
; machine_load_filament_time = 17
; machine_max_acceleration_e = 5000,5000
; machine_max_acceleration_extruding = 1250,2000
; machine_max_acceleration_retracting = 5000,5000
; machine_max_acceleration_travel = 3000,3000
; machine_max_acceleration_x = 2500,2000
; machine_max_acceleration_y = 2500,2000
; machine_max_acceleration_z = 400,200
; machine_max_jerk_e = 10,2.5
; machine_max_jerk_x = 8,9
; machine_max_jerk_y = 8,9
; machine_max_jerk_z = 0.2,0.4
; machine_max_speed_e = 55,25
; machine_max_speed_x = 55,200
; machine_max_speed_y = 55,200
; machine_max_speed_z = 55,12
; machine_min_extruding_rate = 0,0
; machine_min_travel_rate = 0,0
; machine_pause_gcode = M601
; machine_start_gcode = G90 ; use absolute coordinates\nM83 ; extruder relative mode\nM104 S170 ; set extruder temp for bed leveling\nM140 S[bed_temperature_initial_layer_single] ; set bed temp\nM109 R170 ; wait for bed leveling temp\nM190 S[bed_temperature_initial_layer_single] ; wait for bed temp\nM204 T1250 ; set travel acceleration\nG28 ; home all without mesh bed level\nG29 ; mesh bed leveling \nM204 T[machine_max_acceleration_travel] ; restore travel acceleration\nM104 S[nozzle_temperature_initial_layer] ; set extruder temp\nG92 E0\nG1 Y-2 X179 F2400\nG1 Z3 F720\nM109 S[nozzle_temperature_initial_layer] ; wait for extruder temp\n\n; intro line\nG1 X170 F1000\nG1 Z0.2 F720\nG1 X110 E8 F900\nG1 X40 E10 F700\nG92 E0\n\nM221 S95 ; set flow
; machine_unload_filament_time = 16
; max_bridge_length = 10
; max_layer_height = 0.3
; max_travel_detour_distance = 0
; min_bead_width = 85%
; min_feature_size = 25%
; min_layer_height = 0.08
; minimum_sparse_infill_area = 15
; mmu_segmented_region_interlocking_depth = 0
; mmu_segmented_region_max_width = 0
; nozzle_diameter = 0.4
; nozzle_height = 4
; nozzle_temperature = 220,220
; nozzle_temperature_initial_layer = 220,220
; nozzle_temperature_range_high = 240,240
; nozzle_temperature_range_low = 190,190
; nozzle_type = hardened_steel
; nozzle_volume = 0
; only_one_wall_first_layer = 0
; ooze_prevention = 0
; other_layers_print_sequence = 0
; other_layers_print_sequence_nums = 0
; outer_wall_acceleration = 5000
; outer_wall_jerk = 9
; outer_wall_line_width = 0.4
; outer_wall_speed = 200
; overhang_1_4_speed = 0
; overhang_2_4_speed = 50
; overhang_3_4_speed = 30
; overhang_4_4_speed = 10
; overhang_fan_speed = 100,100
; overhang_fan_threshold = 50%,50%
; post_process = 
; precise_z_height = 0
; pressure_advance = 0.02,0.02
; prime_tower_brim_width = 3
; prime_tower_width = 35
; prime_volume = 45
; print_compatible_printers = "MonopriceMP Select Mini 3D Printer V2 34620 0.4 nozzle"
; print_flow_ratio = 1
; print_sequence = by layer
; print_settings_id = process template @MonopriceMP Select Mini 3D Printer V2 34620 0.4 nozzle
; printable_area = 0x0,120x0,120x120,0x120
; printable_height = 120
; printer_model = MonopriceMP Select Mini 3D Printer V2 34620
; printer_notes = 
; printer_settings_id = MonopriceMP Select Mini 3D Printer V2 34620 0.4 nozzle
; printer_structure = undefine
; printer_technology = FFF
; printer_variant = 0.4
; printhost_authorization_type = key
; printhost_ssl_ignore_revoke = 0
; printing_by_object_gcode = 
; process_notes = 
; raft_contact_distance = 0.1
; raft_expansion = 1.5
; raft_first_layer_density = 90%
; raft_first_layer_expansion = 2
; raft_layers = 0
; reduce_crossing_wall = 0
; reduce_fan_stop_start_freq = 1,1
; reduce_infill_retraction = 1
; required_nozzle_HRC = 3,3
; resolution = 0.012
; retract_before_wipe = 70%
; retract_length_toolchange = 2
; retract_lift_above = 0
; retract_lift_below = 179
; retract_restart_extra = 0
; retract_restart_extra_toolchange = 0
; retract_when_changing_layer = 1
; retraction_distances_when_cut = 18
; retraction_length = 3.2
; retraction_minimum_travel = 1.5
; retraction_speed = 70
; scan_first_layer = 0
; scarf_angle_threshold = 155
; seam_gap = 15%
; seam_position = aligned
; seam_slope_conditional = 1
; seam_slope_entire_loop = 0
; seam_slope_inner_walls = 1
; seam_slope_min_length = 10
; seam_slope_start_height = 50%
; seam_slope_steps = 10
; seam_slope_type = none
; silent_mode = 0
; single_extruder_multi_material = 1
; skirt_distance = 2
; skirt_height = 1
; skirt_loops = 0
; slice_closing_radius = 0.049
; slicing_mode = regular
; slow_down_for_layer_cooling = 1,1
; slow_down_layer_time = 4,4
; slow_down_min_speed = 20,20
; small_perimeter_speed = 50%
; small_perimeter_threshold = 0
; solid_infill_filament = 1
; sparse_infill_acceleration = 100%
; sparse_infill_anchor = 400%
; sparse_infill_anchor_max = 20
; sparse_infill_density = 15%
; sparse_infill_filament = 1
; sparse_infill_line_width = 0.4
; sparse_infill_pattern = grid
; sparse_infill_speed = 270
; spiral_mode = 0
; spiral_mode_max_xy_smoothing = 200%
; spiral_mode_smooth = 0
; standby_temperature_delta = -5
; start_end_points = 30x-3,54x245
; support_air_filtration = 0
; support_angle = 0
; support_base_pattern = default
; support_base_pattern_spacing = 2.5
; support_bottom_interface_spacing = 0.5
; support_bottom_z_distance = 0.2
; support_chamber_temp_control = 0
; support_critical_regions_only = 0
; support_expansion = 0
; support_filament = 0
; support_interface_bottom_layers = 2
; support_interface_filament = 0
; support_interface_loop_pattern = 0
; support_interface_not_for_body = 1
; support_interface_pattern = auto
; support_interface_spacing = 0.5
; support_interface_speed = 80
; support_interface_top_layers = 2
; support_line_width = 0.4
; support_object_first_layer_gap = 0.2
; support_object_xy_distance = 0.35
; support_on_build_plate_only = 0
; support_remove_small_overhang = 1
; support_speed = 150
; support_style = default
; support_threshold_angle = 30
; support_top_z_distance = 0.2
; support_type = normal(auto)
; temperature_vitrification = 55,55
; template_custom_gcode = 
; textured_plate_temp = 55,55
; textured_plate_temp_initial_layer = 55,55
; thick_bridges = 0
; thumbnail_size = 50x50
; time_lapse_gcode = 
; timelapse_type = 0
; top_area_threshold = 100%
; top_one_wall_type = all top
; top_shell_layers = 5
; top_shell_thickness = 0.6
; top_solid_infill_flow_ratio = 1
; top_surface_acceleration = 2000
; top_surface_jerk = 9
; top_surface_line_width = 0.4
; top_surface_pattern = monotonicline
; top_surface_speed = 200
; travel_jerk = 9
; travel_speed = 500
; travel_speed_z = 0
; tree_support_branch_angle = 45
; tree_support_branch_diameter = 2
; tree_support_branch_distance = 5
; tree_support_brim_width = 0
; tree_support_wall_count = 0
; upward_compatible_machine = 
; use_firmware_retraction = 0
; use_relative_e_distances = 1
; wall_distribution_count = 1
; wall_filament = 1
; wall_generator = classic
; wall_loops = 2
; wall_sequence = inner wall/outer wall
; wall_transition_angle = 10
; wall_transition_filter_deviation = 25%
; wall_transition_length = 100%
; wipe = 1
; wipe_distance = 2
; wipe_speed = 80%
; wipe_tower_no_sparse_layers = 0
; wipe_tower_rotation_angle = 0
; wipe_tower_x = 15
; wipe_tower_y = 105
; xy_contour_compensation = 0
; xy_hole_compensation = 0
; z_hop = 0.4
; z_hop_types = Spiral Lift
; CONFIG_BLOCK_END

; THUMBNAIL_BLOCK_START
; THUMBNAIL_BLOCK_END

; EXECUTABLE_BLOCK_START
M73 P0 R17
M201 X2500 Y2500 Z400 E5000
M203 X55 Y55 Z55 E55
M204 P1250 R5000 T1250
M205 X8.00 Y8.00 Z0.20 E10.00
M106 S0
M106 P2 S0
; FEATURE: Custom
G90 ; use absolute coordinates
M83 ; extruder relative mode
M104 S170 ; set extruder temp for bed leveling
M140 S55 ; set bed temp
M109 R170 ; wait for bed leveling temp
M190 S55 ; wait for bed temp
M204 T1250 ; set travel acceleration
G28 ; home all without mesh bed level
G29 ; mesh bed leveling 
M204 T3000 ; restore travel acceleration
M104 S220 ; set extruder temp
G92 E0
G1 Y-2 X179 F2400
G1 Z3 F720
M109 S220 ; wait for extruder temp

; intro line
G1 X170 F1000
G1 Z0.2 F720
G1 X110 E8 F900
G1 X40 E10 F700
G92 E0

M221 S95 ; set flow
G90
G21
M83 ; use relative distances for extrusion
; filament start gcode
M106 P3 S255


; CHANGE_LAYER
; Z_HEIGHT: 0.2
; LAYER_HEIGHT: 0.2
;BEFORE_LAYER_CHANGE
;0.2
G92 E0

G1 E-3.2 F4200
;AFTER_LAYER_CHANGE
;0.2
M106 S0
M106 P2 S0
M204 S500
M73 P1 R17
G1 X29.825 Y15.719 F30000
G1 Z.4
G1 Z.2
G1 E3.2 F1800
; FEATURE: Outer wall
; LINE_WIDTH: 0.4
G1 F3000
G1 X29.872 Y15.813 E.00312
G3 X30.021 Y16.68 I-1.737 J.745 E.02636
G1 X30.021 Y28.587 E.35353
G3 X28.181 Y30.427 I-1.87 J-.03 E.08545
G1 X16.135 Y30.427 E.35765
G3 X14.295 Y28.589 I.029 J-1.869 E.0854
G1 X14.295 Y16.68 E.35358
G3 X16.145 Y14.668 I1.887 J-.122 E.0907
G1 X28.171 Y14.668 E.35708
G3 X29.698 Y15.496 I-.037 J1.89 E.05359
G1 X29.795 Y15.667 E.00584
G1 E-2.24 F4200
; WIPE_START
G1 F24000
G1 X29.872 Y15.813 E-.07521
G1 X29.979 Y16.156 E-.16408
G1 X30.005 Y16.335 E-.08238
G1 X30.021 Y16.68 E-.15736
G1 X30.021 Y17.629 E-.43297
; WIPE_END
G1 E-.048 F4200
G17
G3 Z.6 I.272 J-1.186 P1  F30000
G1 X15.721 Y14.353 Z.6
G1 Z.2
G1 E3.2 F1800
; FEATURE: Inner wall
G1 F3000
G2 X13.998 Y16.042 I.477 J2.209 E.07556
G1 X13.81 Y16.019 E.00563
G3 X13.817 Y14.877 I13.549 J-.48 E.03391
G3 X14.623 Y14.165 I.792 J.084 E.03505
G1 X15.093 Y14.165 E.01395
G1 X15.697 Y14.165 E.01795
G1 X15.713 Y14.293 E.00384
G1 E-2.24 F4200
; WIPE_START
G1 F24000
G1 X15.309 Y14.478 E-.20272
G1 X15.113 Y14.57 E-.09877
G1 X14.753 Y14.81 E-.19729
G1 X14.592 Y14.956 E-.09892
G1 X14.443 Y15.119 E-.1008
G1 X14.203 Y15.48 E-.19747
G1 X14.188 Y15.511 E-.01603
; WIPE_END
G1 E-.048 F4200
G17
G3 Z.6 I.105 J1.212 P1  F30000
G1 X29.693 Y14.165 Z.6
G1 Z.2
G1 E3.2 F1800
G1 F3000
G3 X30.506 Y15.06 I.002 J.815 E.04044
G1 X30.506 Y16.019 E.02849
G1 X30.318 Y16.042 E.00562
G2 X28.595 Y14.353 I-2.199 J.519 E.07558
G1 X28.618 Y14.165 E.00563
G1 X29.633 Y14.165 E.03013
G1 E-2.24 F4200
; WIPE_START
G1 F24000
G1 X29.865 Y14.181 E-.10591
G1 X30.014 Y14.226 E-.07085
G1 X30.151 Y14.299 E-.07084
G1 X30.271 Y14.398 E-.07082
G1 X30.409 Y14.584 E-.10598
G1 X30.469 Y14.728 E-.07076
G1 X30.499 Y14.878 E-.07004
G1 X30.506 Y15.06 E-.08277
G1 X30.506 Y15.639 E-.26403
; WIPE_END
G1 E-.048 F4200
G17
G3 Z.6 I-1.217 J-.017 P1  F30000
G1 X30.318 Y29.082 Z.6
G1 Z.2
G1 E3.2 F1800
G1 F3000
M73 P2 R17
G1 X30.506 Y29.105 E.00563
G3 X30.502 Y30.158 I-10.726 J.48 E.03128
G3 X29.696 Y30.873 I-.792 J-.081 E.03512
G1 X28.826 Y30.873 E.02583
G1 X28.796 Y30.696 E.00535
G2 X30.304 Y29.14 I-.635 J-2.125 E.06721
G1 E-2.24 F4200
; WIPE_START
G1 F24000
