; generated by PrusaSlicer 2.6.1+MacOS-x64 on 2024-01-02 at 16:09:56 UTC


;
;
; 

; external perimeters extrusion width = 0.45mm
; perimeters extrusion width = 0.45mm
; infill extrusion width = 0.45mm
; solid infill extrusion width = 0.45mm
; top infill extrusion width = 0.40mm
; first layer extrusion width = 0.42mm

M73 P0 R26
M73 Q0 S26
M201 X1000 Y1000 Z200 E5000 ; sets maximum accelerations, mm/sec^2
M203 X200 Y200 Z12 E120 ; sets maximum feedrates, mm / sec
M204 S1250 T1250 ; sets acceleration (S) and retract acceleration (R), mm/sec^2
M205 X8.00 Y8.00 Z0.40 E4.50 ; sets the jerk limits, mm/sec
M205 S0 T0 ; sets the minimum extruding and travel feed rate, mm/sec
;TYPE:Custom
M862.3 P "MK3S" ; printer model check
M862.1 P0.4 ; nozzle diameter check
M115 U3.13.2 ; tell printer latest fw version
G90 ; use absolute coordinates
M83 ; extruder relative mode
M104 S215 ; set extruder temp
M140 S60 ; set bed temp
M190 S60 ; wait for bed temp
M109 S215 ; wait for extruder temp
G28 W ; home all without mesh bed level
G80 ; mesh bed leveling

G1 Z0.2 F720
G1 Y-3 F1000 ; go outside print area
G92 E0
G1 X60 E9 F1000 ; intro line
G1 X100 E12.5 F1000 ; intro line

G92 E0
M221 S95

; Don't change E values below. Excessive value can damage the printer.
M907 E430 ; set extruder motor current
G21 ; set units to millimeters
G90 ; use absolute coordinates
M83 ; use relative distances for extrusion
M900 K0.05 ; Filament gcode LA 1.5
M900 K30 ; Filament gcode LA 1.0

M107
;LAYER_CHANGE
;Z:0.2
;HEIGHT:0.2
;BEFORE_LAYER_CHANGE
G92 E0.0
;0.2


G1 E-.8 F2100
G1 Z.4 F720
;AFTER_LAYER_CHANGE
;0.2
G1 X114.92 Y93.457 F10800
G1 Z.2 F720
G1 E.8 F2100
M204 S800
;TYPE:Skirt/Brim
;WIDTH:0.42
G1 F1200
G1 X115.319 Y93.124 E.01629
G1 X116.542 Y92.54 E.04249
G1 X117.358 Y92.432 E.02581
G1 X132.761 Y92.441 E.48295
G1 X133.745 Y92.615 E.03133
G1 X134.761 Y93.152 E.03603
G1 X135.624 Y94.073 E.03957
G1 X135.975 Y94.758 E.02413
G1 X136.178 Y95.637 E.02829
G1 X136.2 Y112.027 E.5139
G1 X135.933 Y113.128 E.03552
G1 X135.737 Y113.542 E.01436
G1 X135.022 Y114.471 E.03676
G1 X133.829 Y115.172 E.04339
G1 X132.62 Y115.416 E.03867
G1 X117.168 Y115.407 E.48449
G1 X116.185 Y115.198 E.03151
G1 X115.21 Y114.667 E.03481
G1 X114.326 Y113.674 E.04168
G1 X113.922 Y112.717 E.03257
G1 X113.793 Y111.832 E.02804
G1 X113.806 Y95.769 E.50364
G1 X114.119 Y94.566 E.03898
G1 X114.885 Y93.505 E.04103
M204 S1000
G1 X115.161 Y93.746 F10800
M204 S800
G1 F1200
G1 X115.56 Y93.414 E.01627
G1 X116.616 Y92.91 E.03669
G1 X117.358 Y92.809 E.02348
G1 X132.76 Y92.818 E.48292
G1 X133.637 Y92.977 E.02795
G1 X134.549 Y93.463 E.0324
G1 X135.315 Y94.288 E.0353
G1 X135.624 Y94.897 E.02141
G1 X135.805 Y95.692 E.02556
G1 X135.824 Y111.999 E.51129
G1 X135.592 Y112.967 E.03121
G1 X135.396 Y113.381 E.01436
G1 X134.779 Y114.182 E.0317
G1 X133.722 Y114.81 E.03855
G1 X132.617 Y115.039 E.03538
G1 X117.4 Y115.039 E.47712
G1 X116.299 Y114.838 E.03509
G1 X115.427 Y114.359 E.03119
G1 X114.639 Y113.465 E.03737
G1 X114.291 Y112.639 E.0281
G1 X114.17 Y111.831 E.02562
G1 X114.181 Y95.806 E.50245
G1 X114.47 Y94.704 E.03572
G1 X115.126 Y93.795 E.03515
M204 S1000
; printing object Spectacular Albar.stl id:0 copy 0
;WIPE_START
G1 F8640
G1 X115.56 Y93.414 E-.13335
G1 X116.616 Y92.91 E-.27018
G1 X117.358 Y92.809 E-.17291
G1 X118.326 Y92.81 E-.22356
;WIPE_END
G1 Z.6 F720
G1 X118.181 Y95.95 F10800
G1 Z.2 F720
M73 Q1 S26
G1 E.8 F2100
M204 S800
;TYPE:Perimeter
;WIDTH:0.374619
G1 F1200
G1 X118.112 Y95.964 E.00194
G1 X117.614 Y96.231 E.01558
G1 X117.311 Y96.572 E.01258
G1 X117.311 Y96.314 E.00712
M73 P1 R26
G1 X117.343 Y96.018 E.00821
G1 X117.435 Y95.95 E.00316
G1 X118.121 Y95.95 E.01892
M204 S1000
;WIPE_START
G1 F8640
G1 X118.112 Y95.964 E-.00384
G1 X117.614 Y96.231 E-.13047
G1 X117.311 Y96.572 E-.10533
G1 X117.311 Y96.314 E-.05957
G1 X117.343 Y96.018 E-.06875
G1 X117.435 Y95.95 E-.02642
G1 X118.121 Y95.95 E-.1584
;WIPE_END
G1 E-.24722 F2100
G1 Z.6 F720
G1 X132.688 Y96.575 F10800
G1 Z.2 F720
G1 E.8 F2100
M204 S800
;WIDTH:0.376816
G1 F1200
G1 X132.618 Y96.471 E.00348
G1 X132.238 Y96.123 E.01431
G1 X131.869 Y95.96 E.0112
G1 X132.644 Y95.968 E.02152
G1 X132.688 Y96.107 E.00405
G1 X132.688 Y96.515 E.01133
M204 S1000
;WIPE_START
G1 F8640
G1 X132.618 Y96.471 E-.01909
G1 X132.238 Y96.123 E-.11898
G1 X131.869 Y95.96 E-.09315
G1 X132.644 Y95.968 E-.17896
G1 X132.688 Y96.107 E-.03367
G1 X132.688 Y96.515 E-.09421
;WIPE_END
G1 E-.26194 F2100
G1 Z.6 F720
G1 X131.386 Y112.254 F10800
G1 Z.2 F720
G1 E.8 F2100
M204 S800
;TYPE:External perimeter
;WIDTH:0.417
G1 F1200
G1 X118.537 Y112.254 E.39967
;WIDTH:0.433408
G1 X117.629 Y112.252 E.02948
;WIDTH:0.419999
G1 X117.3 Y112.22 E.01036
G1 X117.096 Y112.126 E.00704
G1 X116.982 Y111.901 E.00791
G1 X116.956 Y111.447 E.01426
;WIDTH:0.46096
G1 X116.977 Y110.775 E.02337
G1 X116.977 Y97.372 E.46589
G1 X116.956 Y96.816 E.01934
;WIDTH:0.419999
G1 X116.956 Y96.152 E.02082
G1 X117.033 Y95.815 E.01084
G1 X117.265 Y95.621 E.00948
G1 X117.401 Y95.595 E.00434
G1 X117.906 Y95.596 E.01583
;WIDTH:0.466697
G1 X118.103 Y95.619 E.00699
;WIDTH:0.513394
G1 X118.301 Y95.643 E.0078
;WIDTH:0.560091
G1 X118.498 Y95.666 E.00853
G1 X131.488 Y95.672 E.55861
;WIDTH:0.57593
G1 X131.797 Y95.683 E.0137
G1 X131.837 Y95.663 E.00198
;WIDTH:0.536948
G1 X131.878 Y95.644 E.00186
;WIDTH:0.497965
G1 X131.919 Y95.624 E.00173
;WIDTH:0.458982
G1 X131.96 Y95.605 E.00156
;WIDTH:0.419999
G1 X132.703 Y95.605 E.0233
G1 X132.917 Y95.724 E.00768
G1 X133.018 Y95.895 E.00623
G1 X133.044 Y96.107 E.0067
G1 X133.044 Y96.63 E.0164
;WIDTH:0.465974
G1 X133.021 Y97.376 E.02625
G1 X133.021 Y110.786 E.47172
G1 X133.038 Y111.175 E.0137
;WIDTH:0.430357
G1 X133.04 Y111.844 E.02155
;WIDTH:0.419999
G1 X132.881 Y112.137 E.01045
G1 X132.595 Y112.237 E.0095
G1 X131.453 Y112.254 E.03581
;WIDTH:0.417
G1 X131.446 Y112.254 E.00022
M204 S1000
G1 X131.453 Y111.88 F10800
M204 S800
G1 F1200
G1 X118.537 Y111.88 E.40175
;WIDTH:0.428248
G1 X118.208 Y111.832 E.01065
G1 X117.758 Y111.571 E.01667
;WIDTH:0.419999
G1 X117.535 Y111.262 E.01195
;WIDTH:0.460978
G1 X117.395 Y110.775 E.01761
G1 X117.395 Y97.372 E.46591
G1 X117.534 Y96.889 E.01747
;WIDTH:0.419999
G1 X117.8 Y96.532 E.01396
;WIDTH:0.46643
G1 X118.016 Y96.417 E.00862
;WIDTH:0.512861
G1 X118.233 Y96.303 E.00958
;WIDTH:0.559292
G1 X118.449 Y96.188 E.01051
;WIDTH:0.560091
G1 X131.488 Y96.185 E.56072
;WIDTH:0.57593
G1 X131.757 Y96.213 E.01199
G1 X131.768 Y96.236 E.00113
;WIDTH:0.536948
G1 X131.778 Y96.259 E.00103
;WIDTH:0.497965
G1 X131.789 Y96.283 E.001
;WIDTH:0.458982
G1 X131.799 Y96.306 E.00087
;WIDTH:0.419999
G1 X132.143 Y96.488 E.0122
G1 X132.396 Y96.769 E.01186
;WIDTH:0.452366
G1 X132.484 Y96.935 E.0064
;WIDTH:0.484732
G1 X132.572 Y97.102 E.00693
G1 X132.598 Y97.376 E.01011
;WIDTH:0.465974
G1 X132.598 Y110.786 E.47172
G1 X132.485 Y111.198 E.01503
;WIDTH:0.419999
G1 X132.182 Y111.606 E.01593
;WIDTH:0.434725
G1 X131.721 Y111.856 E.01709
G1 X131.513 Y111.875 E.0068
M204 S1000
G1 X131.296 Y112.248 F10800
;WIPE_START
G1 F8640
G1 X128.048 Y111.876 E-.8
;WIPE_END
G1 Z.6 F720
G1 X117.428 Y111.754 F10800
G1 Z.2 F720
G1 E.8 F2100
M204 S800
;TYPE:Perimeter
;WIDTH:0.518684
G1 F1200
G1 X117.368 Y111.754 E.00237
G1 X117.338 Y111.805 E.00234
G1 X117.368 Y111.857 E.00237
G1 X117.428 Y111.857 E.00237
G1 X117.457 Y111.805 E.00236
M204 S1000
;WIPE_START
G1 F8640
G1 X117.428 Y111.857 E-.01375
G1 X117.368 Y111.857 E-.01385
G1 X117.338 Y111.805 E-.01386
G1 X117.368 Y111.754 E-.01366
G1 X117.428 Y111.754 E-.01385
;WIPE_END
G1 E-.73103 F2100
G1 Z.6 F720
G1 X125.695 Y106.548 F10800
G1 Z.2 F720
G1 E.8 F2100
M204 S800
;TYPE:External perimeter
;WIDTH:0.38292
G1 F1200
G1 X125.152 Y106.608 E.01544
G1 X124.697 Y106.603 E.01286
G1 X124.219 Y106.525 E.01369
M204 S1000
;WIPE_START
G1 F8640
G1 X124.697 Y106.603 E-.11183
G1 X125.152 Y106.608 E-.10507
G1 X125.695 Y106.548 E-.12614
;WIPE_END
G1 E-.45696 F2100
G1 Z.6 F720
G1 X125.695 Y106.548 F10800
G1 Z.2 F720
G1 E.8 F2100
M204 S800
;WIDTH:0.395929
G1 F1200
G1 X125.783 Y106.46 E.00365
;WIDTH:0.419999
G1 X125.832 Y105.987 E.01491
G1 X125.945 Y105.395 E.0189
G1 X126.602 Y105.266 E.02099
G1 X127.117 Y105.215 E.01623
;WIDTH:0.397117
G1 X127.218 Y105.128 E.00393
G1 X127.141 Y105.256 E.0044
;WIDTH:0.419999
G1 X126.778 Y105.732 E.01877
G1 X126.178 Y106.203 E.02392
G1 X125.744 Y106.513 E.01672
M204 S1000
G1 X125.787 Y106.464 F10800
G1 X126.258 Y105.68
M204 S800
;TYPE:Perimeter
;WIDTH:0.361342
G1 F1200
G1 X126.198 Y105.714 E.00183
G1 X126.258 Y105.749 E.00184
G1 X126.278 Y105.714 E.00107
M204 S1000
;WIPE_START
G1 F8640
G1 X126.258 Y105.749 E-.00931
G1 X126.198 Y105.714 E-.01604
G1 X126.258 Y105.68 E-.01592
;WIPE_END
G1 E-.75873 F2100
G1 Z.6 F720
G1 X127.241 Y103.435 F10800
G1 Z.2 F720
G1 E.8 F2100
M204 S800
;TYPE:External perimeter
;WIDTH:0.396406
G1 F1200
G1 X127.294 Y103.78 E.01026
;WIDTH:0.430056
G1 X127.311 Y104.472 E.02228
G1 X127.236 Y105.071 E.01943
;WIDTH:0.38292
G1 X127.218 Y105.128 E.00169
M204 S1000
;WIPE_START
G1 F8640
G1 X127.236 Y105.071 E-.0138
G1 X127.311 Y104.472 E-.13939
G1 X127.294 Y103.78 E-.15983
G1 X127.241 Y103.435 E-.0806
;WIPE_END
G1 E-.40638 F2100
G1 Z.6 F720
G1 X127.241 Y103.435 F10800
G1 Z.2 F720
G1 E.8 F2100
M204 S800
;WIDTH:0.393055
G1 F1200
G1 X127.186 Y103.344 E.0031
;WIDTH:0.401491
G1 X127.117 Y103.313 E.00226
;WIDTH:0.419999
G1 X126.521 Y103.254 E.01878
G1 X125.975 Y103.138 E.0175
G1 X125.842 Y102.584 E.01786
G1 X125.818 Y102.139 E.01397
;WIDTH:0.408243
G1 X125.688 Y101.961 E.0067
;WIDTH:0.403426
G1 X125.878 Y102.049 E.00628
;WIDTH:0.419999
G1 X126.286 Y102.314 E.01525
G1 X126.86 Y102.877 E.02521
G1 X127.207 Y103.386 E.01932
M204 S1000
G1 X127.347 Y103.427 F10800
;WIPE_START
G1 F8640
G1 X127.186 Y103.344 E-.01084
G1 X127.117 Y103.313 E-.01747
G1 X126.521 Y103.254 E-.13829
G1 X125.975 Y103.138 E-.12889
G1 X125.842 Y102.584 E-.13155
G1 X125.818 Y102.139 E-.1029
G1 X125.688 Y101.961 E-.0509
G1 X125.878 Y102.049 E-.04835
G1 X126.286 Y102.314 E-.11234
G1 X126.467 Y102.491 E-.05847
;WIPE_END
G1 Z.6 F720
G1 X126.308 Y102.777 F10800
G1 Z.2 F720
G1 E.8 F2100
M204 S800
;TYPE:Perimeter
;WIDTH:0.391768
G1 F1200
G1 X126.242 Y102.814 E.00219
G1 X126.308 Y102.852 E.00221
G1 X126.33 Y102.814 E.00127
M204 S1000
;WIPE_START
G1 F8640
G1 X126.308 Y102.852 E-.01014
G1 X126.242 Y102.814 E-.01759
G1 X126.308 Y102.777 E-.01747
;WIPE_END
G1 E-.7548 F2100
G1 Z.6 F720
G1 X124.176 Y101.981 F10800
G1 Z.2 F720
G1 E.8 F2100
M204 S800
;TYPE:External perimeter
;WIDTH:0.421618
G1 F1200
G1 X124.692 Y101.908 E.01641
G1 X125.484 Y101.925 E.02494
;WIDTH:0.386382
G1 X125.688 Y101.961 E.00592
M204 S1000
;WIPE_START
G1 F8640
G1 X125.484 Y101.925 E-.04783
G1 X124.692 Y101.908 E-.18292
G1 X124.176 Y101.981 E-.12033
;WIPE_END
G1 E-.44892 F2100
G1 Z.6 F720
G1 X122.681 Y103.436 F10800
G1 Z.2 F720
G1 E.8 F2100
M204 S800
;WIDTH:0.395629
G1 F1200
G1 X122.759 Y103.327 E.00393
;WIDTH:0.419999
G1 X123.092 Y102.842 E.01845
G1 X123.677 Y102.285 E.02533
G1 X124.176 Y101.981 E.01832
;WIDTH:0.398946
G1 X124.087 Y102.097 E.00433
;WIDTH:0.419999
G1 X124.047 Y102.582 E.01526
G1 X123.921 Y103.148 E.01818
G1 X123.327 Y103.266 E.01899
G1 X122.984 Y103.285 E.01077
;WIDTH:0.41945
G1 X122.771 Y103.344 E.00692
;WIDTH:0.395629
G1 X122.723 Y103.393 E.00201
M204 S1000
;WIPE_START
G1 F8640
G1 X122.759 Y103.327 E-.01736
G1 X123.092 Y102.842 E-.13584
G1 X123.677 Y102.285 E-.18651
G1 X124.176 Y101.981 E-.13492
G1 X124.087 Y102.097 E-.03376
G1 X124.047 Y102.582 E-.11237
G1 X123.921 Y103.148 E-.13389
G1 X123.728 Y103.186 E-.04535
;WIPE_END
G1 Z.6 F720
G1 X123.634 Y102.796 F10800
G1 Z.2 F720
G1 E.8 F2100
M204 S800
;TYPE:Perimeter
;WIDTH:0.374536
G1 F1200
G1 X123.571 Y102.831 E.00199
G1 X123.634 Y102.867 E.002
G1 X123.654 Y102.831 E.00114
M204 S1000
;WIPE_START
G1 F8640
G1 X123.634 Y102.867 E-.00951
G1 X123.571 Y102.831 E-.01675
G1 X123.634 Y102.796 E-.01664
;WIPE_END
G1 E-.7571 F2100
G1 Z.6 F720
G1 X122.699 Y105.116 F10800
G1 Z.2 F720
G1 E.8 F2100
M204 S800
;TYPE:External perimeter
;WIDTH:0.38292
G1 F1200
G1 X122.616 Y104.583 E.01525
G1 X122.616 Y103.888 E.01965
G1 X122.681 Y103.436 E.01291
M204 S1000
;WIPE_START
G1 F8640
G1 X122.616 Y103.888 E-.10544
G1 X122.616 Y104.583 E-.16048
G1 X122.699 Y105.116 E-.12455
;WIPE_END
G1 E-.40953 F2100
G1 Z.6 F720
G1 X123.982 Y106.259 F10800
G1 Z.2 F720
G1 E.8 F2100
M204 S800
;WIDTH:0.567619
G1 F1200
G1 X123.887 Y106.228 E.00436
G1 X123.276 Y105.702 E.03517
G1 X122.913 Y105.289 E.02399
G1 X123.265 Y105.336 E.01549
G1 X123.884 Y105.454 E.02749
G1 X123.98 Y105.98 E.02333
G1 X123.982 Y106.199 E.00956
M204 S1000
G1 X123.905 Y106.195 F10800
; stop printing object Spectacular Albar.stl id:0 copy 0
M106 S84.15
;LAYER_CHANGE
;Z:0.4
;HEIGHT:0.2
;BEFORE_LAYER_CHANGE
G92 E0.0
;0.4


;WIPE_START
G1 F8640
G1 X123.887 Y106.228 E-.02294
G1 X123.276 Y105.702 E-.18616
G1 X122.913 Y105.289 E-.12696
G1 X123.265 Y105.336 E-.082
G1 X123.884 Y105.454 E-.1455
G1 X123.98 Y105.98 E-.12346
G1 X123.982 Y106.199 E-.05057
;WIPE_END
G1 E-.06241 F2100
G1 Z.6 F720
;AFTER_LAYER_CHANGE
;0.4
M104 S210 ; set temperature
G1 X123.976 Y115.411 F10800
G1 Z.4 F720
G1 E.8 F2100
;TYPE:Skirt/Brim
;WIDTH:0.42
G1 F3000
G1 X117.168 Y115.407 E.21346
G1 X116.185 Y115.198 E.03151
G1 X115.21 Y114.667 E.03481
G1 X114.326 Y113.674 E.04168
G1 X113.922 Y112.717 E.03257
G1 X113.793 Y111.832 E.02804
G1 X113.806 Y95.769 E.50364
G1 X114.119 Y94.566 E.03898
G1 X114.92 Y93.457 E.04289
G1 X115.319 Y93.124 E.01629
G1 X116.542 Y92.54 E.04249
G1 X117.358 Y92.432 E.02581
G1 X132.761 Y92.441 E.48295
G1 X133.745 Y92.615 E.03133
G1 X134.761 Y93.152 E.03603
G1 X135.624 Y94.073 E.03957
G1 X135.975 Y94.758 E.02413
G1 X136.178 Y95.637 E.02829
G1 X136.2 Y112.027 E.5139
G1 X135.933 Y113.128 E.03552
G1 X135.737 Y113.542 E.01436
G1 X135.022 Y114.471 E.03676
G1 X133.829 Y115.172 E.04339
G1 X132.62 Y115.416 E.03867
G1 X124.036 Y115.411 E.26915
G1 X124.036 Y115.039 F10800
G1 F3000
G1 X117.4 Y115.039 E.20807
G1 X116.299 Y114.838 E.03509
G1 X115.427 Y114.359 E.03119
G1 X114.639 Y113.465 E.03737
M73 Q2 S26
G1 X114.291 Y112.639 E.0281
G1 X114.17 Y111.831 E.02562
G1 X114.181 Y95.806 E.50245
G1 X114.47 Y94.704 E.03572
M73 P2 R26
G1 X115.161 Y93.746 E.03704
G1 X115.56 Y93.414 E.01627
G1 X116.616 Y92.91 E.03669
G1 X117.358 Y92.809 E.02348
G1 X132.76 Y92.818 E.48292
G1 X133.637 Y92.977 E.02795
G1 X134.549 Y93.463 E.0324
G1 X135.315 Y94.288 E.0353
G1 X135.624 Y94.897 E.02141
G1 X135.805 Y95.692 E.02556
G1 X135.824 Y111.999 E.51129
G1 X135.592 Y112.967 E.03121
G1 X135.396 Y113.381 E.01436
G1 X134.779 Y114.182 E.0317
G1 X133.722 Y114.81 E.03855
G1 X132.617 Y115.039 E.03538
G1 X124.096 Y115.039 E.26717
; printing object Spectacular Albar.stl id:0 copy 0
;WIPE_START
G1 F8640
G1 X120.631 Y115.039 E-.8
;WIPE_END
G1 Z.8 F720
G1 X118.306 Y112.037 F10800
G1 Z.4 F720
G1 E.8 F2100
M204 S800
;TYPE:Perimeter
;WIDTH:0.451758
G1 F1500
G1 X117.672 Y112.013 E.02157
G1 X117.333 Y111.973 E.0116
G1 X117.239 Y111.87 E.00474
G1 X117.212 Y111.472 E.01356
;WIDTH:0.474228
G1 X117.223 Y110.852 E.02224
G1 X117.227 Y110.885 E.00119
;WIDTH:0.472368
G1 X117.409 Y111.409 E.01981
;WIDTH:0.451758
G1 X117.641 Y111.709 E.01289
G1 X118.083 Y111.973 E.0175
;WIDTH:0.432958
G1 X118.248 Y112.02 E.00556
M204 S1000
;WIPE_START
G1 F8640
G1 X117.672 Y112.013 E-.13301
G1 X117.333 Y111.973 E-.07882
G1 X117.239 Y111.87 E-.0322
G1 X117.212 Y111.472 E-.09211
G1 X117.223 Y110.852 E-.14318
G1 X117.227 Y110.885 E-.00768
G1 X117.409 Y111.409 E-.12808
G1 X117.641 Y111.709 E-.08757
G1 X118.003 Y111.925 E-.09735
;WIPE_END
G1 Z.8 F720
G1 X131.701 Y112.035 F10800
G1 Z.4 F720
G1 E.8 F2100
M204 S800
;WIDTH:0.429165
G1 F1500
G1 X131.891 Y111.979 E.00636
;WIDTH:0.449936
G1 X132.338 Y111.721 E.01747
G1 X132.607 Y111.347 E.01559
;WIDTH:0.483472
G1 X132.771 Y110.864 E.01869
G1 X132.785 Y111.126 E.00961
;WIDTH:0.457177
G1 X132.792 Y111.727 E.0207
;WIDTH:0.449936
G1 X132.704 Y111.95 E.00811
G1 X132.271 Y112.014 E.01481
G1 X131.761 Y112.033 E.01727
M204 S1000
;WIPE_START
G1 F8640
G1 X131.891 Y111.979 E-.0325
G1 X132.338 Y111.721 E-.11917
G1 X132.607 Y111.347 E-.10638
G1 X132.771 Y110.864 E-.11778
G1 X132.785 Y111.126 E-.06058
G1 X132.792 Y111.727 E-.13878
