;FLAVOR:Marlin
;TIME:1798
;Filament used: 0.857877m
;Layer height: 0.13125
;MINX:45.877
;MINY:45.481
;MINZ:0.263
;MAXX:74.123
;MAXY:73.742
;MAXZ:22.402
;TARGET_MACHINE.NAME:Monoprice Select Mini V2
;Generated with Cura_SteamEngine 5.7.2
M140 S65
M105
M190 S65
M104 S205
M105
M109 S205
M82 ;absolute extrusion mode
G21;(metric values)
G90;(absolute positioning)
M82;(set extruder to absolute mode)
M107;(start with the fan off)
G28;(Home the printer)
G92 E0;(Reset the extruder to 0)
G0 Z5 E5 F500;(Move up and prime the nozzle)
G0 X-1 Z0;(Move outside the printable area)
G1 Y60 E8 F500;(Draw a priming/wiping line to the rear)
G1 X-1;(Move a little closer to the print area)
G1 Y10 E16 F500;(draw more priming/wiping)
G1 E15 F250;(Small retract)
G92 E0;(Zero the extruder)
G92 E0
G92 E0
G1 F2400 E-2.5
;LAYER_COUNT:171
;LAYER:0
M107
G0 F4320 X47.411 Y47.804 Z0.263
;TYPE:SKIRT
G1 F2400 E0
G1 F1800 X48.482 Y46.791 E0.05642
G1 X50.025 Y45.89 E0.1248
G1 X51.804 Y45.481 E0.19466
G1 X68.64 Y45.481 E0.83897
G1 X70.614 Y46.183 E0.91915
G1 X71.953 Y47.14 E0.98213
G1 X72.936 Y48.259 E1.03914
G1 X73.735 Y49.736 E1.1034
G1 X74.123 Y51.444 E1.17043
G1 X74.118 Y67.915 E1.80078
G1 X73.662 Y69.714 E1.8718
G1 X72.829 Y71.127 E1.93457
G1 X71.646 Y72.366 E2.00013
G1 X70.225 Y73.161 E2.06245
G1 X69.172 Y73.576 E2.10576
G1 X67.543 Y73.742 E2.16843
G1 X51.803 Y73.703 E2.7708
G1 X51.117 Y73.592 E2.79739
G1 X49.854 Y73.219 E2.84779
G1 X48.897 Y72.684 E2.88975
G1 X47.936 Y71.976 E2.93543
G1 X47.021 Y70.918 E2.98896
G1 X46.255 Y69.468 E3.05172
G1 X45.877 Y67.825 E3.11624
G1 X45.881 Y51.318 E3.74796
G1 X46.174 Y50.144 E3.79427
G1 X46.822 Y48.698 E3.85491
G1 X47.03 Y48.383 E3.86936
G0 F1620 X47.411 Y47.804
G0 F4320 X47.679 Y48.032
G1 F1800 X48.695 Y47.071 E3.92288
G1 X50.154 Y46.22 E3.98752
G1 X51.844 Y45.831 E4.05388
G1 X68.579 Y45.831 E4.69433
G1 X70.449 Y46.496 E4.77029
G1 X71.718 Y47.403 E4.82998
G1 X72.646 Y48.459 E4.88378
G1 X73.405 Y49.862 E4.94483
G1 X73.773 Y51.482 E5.0084
G1 X73.768 Y67.872 E5.63565
G1 X73.335 Y69.58 E5.70308
G1 X72.549 Y70.913 E5.7623
G1 X71.428 Y72.087 E5.82442
G1 X70.097 Y72.835 E5.88285
G1 X69.087 Y73.233 E5.9244
G1 X67.544 Y73.392 E5.98376
G1 X51.857 Y73.357 E6.5841
G1 X51.216 Y73.256 E6.60894
G1 X49.99 Y72.894 E6.65786
G1 X49.105 Y72.402 E6.69661
G1 X48.175 Y71.717 E6.74081
G1 X47.309 Y70.716 E6.79147
G1 X46.586 Y69.347 E6.85072
G1 X46.227 Y67.786 E6.91202
G1 X46.231 Y51.363 E7.54052
G1 X46.514 Y50.229 E7.58525
G1 X47.114 Y48.89 E7.6414
G1 X47.298 Y48.611 E7.6542
G0 F1620 X47.679 Y48.032
G0 F4320 X47.947 Y48.26
G1 F1800 X48.908 Y47.351 E7.70482
G1 X50.283 Y46.549 E7.76574
G1 X51.883 Y46.181 E7.82857
G1 X68.518 Y46.181 E8.46519
G1 X70.284 Y46.809 E8.53692
G1 X71.483 Y47.666 E8.59332
G1 X72.356 Y48.659 E8.64392
G1 X73.075 Y49.988 E8.70175
G1 X73.423 Y51.52 E8.76187
G1 X73.418 Y67.829 E9.38602
G1 X73.008 Y69.446 E9.44986
G1 X72.269 Y70.699 E9.50553
G1 X71.211 Y71.807 E9.56416
G1 X69.969 Y72.509 E9.61875
G1 X69.002 Y72.89 E9.65853
G1 X67.545 Y73.042 E9.71459
G1 X51.91 Y73.011 E10.31294
G1 X51.315 Y72.92 E10.33598
G1 X50.123 Y72.568 E10.38354
G1 X49.313 Y72.12 E10.41897
G1 X48.414 Y71.458 E10.4617
G1 X47.6 Y70.517 E10.50931
G1 X46.917 Y69.223 E10.56531
G1 X46.577 Y67.746 E10.62331
G1 X46.581 Y51.408 E11.24856
G1 X46.854 Y50.314 E11.29172
G1 X47.406 Y49.082 E11.34338
G1 X47.566 Y48.839 E11.35452
G0 F1620 X47.947 Y48.26
G0 F4320 X48.215 Y48.488
G1 F1800 X49.121 Y47.631 E11.40224
G1 X50.412 Y46.879 E11.45942
G1 X51.923 Y46.531 E11.51876
G1 X68.457 Y46.531 E12.15151
G1 X70.119 Y47.122 E12.21902
G1 X71.248 Y47.929 E12.27213
G1 X72.066 Y48.859 E12.31953
G1 X72.745 Y50.114 E12.37414
G1 X73.073 Y51.558 E12.43081
G1 X73.068 Y67.786 E13.05185
G1 X72.682 Y69.309 E13.11198
G1 X71.987 Y70.488 E13.16436
G1 X70.993 Y71.529 E13.21944
G1 X69.841 Y72.183 E13.27014
G1 X68.917 Y72.547 E13.30814
G1 X67.546 Y72.692 E13.3609
G1 X51.963 Y72.665 E13.95726
G1 X51.368 Y72.574 E13.9803
G1 X50.26 Y72.244 E14.02454
G1 X49.52 Y71.838 E14.05685
G1 X48.654 Y71.201 E14.09799
G1 X47.891 Y70.318 E14.14265
G1 X47.247 Y69.098 E14.19544
G1 X46.927 Y67.707 E14.25007
G1 X46.931 Y51.453 E14.87211
G1 X47.194 Y50.399 E14.91368
G1 X47.698 Y49.274 E14.96086
G1 X47.834 Y49.067 E14.97034
G0 F1620 X48.215 Y48.488
G0 F4320 X48.483 Y48.716
G1 F1800 X49.334 Y47.911 E15.01517
G1 X50.541 Y47.208 E15.06862
G1 X51.962 Y46.881 E15.12442
G1 X68.396 Y46.881 E15.75335
G1 X69.954 Y47.435 E15.81663
G1 X71.013 Y48.192 E15.86645
G1 X71.776 Y49.059 E15.91065
G1 X72.415 Y50.24 E15.96204
G1 X72.723 Y51.596 E16.01525
G1 X72.718 Y67.743 E16.6332
G1 X72.355 Y69.175 E16.68974
G1 X71.707 Y70.274 E16.73856
G1 X70.776 Y71.25 E16.79018
G1 X69.713 Y71.857 E16.83703
G1 X68.832 Y72.204 E16.87326
G1 X67.547 Y72.342 E16.92272
G1 X52.014 Y72.319 E17.51717
G1 X51.468 Y72.239 E17.53829
G1 X50.399 Y71.921 E17.58097
G1 X49.689 Y71.531 E17.61197
G1 X48.895 Y70.944 E17.64976
G1 X48.182 Y70.119 E17.69149
G1 X47.578 Y68.974 E17.74103
G1 X47.277 Y67.667 E17.79236
G1 X47.281 Y51.498 E18.41115
G1 X47.534 Y50.484 E18.45114
G1 X47.99 Y49.466 E18.49383
G1 X48.102 Y49.295 E18.50166
G0 F1620 X48.483 Y48.716
G0 F4320 X48.753 Y48.942
G1 F1800 X49.545 Y48.193 E18.54337
G1 X50.67 Y47.537 E18.59321
G1 X52.001 Y47.231 E18.64548
G1 X68.335 Y47.231 E19.27058
G1 X69.789 Y47.748 E19.32964
G1 X70.778 Y48.455 E19.37616
G1 X71.486 Y49.259 E19.41716
G1 X72.085 Y50.366 E19.46533
G1 X72.373 Y51.634 E19.51509
G1 X72.368 Y67.7 E20.12994
G1 X72.028 Y69.041 E20.18288
G1 X71.427 Y70.06 E20.22815
G1 X70.556 Y70.973 E20.27644
G1 X69.585 Y71.531 E20.3193
G1 X68.747 Y71.861 E20.35377
G1 X67.547 Y71.992 E20.39997
G1 X52.062 Y71.972 E20.99258
G1 X51.568 Y71.903 E21.01167
G1 X50.534 Y71.596 E21.05295
G1 X49.858 Y71.224 E21.08247
G1 X49.135 Y70.686 E21.11696
G1 X48.473 Y69.92 E21.15571
G1 X47.908 Y68.849 E21.20205
G1 X47.627 Y67.628 E21.25
G1 X47.631 Y51.543 E21.86557
G1 X47.874 Y50.569 E21.90399
G1 X48.282 Y49.658 E21.94219
G1 X48.372 Y49.521 E21.94846
G0 F1620 X48.753 Y48.942
G0 F4320 X49.023 Y49.168
G1 F1800 X49.756 Y48.475 E21.98707
G1 X50.799 Y47.866 E22.03329
G1 X52.04 Y47.581 E22.08202
G1 X68.274 Y47.581 E22.70329
G1 X69.624 Y48.061 E22.75812
G1 X70.543 Y48.718 E22.80136
G1 X71.196 Y49.459 E22.83916
G1 X71.755 Y50.492 E22.88411
G1 X72.023 Y51.672 E22.93041
G1 X72.018 Y67.657 E23.54216
G1 X71.702 Y68.904 E23.59139
G1 X71.145 Y69.849 E23.63337
G1 X70.337 Y70.695 E23.67814
G1 X69.457 Y71.205 E23.71707
G1 X68.662 Y71.518 E23.74976
G1 X67.547 Y71.642 E23.7927
G1 X52.108 Y71.625 E24.38355
G1 X51.667 Y71.567 E24.40057
G1 X50.668 Y71.271 E24.44044
G1 X50.067 Y70.943 E24.46665
G1 X49.375 Y70.428 E24.49966
G1 X48.762 Y69.718 E24.53556
G1 X48.239 Y68.728 E24.57841
G1 X47.977 Y67.589 E24.62313
G1 X47.981 Y51.588 E25.23549
G1 X48.214 Y50.654 E25.27233
G1 X48.574 Y49.85 E25.30604
G1 X48.642 Y49.747 E25.31077
G0 F1620 X49.023 Y49.168
G0 F4320 X49.293 Y49.395
G1 F1800 X49.969 Y48.755 E25.34639
G1 X50.928 Y48.195 E25.38889
G1 X52.079 Y47.931 E25.43408
G1 X68.213 Y47.931 E26.05153
G1 X69.459 Y48.374 E26.10214
G1 X70.308 Y48.981 E26.14208
G1 X70.906 Y49.66 E26.17671
G1 X71.425 Y50.618 E26.2184
G1 X71.673 Y51.71 E26.26126
G1 X71.668 Y67.614 E26.8699
G1 X71.375 Y68.77 E26.91554
G1 X70.865 Y69.635 E26.95397
G1 X70.118 Y70.417 E26.99536
G1 X69.329 Y70.879 E27.03035
G1 X68.577 Y71.175 E27.06128
G1 X67.547 Y71.292 E27.10095
G1 X52.15 Y71.277 E27.69019
G1 X51.766 Y71.231 E27.70499
G1 X50.801 Y70.945 E27.74351
G1 X50.276 Y70.662 E27.76634
G1 X49.615 Y70.17 E27.79787
G1 X49.053 Y69.519 E27.83078
G1 X48.57 Y68.604 E27.87038
G1 X48.327 Y67.549 E27.91181
G1 X48.331 Y51.633 E28.52092
G1 X48.554 Y50.739 E28.55618
G1 X48.866 Y50.043 E28.58537
G1 X48.912 Y49.974 E28.58854
G0 F1620 X49.293 Y49.395
G0 F4320 X49.563 Y49.622
G1 F1800 X50.181 Y49.037 E28.62111
G1 X51.059 Y48.524 E28.66002
G1 X52.118 Y48.281 E28.70161
G1 X68.152 Y48.281 E29.31523
G1 X69.294 Y48.687 E29.36161
G1 X70.073 Y49.244 E29.39826
G1 X70.616 Y49.861 E29.42971
G1 X71.095 Y50.744 E29.46816
G1 X71.323 Y51.748 E29.50756
G1 X71.318 Y67.571 E30.1131
G1 X71.048 Y68.636 E30.15515
G1 X70.585 Y69.421 E30.19003
G1 X69.899 Y70.139 E30.22803
G1 X69.201 Y70.553 E30.25909
G1 X68.492 Y70.832 E30.28825
G1 X67.547 Y70.942 E30.32466
G1 X52.192 Y70.929 E30.91229
G1 X51.808 Y70.883 E30.92709
G1 X50.935 Y70.62 E30.96199
G1 X50.485 Y70.381 E30.98149
G1 X49.855 Y69.912 E31.01154
G1 X49.344 Y69.32 E31.04147
G1 X48.9 Y68.479 E31.07787
G1 X48.677 Y67.51 E31.11592
G1 X48.681 Y51.678 E31.72181
G1 X48.894 Y50.824 E31.75549
G1 X49.158 Y50.236 E31.78016
G1 X49.182 Y50.2 E31.78182
G0 F1620 X49.563 Y49.622
G0 F4320 X49.833 Y49.849
G1 F1800 X50.393 Y49.319 E31.81132
G1 X51.19 Y48.853 E31.84666
G1 X52.157 Y48.631 E31.88463
G1 X68.091 Y48.631 E32.49442
G1 X69.129 Y49 E32.53658
G1 X69.838 Y49.507 E32.56994
G1 X70.326 Y50.062 E32.59822
G1 X70.765 Y50.87 E32.63341
G1 X70.973 Y51.786 E32.66936
G1 X70.968 Y67.528 E33.2718
G1 X70.721 Y68.502 E33.31026
G1 X70.305 Y69.207 E33.34159
G1 X69.678 Y69.863 E33.37631
G1 X69.073 Y70.227 E33.40333
G1 X68.407 Y70.489 E33.43072
G1 X67.547 Y70.592 E33.46387
G1 X52.234 Y70.581 E34.0499
G1 X51.85 Y70.535 E34.0647
G1 X51.096 Y70.309 E34.09482
G1 X50.694 Y70.1 E34.11216
G1 X50.095 Y69.654 E34.14074
G1 X49.635 Y69.121 E34.16769
G1 X49.23 Y68.354 E34.20088
G1 X49.027 Y67.471 E34.23555
G1 X49.031 Y51.723 E34.83823
G1 X49.234 Y50.909 E34.87034
G1 X49.45 Y50.429 E34.89048
G1 X49.451 Y50.428 E34.89053
G0 F1620 X49.833 Y49.849
G0 F4320 X50.104 Y50.073
G1 F1800 X50.602 Y49.602 E34.91677
G1 X51.321 Y49.182 E34.94863
G1 X52.196 Y48.981 E34.98299
G1 X68.03 Y48.981 E35.58896
G1 X68.964 Y49.313 E35.62689
G1 X69.603 Y49.77 E35.65696
G1 X70.039 Y50.266 E35.68223
G1 X70.435 Y50.994 E35.71395
G1 X70.623 Y51.823 E35.74648
G1 X70.618 Y67.485 E36.34586
G1 X70.395 Y68.365 E36.3806
G1 X70.023 Y68.996 E36.40864
G1 X69.456 Y69.588 E36.44001
G1 X68.945 Y69.901 E36.46294
G1 X68.319 Y70.147 E36.48868
G1 X67.547 Y70.242 E36.51845
G1 X52.276 Y70.233 E37.10287
G1 X51.892 Y70.187 E37.11767
G1 X51.254 Y69.996 E37.14316
G1 X50.903 Y69.819 E37.1582
G1 X50.335 Y69.396 E37.1853
G1 X49.926 Y68.922 E37.20926
G1 X49.561 Y68.23 E37.2392
G1 X49.377 Y67.431 E37.27058
G1 X49.381 Y51.766 E37.87008
G1 X49.555 Y51.049 E37.89832
G1 X49.728 Y50.654 E37.91482
G0 F1620 X49.742 Y50.622
G0 X50.104 Y50.073
G0 F4320 X50.374 Y50.3
G1 F1800 X50.815 Y49.882 E37.93807
G1 X51.45 Y49.512 E37.9662
G1 X52.236 Y49.331 E37.99707
G1 X67.969 Y49.331 E38.59917
G1 X68.799 Y49.626 E38.63288
G1 X69.368 Y50.033 E38.65965
G1 X69.752 Y50.47 E38.68191
G1 X70.104 Y51.117 E38.7101
G1 X70.273 Y51.861 E38.7393
G1 X70.268 Y67.442 E39.33558
G1 X70.068 Y68.231 E39.36673
G1 X69.743 Y68.782 E39.39121
G1 X69.236 Y69.312 E39.41928
G1 X68.762 Y69.602 E39.44055
G1 X68.231 Y69.805 E39.46231
G1 X67.547 Y69.892 E39.48869
G1 X52.318 Y69.885 E40.07151
G1 X51.934 Y69.839 E40.08631
G1 X51.412 Y69.683 E40.10716
G1 X51.061 Y69.506 E40.1222
G1 X50.574 Y69.138 E40.14556
G1 X50.219 Y68.726 E40.16637
G1 X49.892 Y68.106 E40.1932
G1 X49.727 Y67.391 E40.22128
G1 X49.731 Y51.809 E40.8176
G1 X49.878 Y51.185 E40.84214
G1 X50.005 Y50.885 E40.8546
G0 F1620 X50.034 Y50.815
G0 X50.374 Y50.3
G0 F4320 X50.644 Y50.527
G1 F1800 X51.028 Y50.162 E40.87488
G1 X51.579 Y49.841 E40.89928
G1 X52.275 Y49.681 E40.92661
G1 X67.908 Y49.681 E41.52489
G1 X68.634 Y49.939 E41.55437
G1 X69.133 Y50.296 E41.57786
G1 X69.465 Y50.674 E41.59711
G1 X69.774 Y51.241 E41.62182
G1 X69.923 Y51.898 E41.6476
G1 X69.918 Y67.399 E42.24083
G1 X69.741 Y68.097 E42.26838
G1 X69.463 Y68.568 E42.28931
G1 X69.013 Y69.038 E42.31422
G1 X68.579 Y69.304 E42.3337
G1 X68.147 Y69.463 E42.35131
G1 X67.547 Y69.542 E42.37447
G1 X52.36 Y69.537 E42.95568
G1 X51.976 Y69.491 E42.97048
G1 X51.57 Y69.37 E42.98669
G1 X51.219 Y69.193 E43.00174
G1 X50.817 Y68.884 E43.02114
G1 X50.51 Y68.528 E43.03913
G1 X50.223 Y67.982 E43.06274
G1 X50.077 Y67.351 E43.08752
G1 X50.081 Y51.849 E43.68078
G1 X50.201 Y51.321 E43.70151
G1 X50.287 Y51.118 E43.70994
G0 F1620 X50.357 Y50.951
G0 X50.644 Y50.527
G0 F4320 X51.174 Y50.979
G1 F1800 X51.415 Y50.746 E43.72277
G1 X51.84 Y50.499 E43.74158
G1 X52.353 Y50.381 E43.76173
G1 X67.786 Y50.381 E44.35235
G1 X68.312 Y50.568 E44.37371
G1 X68.623 Y50.775 E44.38801
G1 X68.855 Y51.016 E44.40081
G1 X69.102 Y51.443 E44.41969
G1 X69.223 Y51.974 E44.44053
G1 X69.218 Y67.313 E45.02756
G1 X69.089 Y67.823 E45.04769
G1 X68.923 Y68.12 E45.06071
G1 X68.599 Y68.472 E45.07902
G1 X68.323 Y68.652 E45.09163
G1 X68.007 Y68.776 E45.10462
G1 X67.547 Y68.842 E45.1224
G1 X52.434 Y68.841 E45.70078
G1 X52.108 Y68.806 E45.71333
G1 X51.829 Y68.722 E45.72448
G1 X51.54 Y68.57 E45.73697
G1 X51.255 Y68.338 E45.75104
G1 X51.051 Y68.084 E45.7635
G1 X50.895 Y67.781 E45.77655
G1 X50.777 Y67.271 E45.79658
G1 X50.781 Y51.925 E46.38387
G1 X50.849 Y51.587 E46.39707
G0 F1620 X50.971 Y51.282
G0 X51.174 Y50.979
G0 F4320 X50.931 Y50.727
G1 F1800 X51.239 Y50.443 E46.4131
G1 X51.708 Y50.17 E46.43387
G1 X52.314 Y50.031 E46.45766
G1 X67.847 Y50.031 E47.05211
G1 X68.471 Y50.253 E47.07745
G1 X68.875 Y50.532 E47.09624
G1 X69.158 Y50.841 E47.11228
G1 X69.443 Y51.365 E47.13511
G1 X69.573 Y51.936 E47.15752
G1 X69.568 Y67.356 E47.74764
G1 X69.415 Y67.96 E47.77149
G1 X69.181 Y68.357 E47.78912
G1 X68.79 Y68.765 E47.81075
G1 X68.451 Y68.978 E47.82607
G1 X68.099 Y69.116 E47.84054
G1 X67.547 Y69.192 E47.86186
G1 X52.397 Y69.189 E48.44165
G1 X52.071 Y69.154 E48.4542
G1 X51.728 Y69.057 E48.46784
G1 X51.377 Y68.88 E48.48289
G1 X51.034 Y68.609 E48.49962
G1 X50.778 Y68.303 E48.51488
G1 X50.554 Y67.86 E48.53388
G1 X50.427 Y67.311 E48.55545
G1 X50.431 Y51.888 E49.14568
G1 X50.524 Y51.457 E49.16256
G1 X50.582 Y51.321 E49.16822
G0 F1620 X50.68 Y51.087
G0 X50.931 Y50.727
G1 F2400 E46.66822
G0 F4320 X54.072 Y54.955
G1 F2400 E49.16822
G1 F1800 X54.642 Y54.275 E49.20217
G1 X55.745 Y53.721 E49.24941
G1 X55.791 Y53.712 E49.2512
G0 F1620 X55.891 Y53.695
G1 F2400 E46.7512
G0 F4320 X64.113 Y53.694
G1 F2400 E49.2512
G1 F1800 X64.234 Y53.721 E49.25595
G1 X65.054 Y54.101 E49.29054
G1 X65.849 Y54.769 E49.33027
G0 F1620 X65.865 Y54.782
G0 X65.925 Y54.901
G0 F4320 X65.925 Y55.681
G1 F1800 X65.584 Y55.003 E49.35932
G1 X64.863 Y54.398 E49.39534
G1 X64.124 Y54.055 E49.42652
G1 X63.49 Y53.915 E49.45137
G1 X60.65 Y53.915 E49.56005
G1 X60.03 Y54.018 E49.5841
G1 X59.404 Y53.919 E49.60836
G1 X56.566 Y53.93 E49.71697
G1 X55.856 Y54.057 E49.74457
G1 X54.863 Y54.556 E49.7871
G1 X54.42 Y55.084 E49.81348
G0 F1620 X54.258 Y55.277
G0 X54.072 Y55.678
G1 F2400 E47.31348
G0 F4320 X54.072 Y64.273
G1 F2400 E49.81348
G1 F1800 X54.135 Y64.398 E49.81884
G1 X54.949 Y65.081 E49.8595
G1 X55.762 Y65.458 E49.8938
G1 X56.168 Y65.548 E49.90971
G0 F1620 X56.352 Y65.588
G1 F2400 E47.40971
G0 F4320 X63.535 Y65.588
G1 F2400 E49.90971
G1 F1800 X64.255 Y65.459 E49.93771
G1 X65.358 Y64.905 E49.98494
G1 X65.827 Y64.345 E50.0129
G0 F1620 X65.927 Y64.226
G0 F4320 X65.927 Y63.503
G1 F1800 X65.742 Y63.903 E50.02976
G1 X65.137 Y64.624 E50.06578
G1 X64.144 Y65.123 E50.10831
G1 X63.434 Y65.25 E50.13592
G1 X60.532 Y65.265 E50.24698
G1 X59.992 Y65.155 E50.26807
G1 X59.418 Y65.259 E50.29039
G1 X56.513 Y65.265 E50.40157
G1 X55.875 Y65.124 E50.42657
G1 X55.137 Y64.782 E50.4577
G1 X54.416 Y64.177 E50.49372
G1 X54.383 Y64.111 E50.49654
G0 F1620 X54.072 Y63.492
G0 F4320 X54.253 Y63.073
G1 F1800 X54.135 Y62.412 E50.52224
G1 X54.125 Y56.691 E50.74118
G1 X54.249 Y56.129 E50.76321
G1 X54.557 Y55.465 E50.79122
G1 X55.084 Y54.837 E50.8226
G1 X55.967 Y54.393 E50.86042
G1 X56.628 Y54.275 E50.88612
G1 X59.349 Y54.265 E50.99025
