; generated by Slic3r 1.3.0 on 2024-06-08 at 17:01:04

; external perimeters extrusion width = 0.55mm (7.28mm^3/s)
; perimeters extrusion width = 0.70mm (11.44mm^3/s)
; infill extrusion width = 0.63mm (13.45mm^3/s)
; solid infill extrusion width = 0.70mm (3.81mm^3/s)
; top infill extrusion width = 0.70mm (2.86mm^3/s)

M107
M104 S200 ; set temperature
G28 ; home all axes
G1 Z5 F5000 ; lift nozzle

; Filament gcode

M109 S200 ; set temperature and wait for it to be reached
G21 ; set units to millimeters
G90 ; use absolute coordinates
M82 ; use absolute distances for extrusion
G92 E0
G1 Z0.350 F7800.000
G1 E-2.00000 F2400.00000
G92 E0
G1 X86.711 Y86.429 F7800.000
G1 E2.00000 F2400.00000
G1 F1800
G1 X87.282 Y85.900 E2.02161
G1 X87.893 Y85.435 E2.04295
G1 X88.538 Y85.034 E2.06403
G1 X89.217 Y84.696 E2.08511
G1 X89.928 Y84.422 E2.10627
G1 X90.658 Y84.217 E2.12733
G1 X91.404 Y84.082 E2.14838
G1 X92.000 Y84.026 E2.16501
G1 X92.469 Y84.010 E2.17804
G1 X107.531 Y84.010 E2.59646
G1 X108.000 Y84.026 E2.60949
G1 X108.599 Y84.083 E2.62620
G1 X109.342 Y84.217 E2.64718
G1 X110.074 Y84.422 E2.66828
G1 X110.781 Y84.695 E2.68932
G1 X111.044 Y84.817 E2.69739
G1 X111.614 Y85.122 E2.71535
G1 X112.114 Y85.440 E2.73181
G1 X112.718 Y85.900 E2.75289
G1 X113.286 Y86.426 E2.77439
G1 X113.804 Y87.007 E2.79601
G1 X114.264 Y87.638 E2.81771
G1 X114.667 Y88.320 E2.83972
G1 X114.849 Y88.692 E2.85123
G1 X115.145 Y89.425 E2.87317
G1 X115.332 Y90.043 E2.89112
G1 X115.456 Y90.592 E2.90674
G1 X115.564 Y91.394 E2.92922
G1 X115.598 Y92.224 E2.95231
G1 X115.598 Y107.166 E3.36736
G1 X115.583 Y107.635 E3.38039
G1 X115.542 Y108.113 E3.39373
G1 X115.372 Y109.053 E3.42026
G1 X115.197 Y109.676 E3.43824
G1 X114.908 Y110.427 E3.46058
G1 X114.548 Y111.143 E3.48283
G1 X114.114 Y111.825 E3.50530
G1 X113.621 Y112.453 E3.52748
G1 X113.056 Y113.040 E3.55010
G1 X112.442 Y113.562 E3.57248
G1 X111.782 Y114.018 E3.59477
G1 X111.073 Y114.409 E3.61726
G1 X110.333 Y114.725 E3.63961
G1 X109.568 Y114.965 E3.66188
G1 X108.817 Y115.124 E3.68321
G1 X108.006 Y115.212 E3.70587
G1 X107.537 Y115.227 E3.71890
G1 X92.463 Y115.227 E4.13764
G1 X91.994 Y115.212 E4.15067
G1 X91.353 Y115.149 E4.16856
G1 X90.576 Y115.002 E4.19053
G1 X89.817 Y114.779 E4.21250
G1 X88.929 Y114.410 E4.23922
G1 X88.382 Y114.116 E4.25645
G1 X87.781 Y113.727 E4.27633
G1 X87.562 Y113.565 E4.28391
G1 X86.945 Y113.042 E4.30638
G1 X86.383 Y112.458 E4.32890
G1 X85.886 Y111.826 E4.35123
G1 X85.455 Y111.149 E4.37351
G1 X85.092 Y110.428 E4.39593
G1 X84.803 Y109.676 E4.41830
G1 X84.628 Y109.053 E4.43629
G1 X84.458 Y108.113 E4.46283
G1 X84.417 Y107.635 E4.47616
G1 X84.402 Y107.166 E4.48919
G1 X84.402 Y92.224 E4.90423
G1 X84.436 Y91.391 E4.92740
G1 X84.507 Y90.816 E4.94349
G1 X84.668 Y90.043 E4.96542
G1 X84.855 Y89.425 E4.98337
G1 X85.151 Y88.691 E5.00534
G1 X85.333 Y88.320 E5.01684
G1 X85.735 Y87.639 E5.03879
G1 X86.195 Y87.009 E5.06046
G1 X86.660 Y86.483 E5.07996
G1 E3.07996 F2400.00000
G92 E0
G1 X107.362 Y106.789 F7800.000
G1 E2.00000 F2400.00000
G1 F1800
G1 X107.116 Y107.035 E2.00818
G1 X106.832 Y107.225 E2.01622
G1 X106.658 Y107.306 E2.02074
G1 X106.336 Y107.404 E2.02865
G1 X106.003 Y107.437 E2.03652
G1 X93.997 Y107.437 E2.31883
G1 X93.664 Y107.404 E2.32670
G1 X93.331 Y107.303 E2.33488
G1 X93.030 Y107.142 E2.34291
G1 X92.879 Y107.030 E2.34732
G1 X92.646 Y106.797 E2.35508
G1 X92.531 Y106.643 E2.35959
G1 X92.370 Y106.341 E2.36763
G1 X92.270 Y106.008 E2.37581
G1 X92.237 Y105.680 E2.38357
G1 X92.237 Y93.869 E2.66129
G1 X92.255 Y93.463 E2.67084
G1 X92.321 Y93.128 E2.67887
G1 X92.454 Y92.807 E2.68705
G1 X92.643 Y92.523 E2.69508
G1 X92.773 Y92.380 E2.69962
G1 X93.037 Y92.163 E2.70765
G1 X93.344 Y92.000 E2.71583
G1 X93.677 Y91.899 E2.72402
G1 X94.010 Y91.866 E2.73189
G1 X105.990 Y91.866 E3.01357
G1 X106.323 Y91.899 E3.02144
G1 X106.661 Y92.002 E3.02975
G1 X106.957 Y92.160 E3.03766
G1 X107.108 Y92.272 E3.04206
G1 X107.350 Y92.513 E3.05009
G1 X107.546 Y92.807 E3.05840
G1 X107.679 Y93.128 E3.06658
G1 X107.745 Y93.458 E3.07450
G1 X107.763 Y93.869 E3.08416
G1 X107.763 Y105.680 E3.36188
G1 X107.731 Y106.001 E3.36948
G1 X107.686 Y106.183 E3.37389
G1 X107.555 Y106.499 E3.38192
G1 X107.404 Y106.726 E3.38834
G1 X107.362 Y106.789 F7800.000
G1 E1.38834 F2400.00000
G92 E0
G1 X93.819 Y91.364 F7800.000
G1 E2.00000 F2400.00000
G1 F1800
G1 X93.576 Y91.388 E2.00678
G1 X93.145 Y91.519 E2.01928
G1 X92.748 Y91.730 E2.03178
G1 X92.415 Y92.003 E2.04375
G1 X92.233 Y92.203 E2.05126
G1 X91.994 Y92.562 E2.06323
G1 X91.823 Y92.978 E2.07573
G1 X91.756 Y93.316 E2.08529
G1 X91.756 Y92.254 E2.11478
G1 X91.781 Y91.925 E2.12394
G1 X91.818 Y91.804 E2.12747
G1 X91.884 Y91.680 E2.13136
G1 X91.970 Y91.575 E2.13512
G1 X92.078 Y91.487 E2.13901
G1 X92.199 Y91.422 E2.14283
G1 X92.331 Y91.382 E2.14667
G1 X92.507 Y91.364 E2.15159
G1 X93.744 Y91.364 E2.18594
G1 E0.18594 F2400.00000
G92 E0
G1 X106.181 Y91.364 F7800.000
G1 E2.00000 F2400.00000
G1 F1800
G1 X107.493 Y91.364 E2.03644
G1 X107.669 Y91.382 E2.04135
G1 X107.801 Y91.422 E2.04518
G1 X107.923 Y91.487 E2.04901
G1 X108.029 Y91.574 E2.05285
G1 X108.117 Y91.681 E2.05667
G1 X108.182 Y91.803 E2.06052
G1 X108.232 Y91.984 E2.06575
G1 X108.233 Y93.260 E2.10118
G1 X108.177 Y92.977 E2.10917
G1 X108.005 Y92.562 E2.12167
G1 X107.752 Y92.182 E2.13434
G1 X107.447 Y91.878 E2.14631
G1 X107.235 Y91.721 E2.15363
G1 X106.861 Y91.521 E2.16542
G1 X106.425 Y91.388 E2.17808
G1 X106.256 Y91.372 E2.18279
G1 E0.18279 F2400.00000
G92 E0
G1 X108.243 Y106.088 F7800.000
G1 E2.00000 F2400.00000
G1 F1800
G1 X108.244 Y107.129 E2.02892
G1 X108.227 Y107.304 E2.03378
G1 X108.187 Y107.435 E2.03760
G1 X108.122 Y107.557 E2.04143
G1 X108.034 Y107.663 E2.04526
G1 X107.928 Y107.751 E2.04908
G1 X107.806 Y107.816 E2.05291
G1 X107.675 Y107.856 E2.05674
G1 X107.498 Y107.873 E2.06166
G1 X106.574 Y107.873 E2.08734
G1 X106.844 Y107.791 E2.09519
G1 X107.088 Y107.677 E2.10267
G1 X107.446 Y107.437 E2.11465
G1 X107.765 Y107.119 E2.12716
G1 X108.015 Y106.744 E2.13967
G1 X108.179 Y106.346 E2.15163
G1 X108.225 Y106.161 E2.15692
G1 E0.15692 F2400.00000
G92 E0
G1 X93.427 Y107.873 F7800.000
G1 E2.00000 F2400.00000
G1 F1800
G1 X92.502 Y107.873 E2.02569
G1 X92.325 Y107.856 E2.03061
G1 X92.194 Y107.816 E2.03444
G1 X92.072 Y107.751 E2.03827
G1 X91.967 Y107.664 E2.04205
G1 X91.878 Y107.557 E2.04593
G1 X91.813 Y107.435 E2.04974
G1 X91.773 Y107.304 E2.05356
G1 X91.756 Y107.129 E2.05844
G1 X91.756 Y106.080 E2.08758
G1 X91.889 Y106.540 E2.10088
G1 X92.092 Y106.921 E2.11287
G1 X92.253 Y107.137 E2.12034
G1 X92.540 Y107.423 E2.13161
G1 X92.752 Y107.581 E2.13894
G1 X93.132 Y107.784 E2.15090
G1 X93.355 Y107.851 E2.15738
G1 X93.427 Y108.391 F7800.000
G1 F1800
G1 X92.476 Y108.391 E2.17973
G1 X92.224 Y108.366 E2.18569
G1 X91.994 Y108.297 E2.19133
G1 X91.783 Y108.184 E2.19697
G1 X91.599 Y108.033 E2.20256
G1 X91.445 Y107.846 E2.20825
G1 X91.332 Y107.634 E2.21388
G1 X91.263 Y107.405 E2.21951
G1 X91.238 Y107.155 E2.22543
G1 X91.238 Y92.235 E2.57626
G1 X91.269 Y91.830 E2.58582
G1 X91.337 Y91.605 E2.59134
G1 X91.451 Y91.391 E2.59704
G1 X91.601 Y91.208 E2.60262
G1 X91.789 Y91.054 E2.60831
G1 X92.000 Y90.941 E2.61395
G1 X92.230 Y90.871 E2.61960
G1 X92.482 Y90.846 E2.62556
G1 X107.518 Y90.846 E2.97912
G1 X107.770 Y90.871 E2.98507
G1 X108.000 Y90.941 E2.99072
G1 X108.212 Y91.054 E2.99636
G1 X108.397 Y91.206 E3.00200
G1 X108.549 Y91.391 E3.00764
G1 X108.663 Y91.603 E3.01330
G1 X108.750 Y91.946 E3.02161
G1 X108.762 Y107.155 E3.37923
G1 X108.737 Y107.405 E3.38515
G1 X108.668 Y107.634 E3.39078
G1 X108.555 Y107.846 E3.39642
G1 X108.402 Y108.031 E3.40206
G1 X108.217 Y108.184 E3.40770
G1 X108.006 Y108.297 E3.41333
G1 X107.776 Y108.366 E3.41897
G1 X107.524 Y108.391 E3.42493
G1 X93.502 Y108.391 E3.75466
G1 X93.176 Y107.958 F7800.000
G1 E1.75466 F2400.00000
G92 E0
G1 X101.443 Y101.497 F7800.000
G1 E2.00000 F2400.00000
G1 F1800
G1 X101.443 Y101.083 E2.01150
G1 X102.457 Y101.083 E2.03967
G1 X102.457 Y101.497 E2.05118
G1 X101.518 Y101.497 E2.07726
G1 E0.07726 F2400.00000
G92 E0
G1 X101.443 Y98.097 F7800.000
G1 E2.00000 F2400.00000
G1 F1800
G1 X101.443 Y97.683 E2.01150
G1 X102.457 Y97.683 E2.03967
G1 X102.457 Y98.097 E2.05118
G1 X101.518 Y98.097 E2.07726
G1 X102.475 Y98.615 F7800.000
G1 F1800
G1 X100.925 Y98.615 E2.11371
G1 X100.925 Y97.165 E2.14780
G1 X102.975 Y97.165 E2.19601
G1 X102.975 Y102.015 E2.31005
G1 X100.925 Y102.015 E2.35826
G1 X100.925 Y100.565 E2.39235
G1 X102.475 Y100.565 E2.42880
G1 X102.475 Y98.690 E2.47289
G1 X102.586 Y98.128 F7800.000
G1 E0.47289 F2400.00000
G92 E0
G1 X98.557 Y101.083 F7800.000
G1 E2.00000 F2400.00000
G1 F1800
G1 X98.557 Y101.497 E2.01150
G1 X97.543 Y101.497 E2.03967
G1 X97.543 Y101.083 E2.05118
G1 X98.482 Y101.083 E2.07726
G1 E0.07726 F2400.00000
G92 E0
G1 X98.557 Y98.097 F7800.000
G1 E2.00000 F2400.00000
G1 F1800
G1 X97.543 Y98.097 E2.02817
G1 X97.543 Y97.683 E2.03967
G1 X98.557 Y97.683 E2.06784
G1 X98.557 Y98.022 E2.07726
G1 X97.525 Y98.615 F7800.000
G1 F1800
G1 X97.525 Y100.565 E2.12311
G1 X99.075 Y100.565 E2.15956
G1 X99.075 Y102.015 E2.19366
G1 X97.025 Y102.015 E2.24186
G1 X97.025 Y97.165 E2.35590
G1 X99.075 Y97.165 E2.40411
G1 X99.075 Y98.615 E2.43820
G1 X97.600 Y98.615 E2.47289
G1 X97.041 Y98.739 F7800.000
G1 Z0.650 F7800.000
G1 E0.47289 F2400.00000
G92 E0
G1 X92.346 Y98.615 F7800.000
G1 E2.00000 F2400.00000
G1 F3000
G1 X92.346 Y94.302 E2.08890
G1 X92.375 Y93.622 E2.10293
G1 X92.441 Y93.287 E2.10996
G1 X92.573 Y92.966 E2.11712
G1 X92.761 Y92.681 E2.12415
G1 X92.895 Y92.534 E2.12826
G1 X93.160 Y92.318 E2.13530
G1 X93.467 Y92.154 E2.14248
G1 X93.801 Y92.054 E2.14965
G1 X94.134 Y92.021 E2.15655
G1 X105.866 Y92.021 E2.39836
G1 X106.200 Y92.054 E2.40527
G1 X106.544 Y92.159 E2.41268
G1 X106.834 Y92.315 E2.41947
G1 X106.985 Y92.426 E2.42333
G1 X107.227 Y92.667 E2.43037
G1 X107.423 Y92.960 E2.43764
G1 X107.503 Y93.129 E2.44150
G1 X107.597 Y93.438 E2.44816
G1 X107.625 Y93.628 E2.45211
G1 X107.654 Y94.302 E2.46601
G1 X107.654 Y105.667 E2.70024
G1 X107.622 Y105.998 E2.70711
G1 X107.517 Y106.341 E2.71449
G1 X107.361 Y106.633 E2.72132
G1 X107.249 Y106.783 E2.72518
G1 X107.008 Y107.025 E2.73221
G1 X106.724 Y107.215 E2.73925
G1 X106.545 Y107.298 E2.74333
G1 X106.228 Y107.394 E2.75014
G1 X105.896 Y107.427 E2.75704
G1 X94.104 Y107.427 E3.00006
G1 X93.771 Y107.394 E3.00696
G1 X93.438 Y107.293 E3.01413
G1 X93.137 Y107.132 E3.02116
G1 X92.987 Y107.020 E3.02502
G1 X92.758 Y106.791 E3.03170
G1 X92.639 Y106.633 E3.03577
G1 X92.479 Y106.331 E3.04282
G1 X92.378 Y105.998 E3.04999
G1 X92.346 Y105.675 E3.05668
G1 X92.346 Y98.690 E3.20064
G1 X91.913 Y98.366 F7800.000
G1 E1.20064 F2400.00000
G92 E0
G1 X91.880 Y93.236 F7800.000
G1 E2.00000 F2400.00000
G1 F900
G1 X91.897 Y92.139 E2.02959
G1 X91.926 Y91.993 E2.03361
G1 X91.975 Y91.874 E2.03707
G1 X92.047 Y91.767 E2.04055
G1 X92.139 Y91.676 E2.04405
G1 X92.247 Y91.604 E2.04755
G1 X92.367 Y91.554 E2.05105
G1 X92.502 Y91.527 E2.05478
G1 X93.624 Y91.522 E2.08505
G1 X93.253 Y91.634 E2.09551
G1 X92.848 Y91.849 E2.10787
G1 X92.508 Y92.126 E2.11971
G1 X92.318 Y92.336 E2.12736
G1 X92.075 Y92.702 E2.13920
G1 X91.894 Y93.162 E2.15254
G1 E0.15254 F2400.00000
G92 E0
G1 X106.376 Y91.522 F7800.000
G1 E2.00000 F2400.00000
G1 F900
G1 X107.400 Y91.522 E2.02762
G1 X107.569 Y91.538 E2.03220
G1 X107.699 Y91.578 E2.03587
G1 X107.847 Y91.661 E2.04044
G1 X107.953 Y91.767 E2.04449
G1 X108.024 Y91.874 E2.04796
G1 X108.076 Y91.998 E2.05159
G1 X108.103 Y92.133 E2.05530
G1 X108.120 Y93.233 E2.08499
G1 X108.028 Y92.928 E2.09360
G1 X107.913 Y92.683 E2.10089
G1 X107.662 Y92.308 E2.11306
G1 X107.351 Y91.999 E2.12490
G1 X107.134 Y91.840 E2.13215
G1 X106.760 Y91.639 E2.14360
G1 X106.448 Y91.543 E2.15242
G1 E0.15242 F2400.00000
G92 E0
G1 X108.120 Y106.284 F7800.000
G1 E2.00000 F2400.00000
G1 F900
G1 X108.120 Y107.118 E2.02249
G1 X108.104 Y107.288 E2.02710
G1 X108.065 Y107.416 E2.03069
G1 X107.982 Y107.563 E2.03526
G1 X107.876 Y107.669 E2.03930
G1 X107.753 Y107.751 E2.04330
G1 X107.587 Y107.806 E2.04801
G1 X107.417 Y107.823 E2.05263
G1 X106.747 Y107.823 E2.07069
G1 X107.000 Y107.705 E2.07823
G1 X107.366 Y107.460 E2.09010
G1 X107.676 Y107.150 E2.10192
G1 X107.836 Y106.933 E2.10918
G1 X108.037 Y106.557 E2.12070
G1 X108.099 Y106.356 E2.12637
G1 E0.12637 F2400.00000
G92 E0
G1 X93.254 Y107.823 F7800.000
G1 E2.00000 F2400.00000
G1 F900
G1 X92.583 Y107.823 E2.01810
G1 X92.414 Y107.806 E2.02270
G1 X92.290 Y107.769 E2.02619
G1 X92.158 Y107.698 E2.03023
G1 X92.021 Y107.566 E2.03535
G1 X91.933 Y107.412 E2.04014
G1 X91.896 Y107.288 E2.04362
G1 X91.880 Y107.118 E2.04824
G1 X91.880 Y106.286 E2.07069
G1 X91.958 Y106.546 E2.07801
G1 X92.165 Y106.934 E2.08989
G1 X92.333 Y107.159 E2.09747
G1 X92.620 Y107.446 E2.10841
G1 X92.836 Y107.607 E2.11568
G1 X93.186 Y107.793 E2.12637
G1 X93.254 Y108.383 F7800.000
G1 F3000
G1 X92.556 Y108.383 E2.14076
G1 X92.304 Y108.359 E2.14598
G1 X92.074 Y108.289 E2.15092
G1 X91.857 Y108.173 E2.15600
G1 X91.596 Y107.934 E2.16329
G1 X91.413 Y107.627 E2.17066
G1 X91.343 Y107.398 E2.17560
G1 X91.319 Y107.145 E2.18083
G1 X91.319 Y92.629 E2.48000
G1 X91.338 Y92.074 E2.49145
G1 X91.387 Y91.829 E2.49661
G1 X91.479 Y91.608 E2.50154
G1 X91.612 Y91.409 E2.50648
G1 X91.782 Y91.240 E2.51142
G1 X91.982 Y91.106 E2.51637
G1 X92.204 Y91.015 E2.52132
G1 X92.442 Y90.968 E2.52632
G1 X92.782 Y90.961 E2.53333
G1 X107.427 Y90.961 E2.83518
G1 X107.679 Y90.986 E2.84040
G1 X107.915 Y91.058 E2.84548
G1 X108.213 Y91.235 E2.85262
G1 X108.388 Y91.409 E2.85771
G1 X108.521 Y91.608 E2.86264
G1 X108.615 Y91.835 E2.86770
G1 X108.661 Y92.068 E2.87261
G1 X108.681 Y92.629 E2.88419
G1 X108.681 Y107.145 E3.18336
G1 X108.656 Y107.398 E3.18860
G1 X108.585 Y107.632 E3.19363
G1 X108.408 Y107.930 E3.20078
G1 X108.234 Y108.104 E3.20586
G1 X108.029 Y108.241 E3.21093
G1 X107.697 Y108.359 E3.21820
G1 X107.444 Y108.383 E3.22343
G1 X93.329 Y108.383 E3.51434
G1 X93.004 Y107.951 F7800.000
G1 E1.51434 F2400.00000
G92 E0
G1 X97.586 Y101.455 F7800.000
G1 E2.00000 F2400.00000
G1 F900
G1 X97.586 Y101.126 E2.00887
G1 X98.514 Y101.126 E2.03392
G1 X98.514 Y101.455 E2.04279
G1 X97.661 Y101.455 E2.06582
G1 E0.06582 F2400.00000
G92 E0
G1 X97.586 Y98.055 F7800.000
G1 E2.00000 F2400.00000
G1 F900
G1 X97.586 Y97.726 E2.00887
G1 X98.514 Y97.726 E2.03392
G1 X98.514 Y98.055 E2.04279
G1 X97.661 Y98.055 E2.06582
G1 X97.525 Y98.615 F7800.000
G1 F900
G1 X97.525 Y100.565 E2.10601
G1 X99.075 Y100.565 E2.13796
G1 X99.075 Y102.015 E2.16785
G1 X97.025 Y102.015 E2.21010
G1 X97.025 Y97.165 E2.31006
G1 X99.075 Y97.165 E2.35231
G1 X99.075 Y98.615 E2.38219
G1 X97.600 Y98.615 E2.41259
G1 X97.041 Y98.739 F7800.000
G1 E0.41259 F2400.00000
G92 E0
G1 X101.486 Y101.126 F7800.000
G1 E2.00000 F2400.00000
G1 F900
G1 X102.414 Y101.126 E2.02505
G1 X102.414 Y101.455 E2.03392
G1 X101.486 Y101.455 E2.05898
G1 X101.486 Y101.201 E2.06582
G1 E0.06582 F2400.00000
G92 E0
G1 X101.486 Y98.055 F7800.000
G1 E2.00000 F2400.00000
G1 F900
G1 X101.486 Y97.726 E2.00887
G1 X102.414 Y97.726 E2.03392
G1 X102.414 Y98.055 E2.04279
G1 X101.561 Y98.055 E2.06582
G1 X102.475 Y98.615 F7800.000
G1 F900
G1 X100.925 Y98.615 E2.09777
G1 X100.925 Y97.165 E2.12766
G1 X102.975 Y97.165 E2.16991
G1 X102.975 Y102.015 E2.26987
G1 X100.925 Y102.015 E2.31212
G1 X100.925 Y100.565 E2.34200
G1 X102.475 Y100.565 E2.37395
G1 X102.475 Y98.690 E2.41259
G1 X102.586 Y98.128 F7800.000
G1 Z0.950 F7800.000
G1 E0.41259 F2400.00000
G92 E0
G1 X107.553 Y98.615 F7800.000
G1 E2.00000 F2400.00000
G1 F3000
G1 X107.553 Y105.656 E2.14511
G1 X107.521 Y105.989 E2.15201
G1 X107.415 Y106.336 E2.15949
G1 X107.261 Y106.623 E2.16621
