;FLAVOR:Marlin
;TIME:2793
;Filament used: 1.37282m
;Layer height: 0.13125
;MINX:31.926
;MINY:30.926
;MINZ:0.263
;MAXX:88.076
;MAXY:89.076
;MAXZ:20.044
;TARGET_MACHINE.NAME:Monoprice Select Mini V2
;Generated with Cura_SteamEngine 5.7.2
M140 S65
M105
M190 S65
M104 S205
M105
M109 S205
M82 ;absolute extrusion mode
G21;(metric values)
G90;(absolute positioning)
M82;(set extruder to absolute mode)
M107;(start with the fan off)
G28;(Home the printer)
G92 E0;(Reset the extruder to 0)
G0 Z5 E5 F500;(Move up and prime the nozzle)
G0 X-1 Z0;(Move outside the printable area)
G1 Y60 E8 F500;(Draw a priming/wiping line to the rear)
G1 X-1;(Move a little closer to the print area)
G1 Y10 E16 F500;(draw more priming/wiping)
G1 E15 F250;(Small retract)
G92 E0;(Zero the extruder)
G92 E0
G92 E0
G1 F2400 E-2.5
;LAYER_COUNT:152
;LAYER:0
M107
G0 F4320 X37.046 Y35.812 Z0.263
;TYPE:SKIRT
G1 F2400 E0
G1 F1800 X38.232 Y34.751 E0.0609
G1 X39.634 Y33.726 E0.12736
G1 X41.109 Y32.862 E0.19278
G1 X42.535 Y32.201 E0.25293
G1 X44.254 Y31.598 E0.32265
G1 X45.46 Y31.296 E0.37023
G1 X47.612 Y30.984 E0.45345
G1 X49.248 Y30.926 E0.5161
G1 X50.423 Y30.984 E0.56112
G1 X52.602 Y31.316 E0.64547
G1 X54.136 Y31.717 E0.70615
G1 X55.491 Y32.207 E0.76129
G1 X56.964 Y32.902 E0.82362
G1 X58.706 Y33.955 E0.90152
G1 X59.852 Y34.821 E0.95649
G1 X61.214 Y36.07 E1.02722
G1 X62.229 Y37.205 E1.08549
G1 X63.294 Y38.662 E1.15456
G1 X64.14 Y40.109 E1.2187
G1 X64.801 Y41.535 E1.27885
G1 X65.404 Y43.254 E1.34857
G1 X65.706 Y44.46 E1.39615
G1 X66.018 Y46.61 E1.47929
G1 X66.076 Y48.247 E1.54198
G1 X66.018 Y49.423 E1.58704
G1 X65.686 Y51.606 E1.67154
G1 X65.323 Y53.007 E1.72693
G1 X64.77 Y54.545 E1.78948
G1 X64.102 Y55.962 E1.84943
G1 X63.046 Y57.706 E1.92745
G1 X62.026 Y59.054 E1.99214
G1 X62.632 Y58.956 E2.01564
G1 X83.05 Y58.929 E2.79703
G1 X84.509 Y59.134 E2.85342
G1 X85.752 Y59.728 E2.90614
G1 X87.003 Y60.779 E2.96867
G1 X87.851 Y62.448 E3.04031
G1 X88.046 Y63.629 E3.08612
G1 X88.076 Y84.475 E3.8839
G1 X87.841 Y85.543 E3.92575
G1 X87.281 Y86.751 E3.9767
G1 X86.261 Y87.965 E4.03739
G1 X86.15 Y88.053 E4.04281
G1 X84.561 Y88.85 E4.11084
G1 X83.371 Y89.046 E4.15699
G1 X62.527 Y89.076 E4.95469
G1 X61.459 Y88.841 E4.99654
G1 X60.251 Y88.281 E5.0475
G1 X59.037 Y87.261 E5.10818
G1 X58.949 Y87.15 E5.1136
G1 X58.152 Y85.561 E5.18163
G1 X57.956 Y84.371 E5.22779
G1 X57.926 Y63.527 E6.02549
G1 X58.175 Y62.391 E6.06999
G1 X56.893 Y63.14 E6.12682
G1 X55.467 Y63.801 E6.18697
G1 X53.748 Y64.404 E6.25668
G1 X52.542 Y64.706 E6.30426
G1 X50.39 Y65.018 E6.38748
G1 X48.754 Y65.076 E6.45013
G1 X47.579 Y65.018 E6.49515
G1 X45.4 Y64.686 E6.5795
G1 X43.838 Y64.278 E6.64129
G1 X42.604 Y63.834 E6.69148
G1 X40.974 Y63.065 E6.76045
G1 X39.319 Y62.064 E6.83447
G1 X38.289 Y61.296 E6.88364
G1 X36.737 Y59.875 E6.96417
G1 X35.671 Y58.672 E7.02568
G1 X34.858 Y57.568 E7.07815
G1 X33.815 Y55.801 E7.15668
G1 X33.224 Y54.527 E7.21042
G1 X32.598 Y52.748 E7.2826
G1 X32.296 Y51.542 E7.33018
G1 X31.984 Y49.39 E7.41339
G1 X31.926 Y47.755 E7.47601
G1 X31.984 Y46.579 E7.52107
G1 X32.316 Y44.396 E7.60557
G1 X32.679 Y42.995 E7.66096
G1 X33.232 Y41.457 E7.7235
G1 X33.9 Y40.04 E7.78346
G1 X34.956 Y38.296 E7.86148
G1 X35.843 Y37.124 E7.91773
G1 X36.577 Y36.323 E7.95931
G0 F1620 X37.046 Y35.812
G0 F4320 X37.304 Y36.049
G1 F1800 X38.439 Y35.034 E8.01758
G1 X39.841 Y34.009 E8.08404
G1 X41.256 Y33.18 E8.14681
G1 X42.682 Y32.519 E8.20696
G1 X44.339 Y31.938 E8.27416
G1 X45.545 Y31.636 E8.32173
G1 X47.625 Y31.334 E8.40217
G1 X49.231 Y31.276 E8.46367
G1 X50.406 Y31.334 E8.50869
G1 X52.514 Y31.655 E8.5903
G1 X54.017 Y32.046 E8.64973
G1 X55.342 Y32.524 E8.70364
G1 X56.815 Y33.219 E8.76597
G1 X58.495 Y34.235 E8.8411
G1 X59.615 Y35.079 E8.89477
G1 X60.977 Y36.328 E8.9655
G1 X61.946 Y37.412 E9.02114
G1 X63.011 Y38.869 E9.09021
G1 X63.822 Y40.256 E9.1517
G1 X64.483 Y41.682 E9.21185
G1 X65.064 Y43.339 E9.27904
G1 X65.366 Y44.545 E9.32662
G1 X65.668 Y46.623 E9.40698
G1 X65.726 Y48.23 E9.46852
G1 X65.668 Y49.406 E9.51358
G1 X65.347 Y51.518 E9.59534
G1 X64.984 Y52.919 E9.65072
G1 X64.453 Y54.396 E9.71079
G1 X63.785 Y55.813 E9.77074
G1 X62.767 Y57.495 E9.84599
G1 X61.901 Y58.641 E9.90096
G1 X60.76 Y59.885 E9.96556
G1 X61.551 Y59.488 E9.99943
G1 X62.632 Y59.306 E10.04138
G1 X83.05 Y59.279 E10.82278
G1 X84.404 Y59.472 E10.87512
G1 X85.562 Y60.025 E10.92423
G1 X86.724 Y61.001 E10.9823
G1 X87.514 Y62.557 E11.04909
G1 X87.696 Y63.63 E11.09074
G1 X87.726 Y84.437 E11.88702
G1 X87.507 Y85.434 E11.92608
G1 X86.984 Y86.56 E11.9736
G1 X85.993 Y87.74 E12.03257
G1 X84.451 Y88.514 E12.0986
G1 X83.37 Y88.696 E12.14055
G1 X62.565 Y88.726 E12.93676
G1 X61.568 Y88.507 E12.97582
G1 X60.442 Y87.984 E13.02334
G1 X59.262 Y86.993 E13.08231
G1 X58.488 Y85.451 E13.14834
G1 X58.306 Y84.37 E13.19029
G1 X58.276 Y63.565 E13.9865
G1 X58.495 Y62.568 E14.02556
G1 X58.999 Y61.483 E14.07134
G1 X59.182 Y61.246 E14.0828
G1 X58.161 Y61.993 E14.13122
G1 X56.746 Y62.822 E14.19398
G1 X55.32 Y63.483 E14.25413
G1 X53.663 Y64.064 E14.32133
G1 X52.457 Y64.366 E14.36891
G1 X50.377 Y64.668 E14.44934
G1 X48.771 Y64.726 E14.51084
G1 X47.596 Y64.668 E14.55587
G1 X45.488 Y64.347 E14.63747
G1 X43.926 Y63.939 E14.69925
G1 X42.753 Y63.517 E14.74696
G1 X41.123 Y62.748 E14.81593
G1 X39.528 Y61.783 E14.88728
G1 X38.498 Y61.015 E14.93645
G1 X36.999 Y59.643 E15.01421
G1 X35.953 Y58.464 E15.07453
G1 X35.14 Y57.36 E15.127
G1 X34.133 Y55.654 E15.20282
G1 X33.542 Y54.38 E15.25656
G1 X32.938 Y52.663 E15.32622
G1 X32.636 Y51.457 E15.3738
G1 X32.334 Y49.377 E15.45423
G1 X32.276 Y47.772 E15.5157
G1 X32.334 Y46.596 E15.56076
G1 X32.655 Y44.484 E15.64251
G1 X33.018 Y43.083 E15.6979
G1 X33.549 Y41.606 E15.75797
G1 X34.217 Y40.189 E15.81792
G1 X35.235 Y38.507 E15.89316
G1 X36.101 Y37.361 E15.94813
G1 X36.835 Y36.56 E15.98971
G0 F1620 X37.304 Y36.049
G0 F4320 X37.562 Y36.286
G1 F1800 X38.646 Y35.317 E16.04535
G1 X40.048 Y34.292 E16.11182
G1 X41.403 Y33.498 E16.17192
G1 X42.829 Y32.837 E16.23207
G1 X44.424 Y32.278 E16.29675
G1 X45.63 Y31.976 E16.34433
G1 X47.638 Y31.684 E16.42198
G1 X49.214 Y31.626 E16.48234
G1 X50.389 Y31.684 E16.52736
G1 X52.426 Y31.994 E16.60621
G1 X53.898 Y32.375 E16.6644
G1 X55.193 Y32.841 E16.71707
G1 X56.666 Y33.536 E16.7794
G1 X58.284 Y34.515 E16.85178
G1 X59.404 Y35.359 E16.90545
G1 X60.716 Y36.561 E16.97354
G1 X61.663 Y37.619 E17.02788
G1 X62.728 Y39.076 E17.09695
G1 X63.504 Y40.403 E17.15578
G1 X64.165 Y41.829 E17.21593
G1 X64.724 Y43.424 E17.28061
G1 X65.026 Y44.63 E17.32819
G1 X65.318 Y46.636 E17.40577
G1 X65.376 Y48.213 E17.46616
G1 X65.318 Y49.389 E17.51122
G1 X65.008 Y51.43 E17.59023
G1 X64.645 Y52.831 E17.64561
G1 X64.136 Y54.247 E17.7032
G1 X63.468 Y55.664 E17.76315
G1 X62.487 Y57.284 E17.83563
G1 X61.643 Y58.404 E17.8893
G1 X60.44 Y59.716 E17.95742
G1 X59.356 Y60.685 E18.01307
G1 X57.954 Y61.71 E18.07953
G1 X56.599 Y62.504 E18.13963
G1 X55.173 Y63.165 E18.19978
G1 X53.578 Y63.724 E18.26446
G1 X52.372 Y64.026 E18.31204
G1 X50.364 Y64.318 E18.3897
G1 X48.788 Y64.376 E18.45005
G1 X47.613 Y64.318 E18.49507
G1 X45.576 Y64.008 E18.57393
G1 X44.044 Y63.609 E18.63451
G1 X42.902 Y63.2 E18.68094
G1 X41.272 Y62.431 E18.74991
G1 X39.737 Y61.502 E18.81857
G1 X38.707 Y60.734 E18.86774
G1 X37.261 Y59.41 E18.94277
G1 X36.235 Y58.256 E19.00187
G1 X35.422 Y57.152 E19.05434
G1 X34.451 Y55.507 E19.12744
G1 X33.86 Y54.233 E19.18119
G1 X33.278 Y52.578 E19.24833
G1 X32.976 Y51.372 E19.29591
G1 X32.684 Y49.364 E19.37356
G1 X32.626 Y47.789 E19.43388
G1 X32.684 Y46.613 E19.47894
G1 X32.994 Y44.572 E19.55794
G1 X33.357 Y43.171 E19.61333
G1 X33.866 Y41.755 E19.67091
G1 X34.534 Y40.338 E19.73087
G1 X35.515 Y38.718 E19.80334
G1 X36.359 Y37.598 E19.85701
G1 X37.093 Y36.797 E19.89859
G0 F1620 X37.562 Y36.286
G0 F4320 X37.795 Y36.547
G1 F1800 X38.853 Y35.6 E19.95293
G1 X40.255 Y34.575 E20.0194
G1 X41.55 Y33.816 E20.07684
G1 X42.976 Y33.155 E20.13699
G1 X44.509 Y32.618 E20.19916
G1 X45.715 Y32.316 E20.24673
G1 X47.651 Y32.034 E20.32161
G1 X49.197 Y31.976 E20.38081
G1 X50.372 Y32.034 E20.42584
G1 X52.338 Y32.333 E20.50194
G1 X53.81 Y32.714 E20.56013
G1 X55.044 Y33.158 E20.61032
G1 X56.517 Y33.853 E20.67265
G1 X58.074 Y34.795 E20.74229
G1 X59.168 Y35.617 E20.79466
G1 X60.455 Y36.795 E20.86143
G1 X61.38 Y37.826 E20.91444
G1 X62.445 Y39.283 E20.98351
G1 X63.186 Y40.55 E21.03968
G1 X63.847 Y41.976 E21.09983
G1 X64.384 Y43.509 E21.16199
G1 X64.686 Y44.715 E21.20957
G1 X64.968 Y46.649 E21.28437
G1 X65.026 Y48.196 E21.34361
G1 X64.968 Y49.372 E21.38867
G1 X64.669 Y51.342 E21.46493
G1 X64.306 Y52.743 E21.52032
G1 X63.819 Y54.098 E21.57542
G1 X63.151 Y55.515 E21.63537
G1 X62.207 Y57.074 E21.70512
G1 X61.385 Y58.168 E21.75749
G1 X60.207 Y59.455 E21.82426
G1 X59.149 Y60.402 E21.8786
G1 X57.747 Y61.427 E21.94506
G1 X56.452 Y62.186 E22.00251
G1 X55.026 Y62.847 E22.06266
G1 X53.493 Y63.384 E22.12482
G1 X52.287 Y63.686 E22.1724
G1 X50.351 Y63.968 E22.24727
G1 X48.805 Y64.026 E22.30648
G1 X47.63 Y63.968 E22.3515
G1 X45.664 Y63.669 E22.42761
G1 X44.162 Y63.279 E22.48699
G1 X43.051 Y62.883 E22.53213
G1 X41.421 Y62.114 E22.6011
G1 X39.946 Y61.221 E22.66709
G1 X38.916 Y60.453 E22.71626
G1 X37.522 Y59.177 E22.78858
G1 X36.517 Y58.048 E22.84643
G1 X35.704 Y56.944 E22.8989
G1 X34.769 Y55.36 E22.96929
G1 X34.178 Y54.086 E23.02304
G1 X33.618 Y52.493 E23.08766
G1 X33.316 Y51.287 E23.13524
G1 X33.034 Y49.351 E23.21011
G1 X32.976 Y47.806 E23.26928
G1 X33.034 Y46.63 E23.31434
G1 X33.333 Y44.66 E23.3906
G1 X33.696 Y43.259 E23.44598
G1 X34.183 Y41.904 E23.50109
G1 X34.851 Y40.487 E23.56104
G1 X35.795 Y38.928 E23.63079
G1 X36.617 Y37.834 E23.68315
G1 X37.327 Y37.058 E23.72341
G0 F1620 X37.795 Y36.547
G0 F4320 X38.029 Y36.808
G1 F1800 X39.06 Y35.883 E23.77642
G1 X40.462 Y34.858 E23.84288
G1 X41.697 Y34.134 E23.89767
G1 X43.123 Y33.473 E23.95782
G1 X44.594 Y32.958 E24.01746
G1 X45.8 Y32.656 E24.06504
G1 X47.664 Y32.384 E24.13713
G1 X49.18 Y32.326 E24.19519
G1 X50.355 Y32.384 E24.24021
G1 X52.25 Y32.672 E24.31357
G1 X53.722 Y33.053 E24.37176
G1 X54.895 Y33.475 E24.41947
G1 X56.368 Y34.17 E24.4818
G1 X57.864 Y35.075 E24.54871
G1 X58.932 Y35.875 E24.59978
G1 X60.194 Y37.029 E24.66522
G1 X61.119 Y38.06 E24.71823
G1 X62.143 Y39.46 E24.78461
G1 X62.868 Y40.697 E24.83948
G1 X63.529 Y42.123 E24.89963
G1 X64.044 Y43.594 E24.95928
G1 X64.346 Y44.8 E25.00686
G1 X64.618 Y46.662 E25.07887
G1 X64.676 Y48.179 E25.13697
G1 X64.618 Y49.355 E25.18203
G1 X64.33 Y51.254 E25.25554
G1 X63.967 Y52.655 E25.31092
G1 X63.502 Y53.949 E25.36354
G1 X62.834 Y55.366 E25.4235
G1 X61.927 Y56.864 E25.49051
G1 X61.127 Y57.932 E25.54158
G1 X59.973 Y59.194 E25.60703
G1 X58.942 Y60.119 E25.66003
G1 X57.54 Y61.144 E25.7265
G1 X56.305 Y61.868 E25.78129
G1 X54.879 Y62.529 E25.84144
G1 X53.408 Y63.044 E25.90108
G1 X52.202 Y63.346 E25.94866
G1 X50.338 Y63.618 E26.02075
G1 X48.822 Y63.676 E26.07881
G1 X47.647 Y63.618 E26.12383
G1 X45.752 Y63.33 E26.19719
G1 X44.28 Y62.949 E26.25538
G1 X43.169 Y62.553 E26.30051
G1 X41.571 Y61.798 E26.36815
G1 X40.155 Y60.94 E26.43151
G1 X39.125 Y60.172 E26.48068
G1 X37.783 Y58.944 E26.5503
G1 X36.799 Y57.84 E26.6069
G1 X35.986 Y56.736 E26.65937
G1 X35.087 Y55.213 E26.72705
G1 X34.496 Y53.939 E26.78079
G1 X33.958 Y52.408 E26.8429
G1 X33.656 Y51.202 E26.89048
G1 X33.384 Y49.338 E26.96257
G1 X33.326 Y47.823 E27.02059
G1 X33.384 Y46.647 E27.06565
G1 X33.672 Y44.748 E27.13915
G1 X34.035 Y43.347 E27.19454
G1 X34.5 Y42.053 E27.24716
G1 X35.168 Y40.636 E27.30711
G1 X36.075 Y39.138 E27.37413
G1 X36.875 Y38.07 E27.4252
G1 X37.561 Y37.32 E27.4641
G0 F1620 X38.029 Y36.808
G0 F4320 X38.263 Y37.069
G1 F1800 X39.294 Y36.144 E27.51711
G1 X40.639 Y35.16 E27.58088
G1 X41.844 Y34.452 E27.63437
G1 X43.27 Y33.791 E27.69452
G1 X44.679 Y33.298 E27.75165
G1 X45.885 Y32.996 E27.79923
G1 X47.678 Y32.734 E27.86857
G1 X49.163 Y32.676 E27.92545
G1 X50.338 Y32.734 E27.97047
G1 X52.163 Y33.011 E28.04111
G1 X53.604 Y33.383 E28.09807
G1 X54.746 Y33.792 E28.14449
G1 X56.219 Y34.487 E28.20682
G1 X57.654 Y35.355 E28.271
G1 X58.696 Y36.134 E28.32079
G1 X59.933 Y37.263 E28.38489
G1 X60.858 Y38.294 E28.43789
G1 X61.841 Y39.637 E28.50159
G1 X62.55 Y40.844 E28.55516
G1 X63.211 Y42.27 E28.61531
G1 X63.704 Y43.679 E28.67244
G1 X64.006 Y44.885 E28.72002
G1 X64.268 Y46.676 E28.78929
G1 X64.326 Y48.162 E28.8462
G1 X64.268 Y49.338 E28.89126
G1 X63.991 Y51.166 E28.96202
G1 X63.628 Y52.567 E29.0174
G1 X63.185 Y53.8 E29.06754
G1 X62.517 Y55.217 E29.1275
G1 X61.647 Y56.654 E29.19178
G1 X60.868 Y57.696 E29.24157
G1 X59.739 Y58.933 E29.30566
G1 X58.708 Y59.858 E29.35867
G1 X57.363 Y60.842 E29.42245
G1 X56.158 Y61.55 E29.47594
G1 X54.732 Y62.211 E29.53609
G1 X53.323 Y62.704 E29.59322
G1 X52.117 Y63.006 E29.64079
G1 X50.324 Y63.268 E29.71014
G1 X48.839 Y63.326 E29.76702
G1 X47.664 Y63.268 E29.81204
G1 X45.839 Y62.991 E29.88268
G1 X44.398 Y62.619 E29.93963
G1 X43.287 Y62.223 E29.98477
G1 X41.752 Y61.498 E30.04974
G1 X40.364 Y60.659 E30.11181
G1 X39.334 Y59.891 E30.16098
G1 X38.044 Y58.711 E30.22789
G1 X37.081 Y57.632 E30.28323
G1 X36.268 Y56.528 E30.3357
G1 X35.405 Y55.066 E30.40067
G1 X34.814 Y53.792 E30.45442
G1 X34.298 Y52.323 E30.51401
G1 X33.996 Y51.117 E30.56159
G1 X33.734 Y49.324 E30.63093
G1 X33.676 Y47.84 E30.68777
G1 X33.734 Y46.664 E30.73283
G1 X34.011 Y44.836 E30.80358
G1 X34.374 Y43.435 E30.85897
G1 X34.817 Y42.202 E30.90911
G1 X35.485 Y40.785 E30.96906
G1 X36.355 Y39.348 E31.03335
G1 X37.134 Y38.306 E31.08314
G1 X37.796 Y37.581 E31.12071
G0 F1620 X38.263 Y37.069
G0 F4320 X38.497 Y37.33
G1 F1800 X39.528 Y36.405 E31.17372
G1 X40.817 Y35.462 E31.23484
G1 X41.991 Y34.77 E31.287
G1 X43.417 Y34.109 E31.34715
G1 X44.764 Y33.638 E31.40176
G1 X45.97 Y33.336 E31.44933
G1 X47.692 Y33.084 E31.51594
G1 X49.146 Y33.026 E31.57163
G1 X50.321 Y33.084 E31.61665
G1 X52.076 Y33.35 E31.68458
G1 X53.486 Y33.713 E31.7403
G1 X54.597 Y34.109 E31.78544
G1 X56.07 Y34.804 E31.84777
G1 X57.444 Y35.635 E31.90922
G1 X58.486 Y36.414 E31.95901
G1 X59.672 Y37.497 E32.02047
G1 X60.597 Y38.528 E32.07348
G1 X61.539 Y39.815 E32.13452
G1 X62.232 Y40.991 E32.18676
G1 X62.893 Y42.417 E32.24691
G1 X63.364 Y43.764 E32.30152
G1 X63.666 Y44.97 E32.3491
G1 X63.918 Y46.69 E32.41563
G1 X63.976 Y48.145 E32.47135
G1 X63.918 Y49.321 E32.51641
G1 X63.652 Y51.078 E32.58442
G1 X63.289 Y52.479 E32.63981
G1 X62.868 Y53.651 E32.68746
G1 X62.2 Y55.068 E32.74742
G1 X61.367 Y56.444 E32.80897
G1 X60.588 Y57.486 E32.85876
G1 X59.505 Y58.672 E32.92023
G1 X58.474 Y59.597 E32.97324
G1 X57.185 Y60.54 E33.03436
G1 X56.011 Y61.232 E33.08651
G1 X54.585 Y61.893 E33.14666
G1 X53.238 Y62.364 E33.20127
G1 X52.032 Y62.666 E33.24885
G1 X50.31 Y62.918 E33.31545
G1 X48.856 Y62.976 E33.37114
G1 X47.681 Y62.918 E33.41616
G1 X45.926 Y62.652 E33.48409
G1 X44.516 Y62.289 E33.53981
G1 X43.405 Y61.893 E33.58495
G1 X41.902 Y61.182 E33.64858
G1 X40.573 Y60.378 E33.70803
G1 X39.543 Y59.61 E33.7572
G1 X38.305 Y58.478 E33.82139
G1 X37.363 Y57.424 E33.87549
G1 X36.55 Y56.32 E33.92796
G1 X35.723 Y54.919 E33.99022
G1 X35.132 Y53.645 E34.04397
G1 X34.638 Y52.238 E34.10104
G1 X34.336 Y51.032 E34.14862
G1 X34.084 Y49.31 E34.21522
G1 X34.026 Y47.857 E34.27087
G1 X34.084 Y46.681 E34.31593
G1 X34.35 Y44.924 E34.38394
G1 X34.713 Y43.523 E34.43932
G1 X35.134 Y42.351 E34.48698
G1 X35.802 Y40.934 E34.54693
G1 X36.635 Y39.558 E34.60849
G1 X37.414 Y38.516 E34.65828
G1 X38.03 Y37.842 E34.69322
G0 F1620 X38.497 Y37.33
G0 F4320 X38.731 Y37.591
G1 F1800 X39.762 Y36.666 E34.74623
G1 X40.995 Y35.764 E34.8047
G1 X42.169 Y35.072 E34.85685
G1 X43.533 Y34.439 E34.9144
G1 X44.849 Y33.978 E34.96776
G1 X46.055 Y33.676 E35.01534
